; Generated by PyCAM 0.7.0~pre0~requirements.589.gc127f00a.dirty: 2021-07-29
G40	; disable tool radius compensation
G49	; disable tool length compensation
G80	; cancel modal motion
G54	; select coordinate system 1
G90	; disable incremental moves
G21	; metric
F600	; set feedrate
G64 P0.000000	; continuous mode with tolerance
M5	; stop spindle
T1 M6	; select tool
S1000	; set spindle speed
M3	; start spindle
G04 P2.0	; wait for 2.0 seconds
G0 X-9.961088 Y-9.824490 Z25.000000
F100	; set feedrate
G1 Z5.188777
F600	; set feedrate
G1 Y4.364287
  X-5.231496
  Y-9.824490
  X-0.501903
  Y4.364287
  X4.227689
  Y-9.824490
F100	; set feedrate
G1 X4.227689 Z2.594388
F600	; set feedrate
G1 Y4.364287
  X-0.501903
  Y2.352075
G0 Z25.000000
  Y-7.812278
F100	; set feedrate
G1 Z2.594388
F600	; set feedrate
G1 Y-9.824490
  X-5.231496
  Y-7.812278
G0 Z25.000000
  Y2.352075
F100	; set feedrate
G1 Z2.594388
F600	; set feedrate
G1 Y4.364287
  X-9.961088
  Y-9.824490
F100	; set feedrate
G1 X-9.961088 Z0.000000
F600	; set feedrate
G1 Y4.364287
  X-5.231496
  Y2.352075
G0 Z25.000000
  Y-7.812278
F100	; set feedrate
G1 Z0.000000
F600	; set feedrate
G1 Y-9.824490
  X-0.501903
  Y-7.812278
G0 Z25.000000
  Y2.352075
F100	; set feedrate
G1 Z0.000000
F600	; set feedrate
G1 Y4.364287
  X4.227689
  Y-9.824490
M5	; stop spindle
G0 Z25.000000
G21	; metric
F1200	; set feedrate
G64 P0.000000	; continuous mode with tolerance
M5	; stop spindle
T2 M6	; select tool
S1000	; set spindle speed
M3	; start spindle
G04 P2.0	; wait for 2.0 seconds
G0 X-9.961088
F100	; set feedrate
G1 Z0.000000
F1200	; set feedrate
G1 X4.227689
  Y-9.430357
  X-9.961088
  Y-9.036225
  X4.227689
  Y-8.642092
  X-9.961088
  Y-8.247959
  X4.227689
  Y-7.853827
  X-9.961088
  Y-7.459694
  X4.227689
  Y-7.065561
  X-9.961088
  Y-6.671428
  X4.227689
  Y-6.277296
  X-9.961088
  Y-5.883163
  X4.227689
  Y-5.489030
  X-0.019609
  X-0.035167 Z3.311273
  X-0.050725 Z3.382942
  X-0.066283 Z3.433543
  X-0.081841 Z3.474499
  X-0.097399 Z3.509525
  X-0.112957 Z3.540399
  X-0.128514 Z3.568135
  X-0.144072 Z3.593378
  X-0.159630 Z3.616572
  X-0.175188 Z3.638032
  X-0.190746 Z3.657998
  X-0.206304 Z3.676652
  X-0.221862 Z3.694140
  X-0.237420 Z3.710579
  X-0.252977 Z3.726065
  X-0.268535 Z3.740679
  X-0.284093 Z3.754488
  X-0.299651 Z3.767550
  X-0.315209 Z3.779915
  X-0.330767 Z3.791624
  X-0.346325 Z3.802717
  X-0.361883 Z3.813224
  X-0.377440 Z3.823177
  X-0.392998 Z3.832600
  X-0.408556 Z3.841516
  X-0.424114 Z3.849946
  X-0.439672 Z3.857909
  X-0.455230 Z3.865420
  X-0.470788 Z3.872495
  X-0.486345 Z3.879146
  X-0.501903 Z3.885387
  X-0.517461 Z3.891228
  X-0.533019 Z3.896679
  X-0.548577 Z3.901749
  X-0.564135 Z3.906446
  X-0.579693 Z3.910777
  X-0.595251 Z3.914749
  X-0.610808 Z3.918368
  X-0.626366 Z3.921639
  X-0.641924 Z3.924566
  X-0.657482 Z3.927154
  X-0.673040 Z3.929406
  X-0.688598 Z3.931325
  X-0.704156 Z3.932915
  X-0.719714 Z3.934176
  X-0.735271 Z3.935111
  X-0.750829 Z3.935721
  X-0.766387 Z3.936006
  X-0.781945
  X-4.951454
  X-4.967012
  X-4.982570 Z3.935721
  X-4.998128 Z3.935111
  X-5.013685 Z3.934176
  X-5.029243 Z3.932915
F984.023665	; set feedrate
G1 X-5.044801 Z3.931325
F816.694247	; set feedrate
G1 X-5.060359 Z3.929406
F698.001660	; set feedrate
G1 X-5.075917 Z3.927154
F609.431141	; set feedrate
G1 X-5.091475 Z3.924566
F540.807189	; set feedrate
G1 X-5.107033 Z3.921639
F486.073623	; set feedrate
G1 X-5.122591 Z3.918368
F441.400641	; set feedrate
G1 X-5.138148 Z3.914749
F404.247853	; set feedrate
G1 X-5.153706 Z3.910777
F372.863764	; set feedrate
G1 X-5.169264 Z3.906446
F346.001604	; set feedrate
G1 X-5.184822 Z3.901749
F322.749740	; set feedrate
G1 X-5.200380 Z3.896679
F302.426156	; set feedrate
G1 X-5.215938 Z3.891228
F284.510445	; set feedrate
G1 X-5.231496 Z3.885387
F268.598618	; set feedrate
G1 X-5.247054 Z3.879146
F254.372270	; set feedrate
G1 X-5.262611 Z3.872495
F241.577063	; set feedrate
G1 X-5.278169 Z3.865420
F230.007376	; set feedrate
G1 X-5.293727 Z3.857909
F219.495180	; set feedrate
G1 X-5.309285 Z3.849946
F209.901819	; set feedrate
G1 X-5.324843 Z3.841516
F201.111863	; set feedrate
G1 X-5.340401 Z3.832600
F193.028435	; set feedrate
G1 X-5.355959 Z3.823177
F185.569634	; set feedrate
G1 X-5.371516 Z3.813224
F178.665744	; set feedrate
G1 X-5.387074 Z3.802717
F172.257049	; set feedrate
G1 X-5.402632 Z3.791624
F166.292103	; set feedrate
G1 X-5.418190 Z3.779915
F160.726347	; set feedrate
G1 X-5.433748 Z3.767550
F155.520990	; set feedrate
G1 X-5.449306 Z3.754488
F150.642105	; set feedrate
G1 X-5.464864 Z3.740679
F146.059891	; set feedrate
G1 X-5.480422 Z3.726065
F141.748060	; set feedrate
G1 X-5.495979 Z3.710579
F137.683333	; set feedrate
G1 X-5.511537 Z3.694140
F133.845020	; set feedrate
G1 X-5.527095 Z3.676652
F130.214663	; set feedrate
G1 X-5.542653 Z3.657998
F126.775738	; set feedrate
G1 X-5.558211 Z3.638032
F123.513396	; set feedrate
G1 X-5.573769 Z3.616572
F120.414243	; set feedrate
G1 X-5.589327 Z3.593378
F117.466131	; set feedrate
G1 X-5.604885 Z3.568135
F114.657966	; set feedrate
G1 X-5.620442 Z3.540399
F111.979475	; set feedrate
G1 X-5.636000 Z3.509525
F109.420864	; set feedrate
G1 X-5.651558 Z3.474499
F106.972032	; set feedrate
G1 X-5.667116 Z3.433543
F104.619802	; set feedrate
G1 X-5.682674 Z3.382942
F102.329054	; set feedrate
G1 X-5.698232 Z3.311273
F100.001104	; set feedrate
G1 X-5.713790 Z0.000000
F1200	; set feedrate
G1 X-9.961088
  Y-5.094898
  X-5.931600
  X-5.916042 Z3.311017
  X-5.900484 Z3.399525
  X-5.884926 Z3.459706
  X-5.869368 Z3.508005
  X-5.853810 Z3.549230
  X-5.838253 Z3.585592
  X-5.822695 Z3.618327
  X-5.807137 Z3.648213
  X-5.791579 Z3.675772
  X-5.776021 Z3.701382
  X-5.760463 Z3.725321
  X-5.744905 Z3.747803
  X-5.729347 Z3.768999
  X-5.713790 Z3.789044
  X-5.698232 Z3.808050
  X-5.682674 Z3.826110
  X-5.667116 Z3.843303
  X-5.651558 Z3.859695
  X-5.636000 Z3.875343
  X-5.620442 Z3.890298
  X-5.604885 Z3.904602
  X-5.589327 Z3.918295
  X-5.573769 Z3.931409
  X-5.558211 Z3.943975
  X-5.542653 Z3.956020
  X-5.527095 Z3.967568
  X-5.511537 Z3.978641
  X-5.495979 Z3.989259
  X-5.480422 Z3.999439
  X-5.464864 Z4.009197
  X-5.449306 Z4.018550
  X-5.433748 Z4.027510
  X-5.418190 Z4.036089
  X-5.402632 Z4.044299
  X-5.387074 Z4.052151
  X-5.371516 Z4.059655
  X-5.355959 Z4.066819
  X-5.340401 Z4.073651
  X-5.324843 Z4.080159
  X-5.309285 Z4.086351
  X-5.293727 Z4.092232
  X-5.278169 Z4.097809
  X-5.262611 Z4.103087
  X-5.247054 Z4.108072
  X-5.231496 Z4.112768
  X-5.215938 Z4.117180
  X-5.200380 Z4.121311
  X-5.184822 Z4.125165
  X-5.169264 Z4.128746
  X-5.153706 Z4.132057
  X-5.138148 Z4.135101
  X-5.122591 Z4.137880
  X-5.107033 Z4.140397
  X-5.091475 Z4.142653
  X-5.075917 Z4.144650
  X-5.060359 Z4.146391
  X-5.044801 Z4.147876
  X-5.029243 Z4.149107
  X-5.013685 Z4.150085
  X-4.998128 Z4.150810
  X-4.982570 Z4.151283
  X-4.967012 Z4.151505
  X-4.951454
  X-0.781945
  X-0.766387
  X-0.750829 Z4.151283
  X-0.735271 Z4.150810
  X-0.719714 Z4.150085
  X-0.704156 Z4.149107
  X-0.688598 Z4.147876
F1052.236742	; set feedrate
G1 X-0.673040 Z4.146391
F899.312249	; set feedrate
G1 X-0.657482 Z4.144650
F785.197299	; set feedrate
G1 X-0.641924 Z4.142653
F696.781688	; set feedrate
G1 X-0.626366 Z4.140397
F626.262578	; set feedrate
G1 X-0.610808 Z4.137880
F568.705617	; set feedrate
G1 X-0.595251 Z4.135101
F520.837746	; set feedrate
G1 X-0.579693 Z4.132057
F480.402323	; set feedrate
G1 X-0.564135 Z4.128746
F445.792999	; set feedrate
G1 X-0.548577 Z4.125165
F415.835217	; set feedrate
G1 X-0.533019 Z4.121311
F389.650265	; set feedrate
G1 X-0.517461 Z4.117180
F366.567646	; set feedrate
G1 X-0.501903 Z4.112768
F346.066855	; set feedrate
G1 X-0.486345 Z4.108072
F327.737662	; set feedrate
G1 X-0.470788 Z4.103087
F311.252371	; set feedrate
G1 X-0.455230 Z4.097809
F296.346065	; set feedrate
G1 X-0.439672 Z4.092232
F282.802252	; set feedrate
G1 X-0.424114 Z4.086351
F270.442290	; set feedrate
G1 X-0.408556 Z4.080159
F259.117458	; set feedrate
G1 X-0.392998 Z4.073651
F248.702944	; set feedrate
G1 X-0.377440 Z4.066819
F239.093228	; set feedrate
G1 X-0.361883 Z4.059655
F230.198489	; set feedrate
G1 X-0.346325 Z4.052151
F221.941794	; set feedrate
G1 X-0.330767 Z4.044299
F214.256866	; set feedrate
G1 X-0.315209 Z4.036089
F207.086299	; set feedrate
G1 X-0.299651 Z4.027510
F200.380122	; set feedrate
G1 X-0.284093 Z4.018550
F194.094635	; set feedrate
G1 X-0.268535 Z4.009197
F188.191454	; set feedrate
G1 X-0.252977 Z3.999439
F182.636725	; set feedrate
G1 X-0.237420 Z3.989259
F177.400477	; set feedrate
G1 X-0.221862 Z3.978641
F172.456081	; set feedrate
G1 X-0.206304 Z3.967568
F167.779793	; set feedrate
G1 X-0.190746 Z3.956020
F163.350380	; set feedrate
G1 X-0.175188 Z3.943975
F159.148788	; set feedrate
G1 X-0.159630 Z3.931409
F155.157879	; set feedrate
G1 X-0.144072 Z3.918295
F151.362186	; set feedrate
G1 X-0.128514 Z3.904602
F147.747723	; set feedrate
G1 X-0.112957 Z3.890298
F144.301805	; set feedrate
G1 X-0.097399 Z3.875343
F141.012903	; set feedrate
G1 X-0.081841 Z3.859695
F137.870515	; set feedrate
G1 X-0.066283 Z3.843303
F134.865051	; set feedrate
G1 X-0.050725 Z3.826110
F131.987739	; set feedrate
G1 X-0.035167 Z3.808050
F129.230536	; set feedrate
G1 X-0.019609 Z3.789044
F126.586052	; set feedrate
G1 X-0.004052 Z3.768999
F124.047485	; set feedrate
G1 X0.011506 Z3.747803
F121.608560	; set feedrate
G1 X0.027064 Z3.725321
F119.263471	; set feedrate
G1 X0.042622 Z3.701382
F117.006837	; set feedrate
G1 X0.058180 Z3.675772
F114.833642	; set feedrate
G1 X0.073738 Z3.648213
F112.739190	; set feedrate
G1 X0.089296 Z3.618327
F110.719028	; set feedrate
G1 X0.104854 Z3.585592
F108.768840	; set feedrate
G1 X0.120411 Z3.549230
F106.884211	; set feedrate
G1 X0.135969 Z3.508005
F105.059967	; set feedrate
G1 X0.151527 Z3.459706
F103.287509	; set feedrate
G1 X0.167085 Z3.399525
F101.533173	; set feedrate
G1 X0.182643 Z3.311017
F100.001104	; set feedrate
G1 X0.198201 Z0.000000
F1200	; set feedrate
G1 X4.227689
  Y-4.700765
  X0.229317
  X0.213759 Z3.355110
  X0.198201 Z3.429831
  X0.182643 Z3.485531
  X0.167085 Z3.531611
  X0.151527 Z3.571560
  X0.135969 Z3.607139
  X0.120411 Z3.639384
  X0.104854 Z3.668967
  X0.089296 Z3.696353
  X0.073738 Z3.721882
  X0.058180 Z3.745809
  X0.042622 Z3.768332
  X0.027064 Z3.789609
  X0.011506 Z3.809768
  X-0.004052 Z3.828916
  X-0.019609 Z3.847139
  X-0.035167 Z3.864513
  X-0.050725 Z3.881102
  X-0.066283 Z3.896961
  X-0.081841 Z3.912138
  X-0.097399 Z3.926675
  X-0.112957 Z3.940609
  X-0.128514 Z3.953974
  X-0.144072 Z3.966798
  X-0.159630 Z3.979107
  X-0.175188 Z3.990927
  X-0.190746 Z4.002277
  X-0.206304 Z4.013177
  X-0.221862 Z4.023646
  X-0.237420 Z4.033698
  X-0.252977 Z4.043349
  X-0.268535 Z4.052611
  X-0.284093 Z4.061499
  X-0.299651 Z4.070022
  X-0.315209 Z4.078191
  X-0.330767 Z4.086016
  X-0.346325 Z4.093507
  X-0.361883 Z4.100670
  X-0.377440 Z4.107514
  X-0.392998 Z4.114046
  X-0.408556 Z4.120272
  X-0.424114 Z4.126198
  X-0.439672 Z4.131831
  X-0.455230 Z4.137175
  X-0.470788 Z4.142236
  X-0.486345 Z4.147017
  X-0.501903 Z4.151523
  X-0.517461 Z4.155758
  X-0.533019 Z4.159725
  X-0.548577 Z4.163427
  X-0.564135 Z4.166868
  X-0.579693 Z4.170051
  X-0.595251 Z4.172977
  X-0.610808 Z4.175649
  X-0.626366 Z4.178070
  X-0.641924 Z4.180240
  X-0.657482 Z4.182162
  X-0.673040 Z4.183837
  X-0.688598 Z4.185267
  X-0.704156 Z4.186452
  X-0.719714 Z4.187393
  X-0.735271 Z4.188091
  X-0.750829 Z4.188546
  X-0.766387 Z4.188759
  X-0.781945
  X-4.951454
  X-4.967012
  X-4.982570 Z4.188546
  X-4.998128 Z4.188091
  X-5.013685 Z4.187393
  X-5.029243 Z4.186452
  X-5.044801 Z4.185267
F1092.956390	; set feedrate
G1 X-5.060359 Z4.183837
F934.114012	; set feedrate
G1 X-5.075917 Z4.182162
F815.583034	; set feedrate
G1 X-5.091475 Z4.180240
F723.745913	; set feedrate
G1 X-5.107033 Z4.178070
F650.497852	; set feedrate
G1 X-5.122591 Z4.175649
F590.713553	; set feedrate
G1 X-5.138148 Z4.172977
F540.993294	; set feedrate
G1 X-5.153706 Z4.170051
F498.993104	; set feedrate
G1 X-5.169264 Z4.166868
F463.044473	; set feedrate
G1 X-5.184822 Z4.163427
F431.927391	; set feedrate
G1 X-5.200380 Z4.159725
F404.729140	; set feedrate
G1 X-5.215938 Z4.155758
F380.753277	; set feedrate
G1 X-5.231496 Z4.151523
F359.459155	; set feedrate
G1 X-5.247054 Z4.147017
F340.420667	; set feedrate
G1 X-5.262611 Z4.142236
F323.297438	; set feedrate
G1 X-5.278169 Z4.137175
F307.814298	; set feedrate
G1 X-5.293727 Z4.131831
F293.746378	; set feedrate
G1 X-5.309285 Z4.126198
F280.908122	; set feedrate
G1 X-5.324843 Z4.120272
F269.145054	; set feedrate
G1 X-5.340401 Z4.114046
F258.327534	; set feedrate
G1 X-5.355959 Z4.107514
F248.345955	; set feedrate
G1 X-5.371516 Z4.100670
F239.107023	; set feedrate
G1 X-5.387074 Z4.093507
F230.530828	; set feedrate
G1 X-5.402632 Z4.086016
F222.548527	; set feedrate
G1 X-5.418190 Z4.078191
F215.100493	; set feedrate
G1 X-5.433748 Z4.070022
F208.134823	; set feedrate
G1 X-5.449306 Z4.061499
F201.606124	; set feedrate
G1 X-5.464864 Z4.052611
F195.474526	; set feedrate
G1 X-5.480422 Z4.043349
F189.704868	; set feedrate
G1 X-5.495979 Z4.033698
F184.266019	; set feedrate
G1 X-5.511537 Z4.023646
F179.130318	; set feedrate
G1 X-5.527095 Z4.013177
F174.273105	; set feedrate
G1 X-5.542653 Z4.002277
F169.672323	; set feedrate
G1 X-5.558211 Z3.990927
F165.308184	; set feedrate
G1 X-5.573769 Z3.979107
F161.162885	; set feedrate
G1 X-5.589327 Z3.966798
F157.220364	; set feedrate
G1 X-5.604885 Z3.953974
F153.466093	; set feedrate
G1 X-5.620442 Z3.940609
F149.886899	; set feedrate
G1 X-5.636000 Z3.926675
F146.470808	; set feedrate
G1 X-5.651558 Z3.912138
F143.206913	; set feedrate
G1 X-5.667116 Z3.896961
F140.085258	; set feedrate
G1 X-5.682674 Z3.881102
F137.096734	; set feedrate
G1 X-5.698232 Z3.864513
F134.232992	; set feedrate
G1 X-5.713790 Z3.847139
F131.486364	; set feedrate
G1 X-5.729347 Z3.828916
F128.849794	; set feedrate
G1 X-5.744905 Z3.809768
F126.316779	; set feedrate
G1 X-5.760463 Z3.789609
F123.881310	; set feedrate
G1 X-5.776021 Z3.768332
F121.537827	; set feedrate
G1 X-5.791579 Z3.745809
F119.281173	; set feedrate
G1 X-5.807137 Z3.721882
F117.106553	; set feedrate
G1 X-5.822695 Z3.696353
F115.009489	; set feedrate
G1 X-5.838253 Z3.668967
F112.985781	; set feedrate
G1 X-5.853810 Z3.639384
F111.031453	; set feedrate
G1 X-5.869368 Z3.607139
F109.142667	; set feedrate
G1 X-5.884926 Z3.571560
F107.315570	; set feedrate
G1 X-5.900484 Z3.531611
F105.545891	; set feedrate
G1 X-5.916042 Z3.485531
F103.827539	; set feedrate
G1 X-5.931600 Z3.429831
F102.144644	; set feedrate
G1 X-5.947158 Z3.355110
F100.001075	; set feedrate
G1 X-5.962716 Z0.000000
F1200	; set feedrate
G1 X-9.961088
  Y-4.306632
  X-5.962716
  X-5.947158 Z3.355110
  X-5.931600 Z3.429831
  X-5.916042 Z3.485531
  X-5.900484 Z3.531611
  X-5.884926 Z3.571560
  X-5.869368 Z3.607139
  X-5.853810 Z3.639384
  X-5.838253 Z3.668967
  X-5.822695 Z3.696353
  X-5.807137 Z3.721882
  X-5.791579 Z3.745809
  X-5.776021 Z3.768332
  X-5.760463 Z3.789609
  X-5.744905 Z3.809768
  X-5.729347 Z3.828916
  X-5.713790 Z3.847139
  X-5.698232 Z3.864513
  X-5.682674 Z3.881102
  X-5.667116 Z3.896961
  X-5.651558 Z3.912138
  X-5.636000 Z3.926675
  X-5.620442 Z3.940609
  X-5.604885 Z3.953974
  X-5.589327 Z3.966798
  X-5.573769 Z3.979107
  X-5.558211 Z3.990927
  X-5.542653 Z4.002277
  X-5.527095 Z4.013177
  X-5.511537 Z4.023646
  X-5.495979 Z4.033698
  X-5.480422 Z4.043349
  X-5.464864 Z4.052611
  X-5.449306 Z4.061499
  X-5.433748 Z4.070022
  X-5.418190 Z4.078191
  X-5.402632 Z4.086016
  X-5.387074 Z4.093507
  X-5.371516 Z4.100670
  X-5.355959 Z4.107514
  X-5.340401 Z4.114046
  X-5.324843 Z4.120272
  X-5.309285 Z4.126198
  X-5.293727 Z4.131831
  X-5.278169 Z4.137175
  X-5.262611 Z4.142236
  X-5.247054 Z4.147017
  X-5.231496 Z4.151523
  X-5.215938 Z4.155758
  X-5.200380 Z4.159725
  X-5.184822 Z4.163427
  X-5.169264 Z4.166868
  X-5.153706 Z4.170051
  X-5.138148 Z4.172977
  X-5.122591 Z4.175649
  X-5.107033 Z4.178070
  X-5.091475 Z4.180240
  X-5.075917 Z4.182162
  X-5.060359 Z4.183837
  X-5.044801 Z4.185267
  X-5.029243 Z4.186452
  X-5.013685 Z4.187393
  X-4.998128 Z4.188091
  X-4.982570 Z4.188546
  X-4.967012 Z4.188759
  X-4.951454
  X-0.781945
  X-0.766387
  X-0.750829 Z4.188546
  X-0.735271 Z4.188091
  X-0.719714 Z4.187393
  X-0.704156 Z4.186452
  X-0.688598 Z4.185267
F1092.956390	; set feedrate
G1 X-0.673040 Z4.183837
F934.114012	; set feedrate
G1 X-0.657482 Z4.182162
F815.583034	; set feedrate
G1 X-0.641924 Z4.180240
F723.745913	; set feedrate
G1 X-0.626366 Z4.178070
F650.497852	; set feedrate
G1 X-0.610808 Z4.175649
F590.713553	; set feedrate
G1 X-0.595251 Z4.172977
F540.993294	; set feedrate
G1 X-0.579693 Z4.170051
F498.993104	; set feedrate
G1 X-0.564135 Z4.166868
F463.044473	; set feedrate
G1 X-0.548577 Z4.163427
F431.927391	; set feedrate
G1 X-0.533019 Z4.159725
F404.729140	; set feedrate
G1 X-0.517461 Z4.155758
F380.753277	; set feedrate
G1 X-0.501903 Z4.151523
F359.459155	; set feedrate
G1 X-0.486345 Z4.147017
F340.420667	; set feedrate
G1 X-0.470788 Z4.142236
F323.297438	; set feedrate
G1 X-0.455230 Z4.137175
F307.814298	; set feedrate
G1 X-0.439672 Z4.131831
F293.746378	; set feedrate
G1 X-0.424114 Z4.126198
F280.908122	; set feedrate
G1 X-0.408556 Z4.120272
F269.145054	; set feedrate
G1 X-0.392998 Z4.114046
F258.327534	; set feedrate
G1 X-0.377440 Z4.107514
F248.345955	; set feedrate
G1 X-0.361883 Z4.100670
F239.107023	; set feedrate
G1 X-0.346325 Z4.093507
F230.530828	; set feedrate
G1 X-0.330767 Z4.086016
F222.548527	; set feedrate
G1 X-0.315209 Z4.078191
F215.100493	; set feedrate
G1 X-0.299651 Z4.070022
F208.134823	; set feedrate
G1 X-0.284093 Z4.061499
F201.606124	; set feedrate
G1 X-0.268535 Z4.052611
F195.474526	; set feedrate
G1 X-0.252977 Z4.043349
F189.704868	; set feedrate
G1 X-0.237420 Z4.033698
F184.266019	; set feedrate
G1 X-0.221862 Z4.023646
F179.130318	; set feedrate
G1 X-0.206304 Z4.013177
F174.273105	; set feedrate
G1 X-0.190746 Z4.002277
F169.672323	; set feedrate
G1 X-0.175188 Z3.990927
F165.308184	; set feedrate
G1 X-0.159630 Z3.979107
F161.162885	; set feedrate
G1 X-0.144072 Z3.966798
F157.220364	; set feedrate
G1 X-0.128514 Z3.953974
F153.466093	; set feedrate
G1 X-0.112957 Z3.940609
F149.886899	; set feedrate
G1 X-0.097399 Z3.926675
F146.470808	; set feedrate
G1 X-0.081841 Z3.912138
F143.206913	; set feedrate
G1 X-0.066283 Z3.896961
F140.085258	; set feedrate
G1 X-0.050725 Z3.881102
F137.096734	; set feedrate
G1 X-0.035167 Z3.864513
F134.232992	; set feedrate
G1 X-0.019609 Z3.847139
F131.486364	; set feedrate
G1 X-0.004052 Z3.828916
F128.849794	; set feedrate
G1 X0.011506 Z3.809768
F126.316779	; set feedrate
G1 X0.027064 Z3.789609
F123.881310	; set feedrate
G1 X0.042622 Z3.768332
F121.537827	; set feedrate
G1 X0.058180 Z3.745809
F119.281173	; set feedrate
G1 X0.073738 Z3.721882
F117.106553	; set feedrate
G1 X0.089296 Z3.696353
F115.009489	; set feedrate
G1 X0.104854 Z3.668967
F112.985781	; set feedrate
G1 X0.120411 Z3.639384
F111.031453	; set feedrate
G1 X0.135969 Z3.607139
F109.142667	; set feedrate
G1 X0.151527 Z3.571560
F107.315570	; set feedrate
G1 X0.167085 Z3.531611
F105.545891	; set feedrate
G1 X0.182643 Z3.485531
F103.827539	; set feedrate
G1 X0.198201 Z3.429831
F102.144644	; set feedrate
G1 X0.213759 Z3.355110
F100.001075	; set feedrate
G1 X0.229317 Z0.000000
F1200	; set feedrate
G1 X4.227689
  Y-3.912500
  X0.229317
  X0.213759 Z3.355110
  X0.198201 Z3.429831
  X0.182643 Z3.485531
  X0.167085 Z3.531611
  X0.151527 Z3.571560
  X0.135969 Z3.607139
  X0.120411 Z3.639384
  X0.104854 Z3.668967
  X0.089296 Z3.696353
  X0.073738 Z3.721882
  X0.058180 Z3.745809
  X0.042622 Z3.768332
  X0.027064 Z3.789609
  X0.011506 Z3.809768
  X-0.004052 Z3.828916
  X-0.019609 Z3.847139
  X-0.035167 Z3.864513
  X-0.050725 Z3.881102
  X-0.066283 Z3.896961
  X-0.081841 Z3.912138
  X-0.097399 Z3.926675
  X-0.112957 Z3.940609
  X-0.128514 Z3.953974
  X-0.144072 Z3.966798
  X-0.159630 Z3.979107
  X-0.175188 Z3.990927
  X-0.190746 Z4.002277
  X-0.206304 Z4.013177
  X-0.221862 Z4.023646
  X-0.237420 Z4.033698
  X-0.252977 Z4.043349
  X-0.268535 Z4.052611
  X-0.284093 Z4.061499
  X-0.299651 Z4.070022
  X-0.315209 Z4.078191
  X-0.330767 Z4.086016
  X-0.346325 Z4.093507
  X-0.361883 Z4.100670
  X-0.377440 Z4.107514
  X-0.392998 Z4.114046
  X-0.408556 Z4.120272
  X-0.424114 Z4.126198
  X-0.439672 Z4.131831
  X-0.455230 Z4.137175
  X-0.470788 Z4.142236
  X-0.486345 Z4.147017
  X-0.501903 Z4.151523
  X-0.517461 Z4.155758
  X-0.533019 Z4.159725
  X-0.548577 Z4.163427
  X-0.564135 Z4.166868
  X-0.579693 Z4.170051
  X-0.595251 Z4.172977
  X-0.610808 Z4.175649
  X-0.626366 Z4.178070
  X-0.641924 Z4.180240
  X-0.657482 Z4.182162
  X-0.673040 Z4.183837
  X-0.688598 Z4.185267
  X-0.704156 Z4.186452
  X-0.719714 Z4.187393
  X-0.735271 Z4.188091
  X-0.750829 Z4.188546
  X-0.766387 Z4.188759
  X-0.781945
  X-4.951454
  X-4.967012
  X-4.982570 Z4.188546
  X-4.998128 Z4.188091
  X-5.013685 Z4.187393
  X-5.029243 Z4.186452
  X-5.044801 Z4.185267
F1092.956390	; set feedrate
G1 X-5.060359 Z4.183837
F934.114012	; set feedrate
G1 X-5.075917 Z4.182162
F815.583034	; set feedrate
G1 X-5.091475 Z4.180240
F723.745913	; set feedrate
G1 X-5.107033 Z4.178070
F650.497852	; set feedrate
G1 X-5.122591 Z4.175649
F590.713553	; set feedrate
G1 X-5.138148 Z4.172977
F540.993294	; set feedrate
G1 X-5.153706 Z4.170051
F498.993104	; set feedrate
G1 X-5.169264 Z4.166868
F463.044473	; set feedrate
G1 X-5.184822 Z4.163427
F431.927391	; set feedrate
G1 X-5.200380 Z4.159725
F404.729140	; set feedrate
G1 X-5.215938 Z4.155758
F380.753277	; set feedrate
G1 X-5.231496 Z4.151523
F359.459155	; set feedrate
G1 X-5.247054 Z4.147017
F340.420667	; set feedrate
G1 X-5.262611 Z4.142236
F323.297438	; set feedrate
G1 X-5.278169 Z4.137175
F307.814298	; set feedrate
G1 X-5.293727 Z4.131831
F293.746378	; set feedrate
G1 X-5.309285 Z4.126198
F280.908122	; set feedrate
G1 X-5.324843 Z4.120272
F269.145054	; set feedrate
G1 X-5.340401 Z4.114046
F258.327534	; set feedrate
G1 X-5.355959 Z4.107514
F248.345955	; set feedrate
G1 X-5.371516 Z4.100670
F239.107023	; set feedrate
G1 X-5.387074 Z4.093507
F230.530828	; set feedrate
G1 X-5.402632 Z4.086016
F222.548527	; set feedrate
G1 X-5.418190 Z4.078191
F215.100493	; set feedrate
G1 X-5.433748 Z4.070022
F208.134823	; set feedrate
G1 X-5.449306 Z4.061499
F201.606124	; set feedrate
G1 X-5.464864 Z4.052611
F195.474526	; set feedrate
G1 X-5.480422 Z4.043349
F189.704868	; set feedrate
G1 X-5.495979 Z4.033698
F184.266019	; set feedrate
G1 X-5.511537 Z4.023646
F179.130318	; set feedrate
G1 X-5.527095 Z4.013177
F174.273105	; set feedrate
G1 X-5.542653 Z4.002277
F169.672323	; set feedrate
G1 X-5.558211 Z3.990927
F165.308184	; set feedrate
G1 X-5.573769 Z3.979107
F161.162885	; set feedrate
G1 X-5.589327 Z3.966798
F157.220364	; set feedrate
G1 X-5.604885 Z3.953974
F153.466093	; set feedrate
G1 X-5.620442 Z3.940609
F149.886899	; set feedrate
G1 X-5.636000 Z3.926675
F146.470808	; set feedrate
G1 X-5.651558 Z3.912138
F143.206913	; set feedrate
G1 X-5.667116 Z3.896961
F140.085258	; set feedrate
G1 X-5.682674 Z3.881102
F137.096734	; set feedrate
G1 X-5.698232 Z3.864513
F134.232992	; set feedrate
G1 X-5.713790 Z3.847139
F131.486364	; set feedrate
G1 X-5.729347 Z3.828916
F128.849794	; set feedrate
G1 X-5.744905 Z3.809768
F126.316779	; set feedrate
G1 X-5.760463 Z3.789609
F123.881310	; set feedrate
G1 X-5.776021 Z3.768332
F121.537827	; set feedrate
G1 X-5.791579 Z3.745809
F119.281173	; set feedrate
G1 X-5.807137 Z3.721882
F117.106553	; set feedrate
G1 X-5.822695 Z3.696353
F115.009489	; set feedrate
G1 X-5.838253 Z3.668967
F112.985781	; set feedrate
G1 X-5.853810 Z3.639384
F111.031453	; set feedrate
G1 X-5.869368 Z3.607139
F109.142667	; set feedrate
G1 X-5.884926 Z3.571560
F107.315570	; set feedrate
G1 X-5.900484 Z3.531611
F105.545891	; set feedrate
G1 X-5.916042 Z3.485531
F103.827539	; set feedrate
G1 X-5.931600 Z3.429831
F102.144644	; set feedrate
G1 X-5.947158 Z3.355110
F100.001075	; set feedrate
G1 X-5.962716 Z0.000000
F1200	; set feedrate
G1 X-9.961088
  Y-3.518367
  X-5.962716
  X-5.947158 Z3.355110
  X-5.931600 Z3.429831
  X-5.916042 Z3.485531
  X-5.900484 Z3.531611
  X-5.884926 Z3.571560
  X-5.869368 Z3.607139
  X-5.853810 Z3.639384
  X-5.838253 Z3.668967
  X-5.822695 Z3.696353
  X-5.807137 Z3.721882
  X-5.791579 Z3.745809
  X-5.776021 Z3.768332
  X-5.760463 Z3.789609
  X-5.744905 Z3.809768
  X-5.729347 Z3.828916
  X-5.713790 Z3.847139
  X-5.698232 Z3.864513
  X-5.682674 Z3.881102
  X-5.667116 Z3.896961
  X-5.651558 Z3.912138
  X-5.636000 Z3.926675
  X-5.620442 Z3.940609
  X-5.604885 Z3.953974
  X-5.589327 Z3.966798
  X-5.573769 Z3.979107
  X-5.558211 Z3.990927
  X-5.542653 Z4.002277
  X-5.527095 Z4.013177
  X-5.511537 Z4.023646
  X-5.495979 Z4.033698
  X-5.480422 Z4.043349
  X-5.464864 Z4.052611
  X-5.449306 Z4.061499
  X-5.433748 Z4.070022
  X-5.418190 Z4.078191
  X-5.402632 Z4.086016
  X-5.387074 Z4.093507
  X-5.371516 Z4.100670
  X-5.355959 Z4.107514
  X-5.340401 Z4.114046
  X-5.324843 Z4.120272
  X-5.309285 Z4.126198
  X-5.293727 Z4.131831
  X-5.278169 Z4.137175
  X-5.262611 Z4.142236
  X-5.247054 Z4.147017
  X-5.231496 Z4.151523
  X-5.215938 Z4.155758
  X-5.200380 Z4.159725
  X-5.184822 Z4.163427
  X-5.169264 Z4.166868
  X-5.153706 Z4.170051
  X-5.138148 Z4.172977
  X-5.122591 Z4.175649
  X-5.107033 Z4.178070
  X-5.091475 Z4.180240
  X-5.075917 Z4.182162
  X-5.060359 Z4.183837
  X-5.044801 Z4.185267
  X-5.029243 Z4.186452
  X-5.013685 Z4.187393
  X-4.998128 Z4.188091
  X-4.982570 Z4.188546
  X-4.967012 Z4.188759
  X-4.951454
  X-0.781945
  X-0.766387
  X-0.750829 Z4.188546
  X-0.735271 Z4.188091
  X-0.719714 Z4.187393
  X-0.704156 Z4.186452
  X-0.688598 Z4.185267
F1092.956390	; set feedrate
G1 X-0.673040 Z4.183837
F934.114012	; set feedrate
G1 X-0.657482 Z4.182162
F815.583034	; set feedrate
G1 X-0.641924 Z4.180240
F723.745913	; set feedrate
G1 X-0.626366 Z4.178070
F650.497852	; set feedrate
G1 X-0.610808 Z4.175649
F590.713553	; set feedrate
G1 X-0.595251 Z4.172977
F540.993294	; set feedrate
G1 X-0.579693 Z4.170051
F498.993104	; set feedrate
G1 X-0.564135 Z4.166868
F463.044473	; set feedrate
G1 X-0.548577 Z4.163427
F431.927391	; set feedrate
G1 X-0.533019 Z4.159725
F404.729140	; set feedrate
G1 X-0.517461 Z4.155758
F380.753277	; set feedrate
G1 X-0.501903 Z4.151523
F359.459155	; set feedrate
G1 X-0.486345 Z4.147017
F340.420667	; set feedrate
G1 X-0.470788 Z4.142236
F323.297438	; set feedrate
G1 X-0.455230 Z4.137175
F307.814298	; set feedrate
G1 X-0.439672 Z4.131831
F293.746378	; set feedrate
G1 X-0.424114 Z4.126198
F280.908122	; set feedrate
G1 X-0.408556 Z4.120272
F269.145054	; set feedrate
G1 X-0.392998 Z4.114046
F258.327534	; set feedrate
G1 X-0.377440 Z4.107514
F248.345955	; set feedrate
G1 X-0.361883 Z4.100670
F239.107023	; set feedrate
G1 X-0.346325 Z4.093507
F230.530828	; set feedrate
G1 X-0.330767 Z4.086016
F222.548527	; set feedrate
G1 X-0.315209 Z4.078191
F215.100493	; set feedrate
G1 X-0.299651 Z4.070022
F208.134823	; set feedrate
G1 X-0.284093 Z4.061499
F201.606124	; set feedrate
G1 X-0.268535 Z4.052611
F195.474526	; set feedrate
G1 X-0.252977 Z4.043349
F189.704868	; set feedrate
G1 X-0.237420 Z4.033698
F184.266019	; set feedrate
G1 X-0.221862 Z4.023646
F179.130318	; set feedrate
G1 X-0.206304 Z4.013177
F174.273105	; set feedrate
G1 X-0.190746 Z4.002277
F169.672323	; set feedrate
G1 X-0.175188 Z3.990927
F165.308184	; set feedrate
G1 X-0.159630 Z3.979107
F161.162885	; set feedrate
G1 X-0.144072 Z3.966798
F157.220364	; set feedrate
G1 X-0.128514 Z3.953974
F153.466093	; set feedrate
G1 X-0.112957 Z3.940609
F149.886899	; set feedrate
G1 X-0.097399 Z3.926675
F146.470808	; set feedrate
G1 X-0.081841 Z3.912138
F143.206913	; set feedrate
G1 X-0.066283 Z3.896961
F140.085258	; set feedrate
G1 X-0.050725 Z3.881102
F137.096734	; set feedrate
G1 X-0.035167 Z3.864513
F134.232992	; set feedrate
G1 X-0.019609 Z3.847139
F131.486364	; set feedrate
G1 X-0.004052 Z3.828916
F128.849794	; set feedrate
G1 X0.011506 Z3.809768
F126.316779	; set feedrate
G1 X0.027064 Z3.789609
F123.881310	; set feedrate
G1 X0.042622 Z3.768332
F121.537827	; set feedrate
G1 X0.058180 Z3.745809
F119.281173	; set feedrate
G1 X0.073738 Z3.721882
F117.106553	; set feedrate
G1 X0.089296 Z3.696353
F115.009489	; set feedrate
G1 X0.104854 Z3.668967
F112.985781	; set feedrate
G1 X0.120411 Z3.639384
F111.031453	; set feedrate
G1 X0.135969 Z3.607139
F109.142667	; set feedrate
G1 X0.151527 Z3.571560
F107.315570	; set feedrate
G1 X0.167085 Z3.531611
F105.545891	; set feedrate
G1 X0.182643 Z3.485531
F103.827539	; set feedrate
G1 X0.198201 Z3.429831
F102.144644	; set feedrate
G1 X0.213759 Z3.355110
F100.001075	; set feedrate
G1 X0.229317 Z0.000000
F1200	; set feedrate
G1 X4.227689
  Y-3.124234
  X0.229317
  X0.213759 Z3.355110
  X0.198201 Z3.429831
  X0.182643 Z3.485531
  X0.167085 Z3.531611
  X0.151527 Z3.571560
  X0.135969 Z3.607139
  X0.120411 Z3.639384
  X0.104854 Z3.668967
  X0.089296 Z3.696353
  X0.073738 Z3.721882
  X0.058180 Z3.745809
  X0.042622 Z3.768332
  X0.027064 Z3.789609
  X0.011506 Z3.809768
  X-0.004052 Z3.828916
  X-0.019609 Z3.847139
  X-0.035167 Z3.864513
  X-0.050725 Z3.881102
  X-0.066283 Z3.896961
  X-0.081841 Z3.912138
  X-0.097399 Z3.926675
  X-0.112957 Z3.940609
  X-0.128514 Z3.953974
  X-0.144072 Z3.966798
  X-0.159630 Z3.979107
  X-0.175188 Z3.990927
  X-0.190746 Z4.002277
  X-0.206304 Z4.013177
  X-0.221862 Z4.023646
  X-0.237420 Z4.033698
  X-0.252977 Z4.043349
  X-0.268535 Z4.052611
  X-0.284093 Z4.061499
  X-0.299651 Z4.070022
  X-0.315209 Z4.078191
  X-0.330767 Z4.086016
  X-0.346325 Z4.093507
  X-0.361883 Z4.100670
  X-0.377440 Z4.107514
  X-0.392998 Z4.114046
  X-0.408556 Z4.120272
  X-0.424114 Z4.126198
  X-0.439672 Z4.131831
  X-0.455230 Z4.137175
  X-0.470788 Z4.142236
  X-0.486345 Z4.147017
  X-0.501903 Z4.151523
  X-0.517461 Z4.155758
  X-0.533019 Z4.159725
  X-0.548577 Z4.163427
  X-0.564135 Z4.166868
  X-0.579693 Z4.170051
  X-0.595251 Z4.172977
  X-0.610808 Z4.175649
  X-0.626366 Z4.178070
  X-0.641924 Z4.180240
  X-0.657482 Z4.182162
  X-0.673040 Z4.183837
  X-0.688598 Z4.185267
  X-0.704156 Z4.186452
  X-0.719714 Z4.187393
  X-0.735271 Z4.188091
  X-0.750829 Z4.188546
  X-0.766387 Z4.188759
  X-0.781945
  X-4.951454
  X-4.967012
  X-4.982570 Z4.188546
  X-4.998128 Z4.188091
  X-5.013685 Z4.187393
  X-5.029243 Z4.186452
  X-5.044801 Z4.185267
F1092.956390	; set feedrate
G1 X-5.060359 Z4.183837
F934.114012	; set feedrate
G1 X-5.075917 Z4.182162
F815.583034	; set feedrate
G1 X-5.091475 Z4.180240
F723.745913	; set feedrate
G1 X-5.107033 Z4.178070
F650.497852	; set feedrate
G1 X-5.122591 Z4.175649
F590.713553	; set feedrate
G1 X-5.138148 Z4.172977
F540.993294	; set feedrate
G1 X-5.153706 Z4.170051
F498.993104	; set feedrate
G1 X-5.169264 Z4.166868
F463.044473	; set feedrate
G1 X-5.184822 Z4.163427
F431.927391	; set feedrate
G1 X-5.200380 Z4.159725
F404.729140	; set feedrate
G1 X-5.215938 Z4.155758
F380.753277	; set feedrate
G1 X-5.231496 Z4.151523
F359.459155	; set feedrate
G1 X-5.247054 Z4.147017
F340.420667	; set feedrate
G1 X-5.262611 Z4.142236
F323.297438	; set feedrate
G1 X-5.278169 Z4.137175
F307.814298	; set feedrate
G1 X-5.293727 Z4.131831
F293.746378	; set feedrate
G1 X-5.309285 Z4.126198
F280.908122	; set feedrate
G1 X-5.324843 Z4.120272
F269.145054	; set feedrate
G1 X-5.340401 Z4.114046
F258.327534	; set feedrate
G1 X-5.355959 Z4.107514
F248.345955	; set feedrate
G1 X-5.371516 Z4.100670
F239.107023	; set feedrate
G1 X-5.387074 Z4.093507
F230.530828	; set feedrate
G1 X-5.402632 Z4.086016
F222.548527	; set feedrate
G1 X-5.418190 Z4.078191
F215.100493	; set feedrate
G1 X-5.433748 Z4.070022
F208.134823	; set feedrate
G1 X-5.449306 Z4.061499
F201.606124	; set feedrate
G1 X-5.464864 Z4.052611
F195.474526	; set feedrate
G1 X-5.480422 Z4.043349
F189.704868	; set feedrate
G1 X-5.495979 Z4.033698
F184.266019	; set feedrate
G1 X-5.511537 Z4.023646
F179.130318	; set feedrate
G1 X-5.527095 Z4.013177
F174.273105	; set feedrate
G1 X-5.542653 Z4.002277
F169.672323	; set feedrate
G1 X-5.558211 Z3.990927
F165.308184	; set feedrate
G1 X-5.573769 Z3.979107
F161.162885	; set feedrate
G1 X-5.589327 Z3.966798
F157.220364	; set feedrate
G1 X-5.604885 Z3.953974
F153.466093	; set feedrate
G1 X-5.620442 Z3.940609
F149.886899	; set feedrate
G1 X-5.636000 Z3.926675
F146.470808	; set feedrate
G1 X-5.651558 Z3.912138
F143.206913	; set feedrate
G1 X-5.667116 Z3.896961
F140.085258	; set feedrate
G1 X-5.682674 Z3.881102
F137.096734	; set feedrate
G1 X-5.698232 Z3.864513
F134.232992	; set feedrate
G1 X-5.713790 Z3.847139
F131.486364	; set feedrate
G1 X-5.729347 Z3.828916
F128.849794	; set feedrate
G1 X-5.744905 Z3.809768
F126.316779	; set feedrate
G1 X-5.760463 Z3.789609
F123.881310	; set feedrate
G1 X-5.776021 Z3.768332
F121.537827	; set feedrate
G1 X-5.791579 Z3.745809
F119.281173	; set feedrate
G1 X-5.807137 Z3.721882
F117.106553	; set feedrate
G1 X-5.822695 Z3.696353
F115.009489	; set feedrate
G1 X-5.838253 Z3.668967
F112.985781	; set feedrate
G1 X-5.853810 Z3.639384
F111.031453	; set feedrate
G1 X-5.869368 Z3.607139
F109.142667	; set feedrate
G1 X-5.884926 Z3.571560
F107.315570	; set feedrate
G1 X-5.900484 Z3.531611
F105.545891	; set feedrate
G1 X-5.916042 Z3.485531
F103.827539	; set feedrate
G1 X-5.931600 Z3.429831
F102.144644	; set feedrate
G1 X-5.947158 Z3.355110
F100.001075	; set feedrate
G1 X-5.962716 Z0.000000
F1200	; set feedrate
G1 X-9.961088
  Y-2.730101
  X-5.962716
  X-5.947158 Z3.355110
  X-5.931600 Z3.429831
  X-5.916042 Z3.485531
  X-5.900484 Z3.531611
  X-5.884926 Z3.571560
  X-5.869368 Z3.607139
  X-5.853810 Z3.639384
  X-5.838253 Z3.668967
  X-5.822695 Z3.696353
  X-5.807137 Z3.721882
  X-5.791579 Z3.745809
  X-5.776021 Z3.768332
  X-5.760463 Z3.789609
  X-5.744905 Z3.809768
  X-5.729347 Z3.828916
  X-5.713790 Z3.847139
  X-5.698232 Z3.864513
  X-5.682674 Z3.881102
  X-5.667116 Z3.896961
  X-5.651558 Z3.912138
  X-5.636000 Z3.926675
  X-5.620442 Z3.940609
  X-5.604885 Z3.953974
  X-5.589327 Z3.966798
  X-5.573769 Z3.979107
  X-5.558211 Z3.990927
  X-5.542653 Z4.002277
  X-5.527095 Z4.013177
  X-5.511537 Z4.023646
  X-5.495979 Z4.033698
  X-5.480422 Z4.043349
  X-5.464864 Z4.052611
  X-5.449306 Z4.061499
  X-5.433748 Z4.070022
  X-5.418190 Z4.078191
  X-5.402632 Z4.086016
  X-5.387074 Z4.093507
  X-5.371516 Z4.100670
  X-5.355959 Z4.107514
  X-5.340401 Z4.114046
  X-5.324843 Z4.120272
  X-5.309285 Z4.126198
  X-5.293727 Z4.131831
  X-5.278169 Z4.137175
  X-5.262611 Z4.142236
  X-5.247054 Z4.147017
  X-5.231496 Z4.151523
  X-5.215938 Z4.155758
  X-5.200380 Z4.159725
  X-5.184822 Z4.163427
  X-5.169264 Z4.166868
  X-5.153706 Z4.170051
  X-5.138148 Z4.172977
  X-5.122591 Z4.175649
  X-5.107033 Z4.178070
  X-5.091475 Z4.180240
  X-5.075917 Z4.182162
  X-5.060359 Z4.183837
  X-5.044801 Z4.185267
  X-5.029243 Z4.186452
  X-5.013685 Z4.187393
  X-4.998128 Z4.188091
  X-4.982570 Z4.188546
  X-4.967012 Z4.188759
  X-4.951454
  X-0.781945
  X-0.766387
  X-0.750829 Z4.188546
  X-0.735271 Z4.188091
  X-0.719714 Z4.187393
  X-0.704156 Z4.186452
  X-0.688598 Z4.185267
F1092.956390	; set feedrate
G1 X-0.673040 Z4.183837
F934.114012	; set feedrate
G1 X-0.657482 Z4.182162
F815.583034	; set feedrate
G1 X-0.641924 Z4.180240
F723.745913	; set feedrate
G1 X-0.626366 Z4.178070
F650.497852	; set feedrate
G1 X-0.610808 Z4.175649
F590.713553	; set feedrate
G1 X-0.595251 Z4.172977
F540.993294	; set feedrate
G1 X-0.579693 Z4.170051
F498.993104	; set feedrate
G1 X-0.564135 Z4.166868
F463.044473	; set feedrate
G1 X-0.548577 Z4.163427
F431.927391	; set feedrate
G1 X-0.533019 Z4.159725
F404.729140	; set feedrate
G1 X-0.517461 Z4.155758
F380.753277	; set feedrate
G1 X-0.501903 Z4.151523
F359.459155	; set feedrate
G1 X-0.486345 Z4.147017
F340.420667	; set feedrate
G1 X-0.470788 Z4.142236
F323.297438	; set feedrate
G1 X-0.455230 Z4.137175
F307.814298	; set feedrate
G1 X-0.439672 Z4.131831
F293.746378	; set feedrate
G1 X-0.424114 Z4.126198
F280.908122	; set feedrate
G1 X-0.408556 Z4.120272
F269.145054	; set feedrate
G1 X-0.392998 Z4.114046
F258.327534	; set feedrate
G1 X-0.377440 Z4.107514
F248.345955	; set feedrate
G1 X-0.361883 Z4.100670
F239.107023	; set feedrate
G1 X-0.346325 Z4.093507
F230.530828	; set feedrate
G1 X-0.330767 Z4.086016
F222.548527	; set feedrate
G1 X-0.315209 Z4.078191
F215.100493	; set feedrate
G1 X-0.299651 Z4.070022
F208.134823	; set feedrate
G1 X-0.284093 Z4.061499
F201.606124	; set feedrate
G1 X-0.268535 Z4.052611
F195.474526	; set feedrate
G1 X-0.252977 Z4.043349
F189.704868	; set feedrate
G1 X-0.237420 Z4.033698
F184.266019	; set feedrate
G1 X-0.221862 Z4.023646
F179.130318	; set feedrate
G1 X-0.206304 Z4.013177
F174.273105	; set feedrate
G1 X-0.190746 Z4.002277
F169.672323	; set feedrate
G1 X-0.175188 Z3.990927
F165.308184	; set feedrate
G1 X-0.159630 Z3.979107
F161.162885	; set feedrate
G1 X-0.144072 Z3.966798
F157.220364	; set feedrate
G1 X-0.128514 Z3.953974
F153.466093	; set feedrate
G1 X-0.112957 Z3.940609
F149.886899	; set feedrate
G1 X-0.097399 Z3.926675
F146.470808	; set feedrate
G1 X-0.081841 Z3.912138
F143.206913	; set feedrate
G1 X-0.066283 Z3.896961
F140.085258	; set feedrate
G1 X-0.050725 Z3.881102
F137.096734	; set feedrate
G1 X-0.035167 Z3.864513
F134.232992	; set feedrate
G1 X-0.019609 Z3.847139
F131.486364	; set feedrate
G1 X-0.004052 Z3.828916
F128.849794	; set feedrate
G1 X0.011506 Z3.809768
F126.316779	; set feedrate
G1 X0.027064 Z3.789609
F123.881310	; set feedrate
G1 X0.042622 Z3.768332
F121.537827	; set feedrate
G1 X0.058180 Z3.745809
F119.281173	; set feedrate
G1 X0.073738 Z3.721882
F117.106553	; set feedrate
G1 X0.089296 Z3.696353
F115.009489	; set feedrate
G1 X0.104854 Z3.668967
F112.985781	; set feedrate
G1 X0.120411 Z3.639384
F111.031453	; set feedrate
G1 X0.135969 Z3.607139
F109.142667	; set feedrate
G1 X0.151527 Z3.571560
F107.315570	; set feedrate
G1 X0.167085 Z3.531611
F105.545891	; set feedrate
G1 X0.182643 Z3.485531
F103.827539	; set feedrate
G1 X0.198201 Z3.429831
F102.144644	; set feedrate
G1 X0.213759 Z3.355110
F100.001075	; set feedrate
G1 X0.229317 Z0.000000
F1200	; set feedrate
G1 X4.227689
  Y-2.335969
  X0.229317
  X0.213759 Z3.355110
  X0.198201 Z3.429831
  X0.182643 Z3.485531
  X0.167085 Z3.531611
  X0.151527 Z3.571560
  X0.135969 Z3.607139
  X0.120411 Z3.639384
  X0.104854 Z3.668967
  X0.089296 Z3.696353
  X0.073738 Z3.721882
  X0.058180 Z3.745809
  X0.042622 Z3.768332
  X0.027064 Z3.789609
  X0.011506 Z3.809768
  X-0.004052 Z3.828916
  X-0.019609 Z3.847139
  X-0.035167 Z3.864513
  X-0.050725 Z3.881102
  X-0.066283 Z3.896961
  X-0.081841 Z3.912138
  X-0.097399 Z3.926675
  X-0.112957 Z3.940609
  X-0.128514 Z3.953974
  X-0.144072 Z3.966798
  X-0.159630 Z3.979107
  X-0.175188 Z3.990927
  X-0.190746 Z4.002277
  X-0.206304 Z4.013177
  X-0.221862 Z4.023646
  X-0.237420 Z4.033698
  X-0.252977 Z4.043349
  X-0.268535 Z4.052611
  X-0.284093 Z4.061499
  X-0.299651 Z4.070022
  X-0.315209 Z4.078191
  X-0.330767 Z4.086016
  X-0.346325 Z4.093507
  X-0.361883 Z4.100670
  X-0.377440 Z4.107514
  X-0.392998 Z4.114046
  X-0.408556 Z4.120272
  X-0.424114 Z4.126198
  X-0.439672 Z4.131831
  X-0.455230 Z4.137175
  X-0.470788 Z4.142236
  X-0.486345 Z4.147017
  X-0.501903 Z4.151523
  X-0.517461 Z4.155758
  X-0.533019 Z4.159725
  X-0.548577 Z4.163427
  X-0.564135 Z4.166868
  X-0.579693 Z4.170051
  X-0.595251 Z4.172977
  X-0.610808 Z4.175649
  X-0.626366 Z4.178070
  X-0.641924 Z4.180240
  X-0.657482 Z4.182162
  X-0.673040 Z4.183837
  X-0.688598 Z4.185267
  X-0.704156 Z4.186452
  X-0.719714 Z4.187393
  X-0.735271 Z4.188091
  X-0.750829 Z4.188546
  X-0.766387 Z4.188759
  X-0.781945
  X-4.951454
  X-4.967012
  X-4.982570 Z4.188546
  X-4.998128 Z4.188091
  X-5.013685 Z4.187393
  X-5.029243 Z4.186452
  X-5.044801 Z4.185267
F1092.956390	; set feedrate
G1 X-5.060359 Z4.183837
F934.114012	; set feedrate
G1 X-5.075917 Z4.182162
F815.583034	; set feedrate
G1 X-5.091475 Z4.180240
F723.745913	; set feedrate
G1 X-5.107033 Z4.178070
F650.497852	; set feedrate
G1 X-5.122591 Z4.175649
F590.713553	; set feedrate
G1 X-5.138148 Z4.172977
F540.993294	; set feedrate
G1 X-5.153706 Z4.170051
F498.993104	; set feedrate
G1 X-5.169264 Z4.166868
F463.044473	; set feedrate
G1 X-5.184822 Z4.163427
F431.927391	; set feedrate
G1 X-5.200380 Z4.159725
F404.729140	; set feedrate
G1 X-5.215938 Z4.155758
F380.753277	; set feedrate
G1 X-5.231496 Z4.151523
F359.459155	; set feedrate
G1 X-5.247054 Z4.147017
F340.420667	; set feedrate
G1 X-5.262611 Z4.142236
F323.297438	; set feedrate
G1 X-5.278169 Z4.137175
F307.814298	; set feedrate
G1 X-5.293727 Z4.131831
F293.746378	; set feedrate
G1 X-5.309285 Z4.126198
F280.908122	; set feedrate
G1 X-5.324843 Z4.120272
F269.145054	; set feedrate
G1 X-5.340401 Z4.114046
F258.327534	; set feedrate
G1 X-5.355959 Z4.107514
F248.345955	; set feedrate
G1 X-5.371516 Z4.100670
F239.107023	; set feedrate
G1 X-5.387074 Z4.093507
F230.530828	; set feedrate
G1 X-5.402632 Z4.086016
F222.548527	; set feedrate
G1 X-5.418190 Z4.078191
F215.100493	; set feedrate
G1 X-5.433748 Z4.070022
F208.134823	; set feedrate
G1 X-5.449306 Z4.061499
F201.606124	; set feedrate
G1 X-5.464864 Z4.052611
F195.474526	; set feedrate
G1 X-5.480422 Z4.043349
F189.704868	; set feedrate
G1 X-5.495979 Z4.033698
F184.266019	; set feedrate
G1 X-5.511537 Z4.023646
F179.130318	; set feedrate
G1 X-5.527095 Z4.013177
F174.273105	; set feedrate
G1 X-5.542653 Z4.002277
F169.672323	; set feedrate
G1 X-5.558211 Z3.990927
F165.308184	; set feedrate
G1 X-5.573769 Z3.979107
F161.162885	; set feedrate
G1 X-5.589327 Z3.966798
F157.220364	; set feedrate
G1 X-5.604885 Z3.953974
F153.466093	; set feedrate
G1 X-5.620442 Z3.940609
F149.886899	; set feedrate
G1 X-5.636000 Z3.926675
F146.470808	; set feedrate
G1 X-5.651558 Z3.912138
F143.206913	; set feedrate
G1 X-5.667116 Z3.896961
F140.085258	; set feedrate
G1 X-5.682674 Z3.881102
F137.096734	; set feedrate
G1 X-5.698232 Z3.864513
F134.232992	; set feedrate
G1 X-5.713790 Z3.847139
F131.486364	; set feedrate
G1 X-5.729347 Z3.828916
F128.849794	; set feedrate
G1 X-5.744905 Z3.809768
F126.316779	; set feedrate
G1 X-5.760463 Z3.789609
F123.881310	; set feedrate
G1 X-5.776021 Z3.768332
F121.537827	; set feedrate
G1 X-5.791579 Z3.745809
F119.281173	; set feedrate
G1 X-5.807137 Z3.721882
F117.106553	; set feedrate
G1 X-5.822695 Z3.696353
F115.009489	; set feedrate
G1 X-5.838253 Z3.668967
F112.985781	; set feedrate
G1 X-5.853810 Z3.639384
F111.031453	; set feedrate
G1 X-5.869368 Z3.607139
F109.142667	; set feedrate
G1 X-5.884926 Z3.571560
F107.315570	; set feedrate
G1 X-5.900484 Z3.531611
F105.545891	; set feedrate
G1 X-5.916042 Z3.485531
F103.827539	; set feedrate
G1 X-5.931600 Z3.429831
F102.144644	; set feedrate
G1 X-5.947158 Z3.355110
F100.001075	; set feedrate
G1 X-5.962716 Z0.000000
F1200	; set feedrate
G1 X-9.961088
  Y-1.941836
  X-5.962716
  X-5.947158 Z3.355110
  X-5.931600 Z3.429831
  X-5.916042 Z3.485531
  X-5.900484 Z3.531611
  X-5.884926 Z3.571560
  X-5.869368 Z3.607139
  X-5.853810 Z3.639384
  X-5.838253 Z3.668967
  X-5.822695 Z3.696353
  X-5.807137 Z3.721882
  X-5.791579 Z3.745809
  X-5.776021 Z3.768332
  X-5.760463 Z3.789609
  X-5.744905 Z3.809768
  X-5.729347 Z3.828916
  X-5.713790 Z3.847139
  X-5.698232 Z3.864513
  X-5.682674 Z3.881102
  X-5.667116 Z3.896961
  X-5.651558 Z3.912138
  X-5.636000 Z3.926675
  X-5.620442 Z3.940609
  X-5.604885 Z3.953974
  X-5.589327 Z3.966798
  X-5.573769 Z3.979107
  X-5.558211 Z3.990927
  X-5.542653 Z4.002277
  X-5.527095 Z4.013177
  X-5.511537 Z4.023646
  X-5.495979 Z4.033698
  X-5.480422 Z4.043349
  X-5.464864 Z4.052611
  X-5.449306 Z4.061499
  X-5.433748 Z4.070022
  X-5.418190 Z4.078191
  X-5.402632 Z4.086016
  X-5.387074 Z4.093507
  X-5.371516 Z4.100670
  X-5.355959 Z4.107514
  X-5.340401 Z4.114046
  X-5.324843 Z4.120272
  X-5.309285 Z4.126198
  X-5.293727 Z4.131831
  X-5.278169 Z4.137175
  X-5.262611 Z4.142236
  X-5.247054 Z4.147017
  X-5.231496 Z4.151523
  X-5.215938 Z4.155758
  X-5.200380 Z4.159725
  X-5.184822 Z4.163427
  X-5.169264 Z4.166868
  X-5.153706 Z4.170051
  X-5.138148 Z4.172977
  X-5.122591 Z4.175649
  X-5.107033 Z4.178070
  X-5.091475 Z4.180240
  X-5.075917 Z4.182162
  X-5.060359 Z4.183837
  X-5.044801 Z4.185267
  X-5.029243 Z4.186452
  X-5.013685 Z4.187393
  X-4.998128 Z4.188091
  X-4.982570 Z4.188546
  X-4.967012 Z4.188759
  X-4.951454
  X-0.781945
  X-0.766387
  X-0.750829 Z4.188546
  X-0.735271 Z4.188091
  X-0.719714 Z4.187393
  X-0.704156 Z4.186452
  X-0.688598 Z4.185267
F1092.956390	; set feedrate
G1 X-0.673040 Z4.183837
F934.114012	; set feedrate
G1 X-0.657482 Z4.182162
F815.583034	; set feedrate
G1 X-0.641924 Z4.180240
F723.745913	; set feedrate
G1 X-0.626366 Z4.178070
F650.497852	; set feedrate
G1 X-0.610808 Z4.175649
F590.713553	; set feedrate
G1 X-0.595251 Z4.172977
F540.993294	; set feedrate
G1 X-0.579693 Z4.170051
F498.993104	; set feedrate
G1 X-0.564135 Z4.166868
F463.044473	; set feedrate
G1 X-0.548577 Z4.163427
F431.927391	; set feedrate
G1 X-0.533019 Z4.159725
F404.729140	; set feedrate
G1 X-0.517461 Z4.155758
F380.753277	; set feedrate
G1 X-0.501903 Z4.151523
F359.459155	; set feedrate
G1 X-0.486345 Z4.147017
F340.420667	; set feedrate
G1 X-0.470788 Z4.142236
F323.297438	; set feedrate
G1 X-0.455230 Z4.137175
F307.814298	; set feedrate
G1 X-0.439672 Z4.131831
F293.746378	; set feedrate
G1 X-0.424114 Z4.126198
F280.908122	; set feedrate
G1 X-0.408556 Z4.120272
F269.145054	; set feedrate
G1 X-0.392998 Z4.114046
F258.327534	; set feedrate
G1 X-0.377440 Z4.107514
F248.345955	; set feedrate
G1 X-0.361883 Z4.100670
F239.107023	; set feedrate
G1 X-0.346325 Z4.093507
F230.530828	; set feedrate
G1 X-0.330767 Z4.086016
F222.548527	; set feedrate
G1 X-0.315209 Z4.078191
F215.100493	; set feedrate
G1 X-0.299651 Z4.070022
F208.134823	; set feedrate
G1 X-0.284093 Z4.061499
F201.606124	; set feedrate
G1 X-0.268535 Z4.052611
F195.474526	; set feedrate
G1 X-0.252977 Z4.043349
F189.704868	; set feedrate
G1 X-0.237420 Z4.033698
F184.266019	; set feedrate
G1 X-0.221862 Z4.023646
F179.130318	; set feedrate
G1 X-0.206304 Z4.013177
F174.273105	; set feedrate
G1 X-0.190746 Z4.002277
F169.672323	; set feedrate
G1 X-0.175188 Z3.990927
F165.308184	; set feedrate
G1 X-0.159630 Z3.979107
F161.162885	; set feedrate
G1 X-0.144072 Z3.966798
F157.220364	; set feedrate
G1 X-0.128514 Z3.953974
F153.466093	; set feedrate
G1 X-0.112957 Z3.940609
F149.886899	; set feedrate
G1 X-0.097399 Z3.926675
F146.470808	; set feedrate
G1 X-0.081841 Z3.912138
F143.206913	; set feedrate
G1 X-0.066283 Z3.896961
F140.085258	; set feedrate
G1 X-0.050725 Z3.881102
F137.096734	; set feedrate
G1 X-0.035167 Z3.864513
F134.232992	; set feedrate
G1 X-0.019609 Z3.847139
F131.486364	; set feedrate
G1 X-0.004052 Z3.828916
F128.849794	; set feedrate
G1 X0.011506 Z3.809768
F126.316779	; set feedrate
G1 X0.027064 Z3.789609
F123.881310	; set feedrate
G1 X0.042622 Z3.768332
F121.537827	; set feedrate
G1 X0.058180 Z3.745809
F119.281173	; set feedrate
G1 X0.073738 Z3.721882
F117.106553	; set feedrate
G1 X0.089296 Z3.696353
F115.009489	; set feedrate
G1 X0.104854 Z3.668967
F112.985781	; set feedrate
G1 X0.120411 Z3.639384
F111.031453	; set feedrate
G1 X0.135969 Z3.607139
F109.142667	; set feedrate
G1 X0.151527 Z3.571560
F107.315570	; set feedrate
G1 X0.167085 Z3.531611
F105.545891	; set feedrate
G1 X0.182643 Z3.485531
F103.827539	; set feedrate
G1 X0.198201 Z3.429831
F102.144644	; set feedrate
G1 X0.213759 Z3.355110
F100.001075	; set feedrate
G1 X0.229317 Z0.000000
F1200	; set feedrate
G1 X4.227689
  Y-1.547703
  X0.229317
  X0.213759 Z3.355110
  X0.198201 Z3.429831
  X0.182643 Z3.485531
  X0.167085 Z3.531611
  X0.151527 Z3.571560
  X0.135969 Z3.607139
  X0.120411 Z3.639384
  X0.104854 Z3.668967
  X0.089296 Z3.696353
  X0.073738 Z3.721882
  X0.058180 Z3.745809
  X0.042622 Z3.768332
  X0.027064 Z3.789609
  X0.011506 Z3.809768
  X-0.004052 Z3.828916
  X-0.019609 Z3.847139
  X-0.035167 Z3.864513
  X-0.050725 Z3.881102
  X-0.066283 Z3.896961
  X-0.081841 Z3.912138
  X-0.097399 Z3.926675
  X-0.112957 Z3.940609
  X-0.128514 Z3.953974
  X-0.144072 Z3.966798
  X-0.159630 Z3.979107
  X-0.175188 Z3.990927
  X-0.190746 Z4.002277
  X-0.206304 Z4.013177
  X-0.221862 Z4.023646
  X-0.237420 Z4.033698
  X-0.252977 Z4.043349
  X-0.268535 Z4.052611
  X-0.284093 Z4.061499
  X-0.299651 Z4.070022
  X-0.315209 Z4.078191
  X-0.330767 Z4.086016
  X-0.346325 Z4.093507
  X-0.361883 Z4.100670
  X-0.377440 Z4.107514
  X-0.392998 Z4.114046
  X-0.408556 Z4.120272
  X-0.424114 Z4.126198
  X-0.439672 Z4.131831
  X-0.455230 Z4.137175
  X-0.470788 Z4.142236
  X-0.486345 Z4.147017
  X-0.501903 Z4.151523
  X-0.517461 Z4.155758
  X-0.533019 Z4.159725
  X-0.548577 Z4.163427
  X-0.564135 Z4.166868
  X-0.579693 Z4.170051
  X-0.595251 Z4.172977
  X-0.610808 Z4.175649
  X-0.626366 Z4.178070
  X-0.641924 Z4.180240
  X-0.657482 Z4.182162
  X-0.673040 Z4.183837
  X-0.688598 Z4.185267
  X-0.704156 Z4.186452
  X-0.719714 Z4.187393
  X-0.735271 Z4.188091
  X-0.750829 Z4.188546
  X-0.766387 Z4.188759
  X-0.781945
  X-4.951454
  X-4.967012
  X-4.982570 Z4.188546
  X-4.998128 Z4.188091
  X-5.013685 Z4.187393
  X-5.029243 Z4.186452
  X-5.044801 Z4.185267
F1092.956390	; set feedrate
G1 X-5.060359 Z4.183837
F934.114012	; set feedrate
G1 X-5.075917 Z4.182162
F815.583034	; set feedrate
G1 X-5.091475 Z4.180240
F723.745913	; set feedrate
G1 X-5.107033 Z4.178070
F650.497852	; set feedrate
G1 X-5.122591 Z4.175649
F590.713553	; set feedrate
G1 X-5.138148 Z4.172977
F540.993294	; set feedrate
G1 X-5.153706 Z4.170051
F498.993104	; set feedrate
G1 X-5.169264 Z4.166868
F463.044473	; set feedrate
G1 X-5.184822 Z4.163427
F431.927391	; set feedrate
G1 X-5.200380 Z4.159725
F404.729140	; set feedrate
G1 X-5.215938 Z4.155758
F380.753277	; set feedrate
G1 X-5.231496 Z4.151523
F359.459155	; set feedrate
G1 X-5.247054 Z4.147017
F340.420667	; set feedrate
G1 X-5.262611 Z4.142236
F323.297438	; set feedrate
G1 X-5.278169 Z4.137175
F307.814298	; set feedrate
G1 X-5.293727 Z4.131831
F293.746378	; set feedrate
G1 X-5.309285 Z4.126198
F280.908122	; set feedrate
G1 X-5.324843 Z4.120272
F269.145054	; set feedrate
G1 X-5.340401 Z4.114046
F258.327534	; set feedrate
G1 X-5.355959 Z4.107514
F248.345955	; set feedrate
G1 X-5.371516 Z4.100670
F239.107023	; set feedrate
G1 X-5.387074 Z4.093507
F230.530828	; set feedrate
G1 X-5.402632 Z4.086016
F222.548527	; set feedrate
G1 X-5.418190 Z4.078191
F215.100493	; set feedrate
G1 X-5.433748 Z4.070022
F208.134823	; set feedrate
G1 X-5.449306 Z4.061499
F201.606124	; set feedrate
G1 X-5.464864 Z4.052611
F195.474526	; set feedrate
G1 X-5.480422 Z4.043349
F189.704868	; set feedrate
G1 X-5.495979 Z4.033698
F184.266019	; set feedrate
G1 X-5.511537 Z4.023646
F179.130318	; set feedrate
G1 X-5.527095 Z4.013177
F174.273105	; set feedrate
G1 X-5.542653 Z4.002277
F169.672323	; set feedrate
G1 X-5.558211 Z3.990927
F165.308184	; set feedrate
G1 X-5.573769 Z3.979107
F161.162885	; set feedrate
G1 X-5.589327 Z3.966798
F157.220364	; set feedrate
G1 X-5.604885 Z3.953974
F153.466093	; set feedrate
G1 X-5.620442 Z3.940609
F149.886899	; set feedrate
G1 X-5.636000 Z3.926675
F146.470808	; set feedrate
G1 X-5.651558 Z3.912138
F143.206913	; set feedrate
G1 X-5.667116 Z3.896961
F140.085258	; set feedrate
G1 X-5.682674 Z3.881102
F137.096734	; set feedrate
G1 X-5.698232 Z3.864513
F134.232992	; set feedrate
G1 X-5.713790 Z3.847139
F131.486364	; set feedrate
G1 X-5.729347 Z3.828916
F128.849794	; set feedrate
G1 X-5.744905 Z3.809768
F126.316779	; set feedrate
G1 X-5.760463 Z3.789609
F123.881310	; set feedrate
G1 X-5.776021 Z3.768332
F121.537827	; set feedrate
G1 X-5.791579 Z3.745809
F119.281173	; set feedrate
G1 X-5.807137 Z3.721882
F117.106553	; set feedrate
G1 X-5.822695 Z3.696353
F115.009489	; set feedrate
G1 X-5.838253 Z3.668967
F112.985781	; set feedrate
G1 X-5.853810 Z3.639384
F111.031453	; set feedrate
G1 X-5.869368 Z3.607139
F109.142667	; set feedrate
G1 X-5.884926 Z3.571560
F107.315570	; set feedrate
G1 X-5.900484 Z3.531611
F105.545891	; set feedrate
G1 X-5.916042 Z3.485531
F103.827539	; set feedrate
G1 X-5.931600 Z3.429831
F102.144644	; set feedrate
G1 X-5.947158 Z3.355110
F100.001075	; set feedrate
G1 X-5.962716 Z0.000000
F1200	; set feedrate
G1 X-9.961088
  Y-1.153571
  X-5.962716
  X-5.947158 Z3.355110
  X-5.931600 Z3.429831
  X-5.916042 Z3.485531
  X-5.900484 Z3.531611
  X-5.884926 Z3.571560
  X-5.869368 Z3.607139
  X-5.853810 Z3.639384
  X-5.838253 Z3.668967
  X-5.822695 Z3.696353
  X-5.807137 Z3.721882
  X-5.791579 Z3.745809
  X-5.776021 Z3.768332
  X-5.760463 Z3.789609
  X-5.744905 Z3.809768
  X-5.729347 Z3.828916
  X-5.713790 Z3.847139
  X-5.698232 Z3.864513
  X-5.682674 Z3.881102
  X-5.667116 Z3.896961
  X-5.651558 Z3.912138
  X-5.636000 Z3.926675
  X-5.620442 Z3.940609
  X-5.604885 Z3.953974
  X-5.589327 Z3.966798
  X-5.573769 Z3.979107
  X-5.558211 Z3.990927
  X-5.542653 Z4.002277
  X-5.527095 Z4.013177
  X-5.511537 Z4.023646
  X-5.495979 Z4.033698
  X-5.480422 Z4.043349
  X-5.464864 Z4.052611
  X-5.449306 Z4.061499
  X-5.433748 Z4.070022
  X-5.418190 Z4.078191
  X-5.402632 Z4.086016
  X-5.387074 Z4.093507
  X-5.371516 Z4.100670
  X-5.355959 Z4.107514
  X-5.340401 Z4.114046
  X-5.324843 Z4.120272
  X-5.309285 Z4.126198
  X-5.293727 Z4.131831
  X-5.278169 Z4.137175
  X-5.262611 Z4.142236
  X-5.247054 Z4.147017
  X-5.231496 Z4.151523
  X-5.215938 Z4.155758
  X-5.200380 Z4.159725
  X-5.184822 Z4.163427
  X-5.169264 Z4.166868
  X-5.153706 Z4.170051
  X-5.138148 Z4.172977
  X-5.122591 Z4.175649
  X-5.107033 Z4.178070
  X-5.091475 Z4.180240
  X-5.075917 Z4.182162
  X-5.060359 Z4.183837
  X-5.044801 Z4.185267
  X-5.029243 Z4.186452
  X-5.013685 Z4.187393
  X-4.998128 Z4.188091
  X-4.982570 Z4.188546
  X-4.967012 Z4.188759
  X-4.951454
  X-0.781945
  X-0.766387
  X-0.750829 Z4.188546
  X-0.735271 Z4.188091
  X-0.719714 Z4.187393
  X-0.704156 Z4.186452
  X-0.688598 Z4.185267
F1092.956390	; set feedrate
G1 X-0.673040 Z4.183837
F934.114012	; set feedrate
G1 X-0.657482 Z4.182162
F815.583034	; set feedrate
G1 X-0.641924 Z4.180240
F723.745913	; set feedrate
G1 X-0.626366 Z4.178070
F650.497852	; set feedrate
G1 X-0.610808 Z4.175649
F590.713553	; set feedrate
G1 X-0.595251 Z4.172977
F540.993294	; set feedrate
G1 X-0.579693 Z4.170051
F498.993104	; set feedrate
G1 X-0.564135 Z4.166868
F463.044473	; set feedrate
G1 X-0.548577 Z4.163427
F431.927391	; set feedrate
G1 X-0.533019 Z4.159725
F404.729140	; set feedrate
G1 X-0.517461 Z4.155758
F380.753277	; set feedrate
G1 X-0.501903 Z4.151523
F359.459155	; set feedrate
G1 X-0.486345 Z4.147017
F340.420667	; set feedrate
G1 X-0.470788 Z4.142236
F323.297438	; set feedrate
G1 X-0.455230 Z4.137175
F307.814298	; set feedrate
G1 X-0.439672 Z4.131831
F293.746378	; set feedrate
G1 X-0.424114 Z4.126198
F280.908122	; set feedrate
G1 X-0.408556 Z4.120272
F269.145054	; set feedrate
G1 X-0.392998 Z4.114046
F258.327534	; set feedrate
G1 X-0.377440 Z4.107514
F248.345955	; set feedrate
G1 X-0.361883 Z4.100670
F239.107023	; set feedrate
G1 X-0.346325 Z4.093507
F230.530828	; set feedrate
G1 X-0.330767 Z4.086016
F222.548527	; set feedrate
G1 X-0.315209 Z4.078191
F215.100493	; set feedrate
G1 X-0.299651 Z4.070022
F208.134823	; set feedrate
G1 X-0.284093 Z4.061499
F201.606124	; set feedrate
G1 X-0.268535 Z4.052611
F195.474526	; set feedrate
G1 X-0.252977 Z4.043349
F189.704868	; set feedrate
G1 X-0.237420 Z4.033698
F184.266019	; set feedrate
G1 X-0.221862 Z4.023646
F179.130318	; set feedrate
G1 X-0.206304 Z4.013177
F174.273105	; set feedrate
G1 X-0.190746 Z4.002277
F169.672323	; set feedrate
G1 X-0.175188 Z3.990927
F165.308184	; set feedrate
G1 X-0.159630 Z3.979107
F161.162885	; set feedrate
G1 X-0.144072 Z3.966798
F157.220364	; set feedrate
G1 X-0.128514 Z3.953974
F153.466093	; set feedrate
G1 X-0.112957 Z3.940609
F149.886899	; set feedrate
G1 X-0.097399 Z3.926675
F146.470808	; set feedrate
G1 X-0.081841 Z3.912138
F143.206913	; set feedrate
G1 X-0.066283 Z3.896961
F140.085258	; set feedrate
G1 X-0.050725 Z3.881102
F137.096734	; set feedrate
G1 X-0.035167 Z3.864513
F134.232992	; set feedrate
G1 X-0.019609 Z3.847139
F131.486364	; set feedrate
G1 X-0.004052 Z3.828916
F128.849794	; set feedrate
G1 X0.011506 Z3.809768
F126.316779	; set feedrate
G1 X0.027064 Z3.789609
F123.881310	; set feedrate
G1 X0.042622 Z3.768332
F121.537827	; set feedrate
G1 X0.058180 Z3.745809
F119.281173	; set feedrate
G1 X0.073738 Z3.721882
F117.106553	; set feedrate
G1 X0.089296 Z3.696353
F115.009489	; set feedrate
G1 X0.104854 Z3.668967
F112.985781	; set feedrate
G1 X0.120411 Z3.639384
F111.031453	; set feedrate
G1 X0.135969 Z3.607139
F109.142667	; set feedrate
G1 X0.151527 Z3.571560
F107.315570	; set feedrate
G1 X0.167085 Z3.531611
F105.545891	; set feedrate
G1 X0.182643 Z3.485531
F103.827539	; set feedrate
G1 X0.198201 Z3.429831
F102.144644	; set feedrate
G1 X0.213759 Z3.355110
F100.001075	; set feedrate
G1 X0.229317 Z0.000000
F1200	; set feedrate
G1 X4.227689
  Y-0.759438
  X0.229317
  X0.213759 Z3.355110
  X0.198201 Z3.429831
  X0.182643 Z3.485531
  X0.167085 Z3.531611
  X0.151527 Z3.571560
  X0.135969 Z3.607139
  X0.120411 Z3.639384
  X0.104854 Z3.668967
  X0.089296 Z3.696353
  X0.073738 Z3.721882
  X0.058180 Z3.745809
  X0.042622 Z3.768332
  X0.027064 Z3.789609
  X0.011506 Z3.809768
  X-0.004052 Z3.828916
  X-0.019609 Z3.847139
  X-0.035167 Z3.864513
  X-0.050725 Z3.881102
  X-0.066283 Z3.896961
  X-0.081841 Z3.912138
  X-0.097399 Z3.926675
  X-0.112957 Z3.940609
  X-0.128514 Z3.953974
  X-0.144072 Z3.966798
  X-0.159630 Z3.979107
  X-0.175188 Z3.990927
  X-0.190746 Z4.002277
  X-0.206304 Z4.013177
  X-0.221862 Z4.023646
  X-0.237420 Z4.033698
  X-0.252977 Z4.043349
  X-0.268535 Z4.052611
  X-0.284093 Z4.061499
  X-0.299651 Z4.070022
  X-0.315209 Z4.078191
  X-0.330767 Z4.086016
  X-0.346325 Z4.093507
  X-0.361883 Z4.100670
  X-0.377440 Z4.107514
  X-0.392998 Z4.114046
  X-0.408556 Z4.120272
  X-0.424114 Z4.126198
  X-0.439672 Z4.131831
  X-0.455230 Z4.137175
  X-0.470788 Z4.142236
  X-0.486345 Z4.147017
  X-0.501903 Z4.151523
  X-0.517461 Z4.155758
  X-0.533019 Z4.159725
  X-0.548577 Z4.163427
  X-0.564135 Z4.166868
  X-0.579693 Z4.170051
  X-0.595251 Z4.172977
  X-0.610808 Z4.175649
  X-0.626366 Z4.178070
  X-0.641924 Z4.180240
  X-0.657482 Z4.182162
  X-0.673040 Z4.183837
  X-0.688598 Z4.185267
  X-0.704156 Z4.186452
  X-0.719714 Z4.187393
  X-0.735271 Z4.188091
  X-0.750829 Z4.188546
  X-0.766387 Z4.188759
  X-0.781945
  X-4.951454
  X-4.967012
  X-4.982570 Z4.188546
  X-4.998128 Z4.188091
  X-5.013685 Z4.187393
  X-5.029243 Z4.186452
  X-5.044801 Z4.185267
F1092.956390	; set feedrate
G1 X-5.060359 Z4.183837
F934.114012	; set feedrate
G1 X-5.075917 Z4.182162
F815.583034	; set feedrate
G1 X-5.091475 Z4.180240
F723.745913	; set feedrate
G1 X-5.107033 Z4.178070
F650.497852	; set feedrate
G1 X-5.122591 Z4.175649
F590.713553	; set feedrate
G1 X-5.138148 Z4.172977
F540.993294	; set feedrate
G1 X-5.153706 Z4.170051
F498.993104	; set feedrate
G1 X-5.169264 Z4.166868
F463.044473	; set feedrate
G1 X-5.184822 Z4.163427
F431.927391	; set feedrate
G1 X-5.200380 Z4.159725
F404.729140	; set feedrate
G1 X-5.215938 Z4.155758
F380.753277	; set feedrate
G1 X-5.231496 Z4.151523
F359.459155	; set feedrate
G1 X-5.247054 Z4.147017
F340.420667	; set feedrate
G1 X-5.262611 Z4.142236
F323.297438	; set feedrate
G1 X-5.278169 Z4.137175
F307.814298	; set feedrate
G1 X-5.293727 Z4.131831
F293.746378	; set feedrate
G1 X-5.309285 Z4.126198
F280.908122	; set feedrate
G1 X-5.324843 Z4.120272
F269.145054	; set feedrate
G1 X-5.340401 Z4.114046
F258.327534	; set feedrate
G1 X-5.355959 Z4.107514
F248.345955	; set feedrate
G1 X-5.371516 Z4.100670
F239.107023	; set feedrate
G1 X-5.387074 Z4.093507
F230.530828	; set feedrate
G1 X-5.402632 Z4.086016
F222.548527	; set feedrate
G1 X-5.418190 Z4.078191
F215.100493	; set feedrate
G1 X-5.433748 Z4.070022
F208.134823	; set feedrate
G1 X-5.449306 Z4.061499
F201.606124	; set feedrate
G1 X-5.464864 Z4.052611
F195.474526	; set feedrate
G1 X-5.480422 Z4.043349
F189.704868	; set feedrate
G1 X-5.495979 Z4.033698
F184.266019	; set feedrate
G1 X-5.511537 Z4.023646
F179.130318	; set feedrate
G1 X-5.527095 Z4.013177
F174.273105	; set feedrate
G1 X-5.542653 Z4.002277
F169.672323	; set feedrate
G1 X-5.558211 Z3.990927
F165.308184	; set feedrate
G1 X-5.573769 Z3.979107
F161.162885	; set feedrate
G1 X-5.589327 Z3.966798
F157.220364	; set feedrate
G1 X-5.604885 Z3.953974
F153.466093	; set feedrate
G1 X-5.620442 Z3.940609
F149.886899	; set feedrate
G1 X-5.636000 Z3.926675
F146.470808	; set feedrate
G1 X-5.651558 Z3.912138
F143.206913	; set feedrate
G1 X-5.667116 Z3.896961
F140.085258	; set feedrate
G1 X-5.682674 Z3.881102
F137.096734	; set feedrate
G1 X-5.698232 Z3.864513
F134.232992	; set feedrate
G1 X-5.713790 Z3.847139
F131.486364	; set feedrate
G1 X-5.729347 Z3.828916
F128.849794	; set feedrate
G1 X-5.744905 Z3.809768
F126.316779	; set feedrate
G1 X-5.760463 Z3.789609
F123.881310	; set feedrate
G1 X-5.776021 Z3.768332
F121.537827	; set feedrate
G1 X-5.791579 Z3.745809
F119.281173	; set feedrate
G1 X-5.807137 Z3.721882
F117.106553	; set feedrate
G1 X-5.822695 Z3.696353
F115.009489	; set feedrate
G1 X-5.838253 Z3.668967
F112.985781	; set feedrate
G1 X-5.853810 Z3.639384
F111.031453	; set feedrate
G1 X-5.869368 Z3.607139
F109.142667	; set feedrate
G1 X-5.884926 Z3.571560
F107.315570	; set feedrate
G1 X-5.900484 Z3.531611
F105.545891	; set feedrate
G1 X-5.916042 Z3.485531
F103.827539	; set feedrate
G1 X-5.931600 Z3.429831
F102.144644	; set feedrate
G1 X-5.947158 Z3.355110
F100.001075	; set feedrate
G1 X-5.962716 Z0.000000
F1200	; set feedrate
G1 X-9.961088
  Y-0.365305
  X-5.931600
  X-5.916042 Z3.311017
  X-5.900484 Z3.399525
  X-5.884926 Z3.459706
  X-5.869368 Z3.508005
  X-5.853810 Z3.549230
  X-5.838253 Z3.585592
  X-5.822695 Z3.618327
  X-5.807137 Z3.648213
  X-5.791579 Z3.675772
  X-5.776021 Z3.701382
  X-5.760463 Z3.725321
  X-5.744905 Z3.747803
  X-5.729347 Z3.768999
  X-5.713790 Z3.789044
  X-5.698232 Z3.808050
  X-5.682674 Z3.826110
  X-5.667116 Z3.843303
  X-5.651558 Z3.859695
  X-5.636000 Z3.875343
  X-5.620442 Z3.890298
  X-5.604885 Z3.904602
  X-5.589327 Z3.918295
  X-5.573769 Z3.931409
  X-5.558211 Z3.943975
  X-5.542653 Z3.956020
  X-5.527095 Z3.967568
  X-5.511537 Z3.978641
  X-5.495979 Z3.989259
  X-5.480422 Z3.999439
  X-5.464864 Z4.009197
  X-5.449306 Z4.018550
  X-5.433748 Z4.027510
  X-5.418190 Z4.036089
  X-5.402632 Z4.044299
  X-5.387074 Z4.052151
  X-5.371516 Z4.059655
  X-5.355959 Z4.066819
  X-5.340401 Z4.073651
  X-5.324843 Z4.080159
  X-5.309285 Z4.086351
  X-5.293727 Z4.092232
  X-5.278169 Z4.097809
  X-5.262611 Z4.103087
  X-5.247054 Z4.108072
  X-5.231496 Z4.112768
  X-5.215938 Z4.117180
  X-5.200380 Z4.121311
  X-5.184822 Z4.125165
  X-5.169264 Z4.128746
  X-5.153706 Z4.132057
  X-5.138148 Z4.135101
  X-5.122591 Z4.137880
  X-5.107033 Z4.140397
  X-5.091475 Z4.142653
  X-5.075917 Z4.144650
  X-5.060359 Z4.146391
  X-5.044801 Z4.147876
  X-5.029243 Z4.149107
  X-5.013685 Z4.150085
  X-4.998128 Z4.150810
  X-4.982570 Z4.151283
  X-4.967012 Z4.151505
  X-4.951454
  X-0.781945
  X-0.766387
  X-0.750829 Z4.151283
  X-0.735271 Z4.150810
  X-0.719714 Z4.150085
  X-0.704156 Z4.149107
  X-0.688598 Z4.147876
F1052.236742	; set feedrate
G1 X-0.673040 Z4.146391
F899.312249	; set feedrate
G1 X-0.657482 Z4.144650
F785.197299	; set feedrate
G1 X-0.641924 Z4.142653
F696.781688	; set feedrate
G1 X-0.626366 Z4.140397
F626.262578	; set feedrate
G1 X-0.610808 Z4.137880
F568.705617	; set feedrate
G1 X-0.595251 Z4.135101
F520.837746	; set feedrate
G1 X-0.579693 Z4.132057
F480.402323	; set feedrate
G1 X-0.564135 Z4.128746
F445.792999	; set feedrate
G1 X-0.548577 Z4.125165
F415.835217	; set feedrate
G1 X-0.533019 Z4.121311
F389.650265	; set feedrate
G1 X-0.517461 Z4.117180
F366.567646	; set feedrate
G1 X-0.501903 Z4.112768
F346.066855	; set feedrate
G1 X-0.486345 Z4.108072
F327.737662	; set feedrate
G1 X-0.470788 Z4.103087
F311.252371	; set feedrate
G1 X-0.455230 Z4.097809
F296.346065	; set feedrate
G1 X-0.439672 Z4.092232
F282.802252	; set feedrate
G1 X-0.424114 Z4.086351
F270.442290	; set feedrate
G1 X-0.408556 Z4.080159
F259.117458	; set feedrate
G1 X-0.392998 Z4.073651
F248.702944	; set feedrate
G1 X-0.377440 Z4.066819
F239.093228	; set feedrate
G1 X-0.361883 Z4.059655
F230.198489	; set feedrate
G1 X-0.346325 Z4.052151
F221.941794	; set feedrate
G1 X-0.330767 Z4.044299
F214.256866	; set feedrate
G1 X-0.315209 Z4.036089
F207.086299	; set feedrate
G1 X-0.299651 Z4.027510
F200.380122	; set feedrate
G1 X-0.284093 Z4.018550
F194.094635	; set feedrate
G1 X-0.268535 Z4.009197
F188.191454	; set feedrate
G1 X-0.252977 Z3.999439
F182.636725	; set feedrate
G1 X-0.237420 Z3.989259
F177.400477	; set feedrate
G1 X-0.221862 Z3.978641
F172.456081	; set feedrate
G1 X-0.206304 Z3.967568
F167.779793	; set feedrate
G1 X-0.190746 Z3.956020
F163.350380	; set feedrate
G1 X-0.175188 Z3.943975
F159.148788	; set feedrate
G1 X-0.159630 Z3.931409
F155.157879	; set feedrate
G1 X-0.144072 Z3.918295
F151.362186	; set feedrate
G1 X-0.128514 Z3.904602
F147.747723	; set feedrate
G1 X-0.112957 Z3.890298
F144.301805	; set feedrate
G1 X-0.097399 Z3.875343
F141.012903	; set feedrate
G1 X-0.081841 Z3.859695
F137.870515	; set feedrate
G1 X-0.066283 Z3.843303
F134.865051	; set feedrate
G1 X-0.050725 Z3.826110
F131.987739	; set feedrate
G1 X-0.035167 Z3.808050
F129.230536	; set feedrate
G1 X-0.019609 Z3.789044
F126.586052	; set feedrate
G1 X-0.004052 Z3.768999
F124.047485	; set feedrate
G1 X0.011506 Z3.747803
F121.608560	; set feedrate
G1 X0.027064 Z3.725321
F119.263471	; set feedrate
G1 X0.042622 Z3.701382
F117.006837	; set feedrate
G1 X0.058180 Z3.675772
F114.833642	; set feedrate
G1 X0.073738 Z3.648213
F112.739190	; set feedrate
G1 X0.089296 Z3.618327
F110.719028	; set feedrate
G1 X0.104854 Z3.585592
F108.768840	; set feedrate
G1 X0.120411 Z3.549230
F106.884211	; set feedrate
G1 X0.135969 Z3.508005
F105.059967	; set feedrate
G1 X0.151527 Z3.459706
F103.287509	; set feedrate
G1 X0.167085 Z3.399525
F101.533173	; set feedrate
G1 X0.182643 Z3.311017
F100.001104	; set feedrate
G1 X0.198201 Z0.000000
F1200	; set feedrate
G1 X4.227689
  Y0.028827
  X-0.019609
  X-0.035167 Z3.311273
  X-0.050725 Z3.382942
  X-0.066283 Z3.433543
  X-0.081841 Z3.474499
  X-0.097399 Z3.509525
  X-0.112957 Z3.540399
  X-0.128514 Z3.568135
  X-0.144072 Z3.593378
  X-0.159630 Z3.616572
  X-0.175188 Z3.638032
  X-0.190746 Z3.657998
  X-0.206304 Z3.676652
  X-0.221862 Z3.694140
  X-0.237420 Z3.710579
  X-0.252977 Z3.726065
  X-0.268535 Z3.740679
  X-0.284093 Z3.754488
  X-0.299651 Z3.767550
  X-0.315209 Z3.779915
  X-0.330767 Z3.791624
  X-0.346325 Z3.802717
  X-0.361883 Z3.813224
  X-0.377440 Z3.823177
  X-0.392998 Z3.832600
  X-0.408556 Z3.841516
  X-0.424114 Z3.849946
  X-0.439672 Z3.857909
  X-0.455230 Z3.865420
  X-0.470788 Z3.872495
  X-0.486345 Z3.879146
  X-0.501903 Z3.885387
  X-0.517461 Z3.891228
  X-0.533019 Z3.896679
  X-0.548577 Z3.901749
  X-0.564135 Z3.906446
  X-0.579693 Z3.910777
  X-0.595251 Z3.914749
  X-0.610808 Z3.918368
  X-0.626366 Z3.921639
  X-0.641924 Z3.924566
  X-0.657482 Z3.927154
  X-0.673040 Z3.929406
  X-0.688598 Z3.931325
  X-0.704156 Z3.932915
  X-0.719714 Z3.934176
  X-0.735271 Z3.935111
  X-0.750829 Z3.935721
  X-0.766387 Z3.936006
  X-0.781945
  X-4.951454
  X-4.967012
  X-4.982570 Z3.935721
  X-4.998128 Z3.935111
  X-5.013685 Z3.934176
  X-5.029243 Z3.932915
F984.023665	; set feedrate
G1 X-5.044801 Z3.931325
F816.694247	; set feedrate
G1 X-5.060359 Z3.929406
F698.001660	; set feedrate
G1 X-5.075917 Z3.927154
F609.431141	; set feedrate
G1 X-5.091475 Z3.924566
F540.807189	; set feedrate
G1 X-5.107033 Z3.921639
F486.073623	; set feedrate
G1 X-5.122591 Z3.918368
F441.400641	; set feedrate
G1 X-5.138148 Z3.914749
F404.247853	; set feedrate
G1 X-5.153706 Z3.910777
F372.863764	; set feedrate
G1 X-5.169264 Z3.906446
F346.001604	; set feedrate
G1 X-5.184822 Z3.901749
F322.749740	; set feedrate
G1 X-5.200380 Z3.896679
F302.426156	; set feedrate
G1 X-5.215938 Z3.891228
F284.510445	; set feedrate
G1 X-5.231496 Z3.885387
F268.598618	; set feedrate
G1 X-5.247054 Z3.879146
F254.372270	; set feedrate
G1 X-5.262611 Z3.872495
F241.577063	; set feedrate
G1 X-5.278169 Z3.865420
F230.007376	; set feedrate
G1 X-5.293727 Z3.857909
F219.495180	; set feedrate
G1 X-5.309285 Z3.849946
F209.901819	; set feedrate
G1 X-5.324843 Z3.841516
F201.111863	; set feedrate
G1 X-5.340401 Z3.832600
F193.028435	; set feedrate
G1 X-5.355959 Z3.823177
F185.569634	; set feedrate
G1 X-5.371516 Z3.813224
F178.665744	; set feedrate
G1 X-5.387074 Z3.802717
F172.257049	; set feedrate
G1 X-5.402632 Z3.791624
F166.292103	; set feedrate
G1 X-5.418190 Z3.779915
F160.726347	; set feedrate
G1 X-5.433748 Z3.767550
F155.520990	; set feedrate
G1 X-5.449306 Z3.754488
F150.642105	; set feedrate
G1 X-5.464864 Z3.740679
F146.059891	; set feedrate
G1 X-5.480422 Z3.726065
F141.748060	; set feedrate
G1 X-5.495979 Z3.710579
F137.683333	; set feedrate
G1 X-5.511537 Z3.694140
F133.845020	; set feedrate
G1 X-5.527095 Z3.676652
F130.214663	; set feedrate
G1 X-5.542653 Z3.657998
F126.775738	; set feedrate
G1 X-5.558211 Z3.638032
F123.513396	; set feedrate
G1 X-5.573769 Z3.616572
F120.414243	; set feedrate
G1 X-5.589327 Z3.593378
F117.466131	; set feedrate
G1 X-5.604885 Z3.568135
F114.657966	; set feedrate
G1 X-5.620442 Z3.540399
F111.979475	; set feedrate
G1 X-5.636000 Z3.509525
F109.420864	; set feedrate
G1 X-5.651558 Z3.474499
F106.972032	; set feedrate
G1 X-5.667116 Z3.433543
F104.619802	; set feedrate
G1 X-5.682674 Z3.382942
F102.329054	; set feedrate
G1 X-5.698232 Z3.311273
F100.001104	; set feedrate
G1 X-5.713790 Z0.000000
F1200	; set feedrate
G1 X-9.961088
  Y0.422960
  X4.227689
  Y0.817093
  X-9.961088
  Y1.211225
  X4.227689
  Y1.605358
  X-9.961088
  Y1.999491
  X4.227689
  Y2.393624
  X-9.961088
  Y2.787756
  X4.227689
  Y3.181889
  X-9.961088
  Y3.576022
  X4.227689
  Y3.970154
  X-9.961088
  Y4.364287
  X4.227689
M5	; stop spindle
G0 Z25.000000
M2	; end program
