; Generated by PyCAM 0.7.0~pre0~requirements.589.gc127f00a.dirty: 2021-07-29
G40	; disable tool radius compensation
G49	; disable tool length compensation
G80	; cancel modal motion
G54	; select coordinate system 1
G90	; disable incremental moves
G21	; metric
F600	; set feedrate
G64 P0.000000	; continuous mode with tolerance
M5	; stop spindle
T1 M6	; select tool
S1000	; set spindle speed
M3	; start spindle
G04 P2.0	; wait for 2.0 seconds
G0 X50.275002 Y50.275002 Z25.000000
G1 Z27.777800
  Y99.724998
  X55.220001
  Y50.275002
  X60.165001
  Y99.724998
  X65.110001
  Y50.275002
  X70.055000
  Y99.724998
  X75.000000
  Y50.275002
  X79.945000
  Y99.724998
  X84.889999
  Y50.275002
  X89.834999
  Y99.724998
  X94.779999
  Y50.275002
  X99.724998
  Y99.724998
F100	; set feedrate
G1 Z24.999800
F600	; set feedrate
G1 Y50.275002
  X94.779999
  Y99.724998
  X89.834999
  Y84.371339
G0 Z25.000000
  Y68.789167
F100	; set feedrate
G1 Z24.999800
F600	; set feedrate
G1 Y68.640267
G0 Z25.000000
  Y63.952417
F100	; set feedrate
G1 Z24.999800
F600	; set feedrate
G1 Y50.275002
  X84.889999
  Y62.170818
G0 Z25.000000
  Y90.497573
F100	; set feedrate
G1 Z24.999800
F600	; set feedrate
G1 Y99.724998
  X79.945000
  Y92.341666
G0 Z25.000000
  Y57.408456
F100	; set feedrate
G1 Z24.999800
F600	; set feedrate
G1 Y50.275002
  X75.000000
  Y56.937537
G0 Z25.000000
  Y72.414902
F100	; set feedrate
G1 Z24.999800
F600	; set feedrate
G1 Y77.587364
G0 Z25.000000
  Y93.062467
F100	; set feedrate
G1 Z24.999800
F600	; set feedrate
G1 Y99.724998
  X70.055000
  Y92.591547
G0 Z25.000000
  Y57.658334
F100	; set feedrate
G1 Z24.999800
F600	; set feedrate
G1 Y50.275002
  X65.110001
  Y59.502427
G0 Z25.000000
  Y87.829182
F100	; set feedrate
G1 Z24.999800
F600	; set feedrate
G1 Y99.724998
  X60.165001
  Y86.047580
G0 Z25.000000
  Y81.359733
F100	; set feedrate
G1 Z24.999800
F600	; set feedrate
G1 Y81.210832
G0 Z25.000000
  Y65.628661
F100	; set feedrate
G1 Z24.999800
F600	; set feedrate
G1 Y50.275002
  X55.220001
  Y99.724998
  X50.275002
  Y50.275002
F100	; set feedrate
G1 Z22.221800
F600	; set feedrate
G1 Y99.724998
  X55.220001
  Y50.275002
  X60.165001
  Y65.628661
G0 Z25.000000
  Y81.210832
F100	; set feedrate
G1 Z22.221800
F600	; set feedrate
G1 Y81.359733
G0 Z25.000000
  Y86.047580
F100	; set feedrate
G1 Z22.221800
F600	; set feedrate
G1 Y99.724998
  X65.110001
  Y87.829182
G0 Z25.000000
  Y59.502427
F100	; set feedrate
G1 Z22.221800
F600	; set feedrate
G1 Y50.275002
  X70.055000
  Y57.658334
G0 Z25.000000
  Y92.591547
F100	; set feedrate
G1 Z22.221800
F600	; set feedrate
G1 Y99.724998
  X75.000000
  Y93.062467
G0 Z25.000000
  Y77.587364
F100	; set feedrate
G1 Z22.221800
F600	; set feedrate
G1 Y72.414902
G0 Z25.000000
  Y56.937537
F100	; set feedrate
G1 Z22.221800
F600	; set feedrate
G1 Y50.275002
  X79.945000
  Y57.408456
G0 Z25.000000
  Y92.341666
F100	; set feedrate
G1 Z22.221800
F600	; set feedrate
G1 Y99.724998
  X84.889999
  Y90.497573
G0 Z25.000000
  Y62.170818
F100	; set feedrate
G1 Z22.221800
F600	; set feedrate
G1 Y50.275002
  X89.834999
  Y63.952417
G0 Z25.000000
  Y68.640267
F100	; set feedrate
G1 Z22.221800
F600	; set feedrate
G1 Y68.789167
G0 Z25.000000
  Y84.371339
F100	; set feedrate
G1 Z22.221800
F600	; set feedrate
G1 Y99.724998
  X94.779999
  Y50.275002
  X99.724998
  Y99.724998
F100	; set feedrate
G1 Z19.443800
F600	; set feedrate
G1 Y50.275002
  X94.779999
  Y99.724998
  X89.834999
  Y87.077325
G0 Z25.000000
  Y62.929643
F100	; set feedrate
G1 Z19.443800
F600	; set feedrate
G1 Y50.275002
  X84.889999
  Y58.630631
G0 Z25.000000
  Y91.375084
F100	; set feedrate
G1 Z19.443800
F600	; set feedrate
G1 Y99.724998
  X79.945000
  Y93.475824
G0 Z25.000000
  Y56.523309
F100	; set feedrate
G1 Z19.443800
F600	; set feedrate
G1 Y50.275002
  X75.000000
  Y55.874935
G0 Z25.000000
  Y72.414902
F100	; set feedrate
G1 Z19.443800
F600	; set feedrate
G1 Y77.587364
G0 Z25.000000
  Y94.129997
F100	; set feedrate
G1 Z19.443800
F600	; set feedrate
G1 Y99.724998
  X70.055000
  Y93.475824
G0 Z25.000000
  Y56.523309
F100	; set feedrate
G1 Z19.443800
F600	; set feedrate
G1 Y50.275002
  X65.110001
  Y58.630631
G0 Z25.000000
  Y91.375084
F100	; set feedrate
G1 Z19.443800
F600	; set feedrate
G1 Y99.724998
  X60.165001
  Y87.077321
G0 Z25.000000
  Y62.929639
F100	; set feedrate
G1 Z19.443800
F600	; set feedrate
G1 Y50.275002
  X55.220001
  Y99.724998
  X50.275002
  Y50.275002
F100	; set feedrate
G1 Z16.665800
F600	; set feedrate
G1 Y99.724998
  X55.220001
  Y50.275002
  X60.165001
  Y62.929639
G0 Z25.000000
  Y87.077321
F100	; set feedrate
G1 Z16.665800
F600	; set feedrate
G1 Y99.724998
  X65.110001
  Y91.375084
G0 Z25.000000
  Y58.630631
F100	; set feedrate
G1 Z16.665800
F600	; set feedrate
G1 Y50.275002
  X70.055000
  Y56.523309
G0 Z25.000000
  Y93.475824
F100	; set feedrate
G1 Z16.665800
F600	; set feedrate
G1 Y99.724998
  X75.000000
  Y94.129997
G0 Z25.000000
  Y77.587364
F100	; set feedrate
G1 Z16.665800
F600	; set feedrate
G1 Y72.414902
G0 Z25.000000
  Y55.874935
F100	; set feedrate
G1 Z16.665800
F600	; set feedrate
G1 Y50.275002
  X79.945000
  Y56.523309
G0 Z25.000000
  Y93.475824
F100	; set feedrate
G1 Z16.665800
F600	; set feedrate
G1 Y99.724998
  X84.889999
  Y91.375084
G0 Z25.000000
  Y58.630631
F100	; set feedrate
G1 Z16.665800
F600	; set feedrate
G1 Y50.275002
  X89.834999
  Y62.929643
G0 Z25.000000
  Y87.077325
F100	; set feedrate
G1 Z16.665800
F600	; set feedrate
G1 Y99.724998
  X94.779999
  Y50.275002
  X99.724998
  Y99.724998
F100	; set feedrate
G1 Z13.887800
F600	; set feedrate
G1 Y50.275002
  X94.779999
  Y99.724998
  X89.834999
  Y87.077325
G0 Z25.000000
  Y62.929643
F100	; set feedrate
G1 Z13.887800
F600	; set feedrate
G1 Y50.275002
  X84.889999
  Y58.630631
G0 Z25.000000
  Y91.375084
F100	; set feedrate
G1 Z13.887800
F600	; set feedrate
G1 Y99.724998
  X79.945000
  Y93.475824
G0 Z25.000000
  Y56.523309
F100	; set feedrate
G1 Z13.887800
F600	; set feedrate
G1 Y50.275002
  X75.000000
  Y55.874935
G0 Z25.000000
  Y72.414902
F100	; set feedrate
G1 Z13.887800
F600	; set feedrate
G1 Y77.587364
G0 Z25.000000
  Y94.129997
F100	; set feedrate
G1 Z13.887800
F600	; set feedrate
G1 Y99.724998
  X70.055000
  Y93.475824
G0 Z25.000000
  Y56.523309
F100	; set feedrate
G1 Z13.887800
F600	; set feedrate
G1 Y50.275002
  X65.110001
  Y58.630631
G0 Z25.000000
  Y91.375084
F100	; set feedrate
G1 Z13.887800
F600	; set feedrate
G1 Y99.724998
  X60.165001
  Y87.077321
G0 Z25.000000
  Y62.929639
F100	; set feedrate
G1 Z13.887800
F600	; set feedrate
G1 Y50.275002
  X55.220001
  Y99.724998
  X50.275002
  Y50.275002
F100	; set feedrate
G1 Z11.109801
F600	; set feedrate
G1 Y99.724998
  X55.220001
  Y50.275002
  X60.165001
  Y62.929639
G0 Z25.000000
  Y87.077321
F100	; set feedrate
G1 Z11.109801
F600	; set feedrate
G1 Y99.724998
  X65.110001
  Y91.375084
G0 Z25.000000
  Y58.630631
F100	; set feedrate
G1 Z11.109801
F600	; set feedrate
G1 Y50.275002
  X70.055000
  Y56.523309
G0 Z25.000000
  Y93.475824
F100	; set feedrate
G1 Z11.109801
F600	; set feedrate
G1 Y99.724998
  X75.000000
  Y94.129997
G0 Z25.000000
  Y77.587364
F100	; set feedrate
G1 Z11.109801
F600	; set feedrate
G1 Y72.414902
G0 Z25.000000
  Y55.874935
F100	; set feedrate
G1 Z11.109801
F600	; set feedrate
G1 Y50.275002
  X79.945000
  Y56.523309
G0 Z25.000000
  Y93.475824
F100	; set feedrate
G1 Z11.109801
F600	; set feedrate
G1 Y99.724998
  X84.889999
  Y91.375084
G0 Z25.000000
  Y58.630631
F100	; set feedrate
G1 Z11.109801
F600	; set feedrate
G1 Y50.275002
  X89.834999
  Y62.929643
G0 Z25.000000
  Y87.077325
F100	; set feedrate
G1 Z11.109801
F600	; set feedrate
G1 Y99.724998
  X94.779999
  Y50.275002
  X99.724998
  Y99.724998
F100	; set feedrate
G1 Z8.331801
F600	; set feedrate
G1 Y50.275002
  X94.779999
  Y99.724998
  X89.834999
  Y87.077325
G0 Z25.000000
  Y62.929643
F100	; set feedrate
G1 Z8.331801
F600	; set feedrate
G1 Y50.275002
  X84.889999
  Y58.630631
G0 Z25.000000
  Y91.375084
F100	; set feedrate
G1 Z8.331801
F600	; set feedrate
G1 Y99.724998
  X79.945000
  Y93.475824
G0 Z25.000000
  Y56.523309
F100	; set feedrate
G1 Z8.331801
F600	; set feedrate
G1 Y50.275002
  X75.000000
  Y55.874935
G0 Z25.000000
  Y72.414902
F100	; set feedrate
G1 Z8.331801
F600	; set feedrate
G1 Y77.587364
G0 Z25.000000
  Y94.129997
F100	; set feedrate
G1 Z8.331801
F600	; set feedrate
G1 Y99.724998
  X70.055000
  Y93.475824
G0 Z25.000000
  Y56.523309
F100	; set feedrate
G1 Z8.331801
F600	; set feedrate
G1 Y50.275002
  X65.110001
  Y58.630631
G0 Z25.000000
  Y91.375084
F100	; set feedrate
G1 Z8.331801
F600	; set feedrate
G1 Y99.724998
  X60.165001
  Y87.077321
G0 Z25.000000
  Y62.929639
F100	; set feedrate
G1 Z8.331801
F600	; set feedrate
G1 Y50.275002
  X55.220001
  Y99.724998
  X50.275002
  Y50.275002
F100	; set feedrate
G1 Z5.553801
F600	; set feedrate
G1 Y99.724998
  X55.220001
  Y86.178245
G0 Z25.000000
  Y63.821755
F100	; set feedrate
G1 Z5.553801
F600	; set feedrate
G1 Y50.275002
  X60.165001
  Y57.788073
G0 Z25.000000
  Y92.211923
F100	; set feedrate
G1 Z5.553801
F600	; set feedrate
G1 Y99.724998
  X65.110001
  Y95.459872
G0 Z25.000000
  Y54.540132
F100	; set feedrate
G1 Z5.553801
F600	; set feedrate
G1 Y50.275002
  X70.055000
  Y52.821102
G0 Z25.000000
  Y97.178898
F100	; set feedrate
G1 Z5.553801
F600	; set feedrate
G1 Y99.724998
  X75.000000
  Y97.724998
G0 Z25.000000
  Y77.587364
F100	; set feedrate
G1 Z5.553801
F600	; set feedrate
G1 Y72.414902
G0 Z25.000000
  Y52.275002
F100	; set feedrate
G1 Z5.553801
F600	; set feedrate
G1 Y50.275002
  X79.945000
  Y52.821102
G0 Z25.000000
  Y97.178898
F100	; set feedrate
G1 Z5.553801
F600	; set feedrate
G1 Y99.724998
  X84.889999
  Y95.459872
G0 Z25.000000
  Y54.540132
F100	; set feedrate
G1 Z5.553801
F600	; set feedrate
G1 Y50.275002
  X89.834999
  Y57.788070
G0 Z25.000000
  Y92.211926
F100	; set feedrate
G1 Z5.553801
F600	; set feedrate
G1 Y99.724998
  X94.779999
  Y86.178238
G0 Z25.000000
  Y63.821762
F100	; set feedrate
G1 Z5.553801
F600	; set feedrate
G1 Y50.275002
  X99.724998
  Y99.724998
F100	; set feedrate
G1 Z2.775801
F600	; set feedrate
G1 Y50.275002
  X94.779999
  Y63.821762
G0 Z25.000000
  Y86.178238
F100	; set feedrate
G1 Z2.775801
F600	; set feedrate
G1 Y99.724998
  X89.834999
  Y92.211926
G0 Z25.000000
  Y57.788070
F100	; set feedrate
G1 Z2.775801
F600	; set feedrate
G1 Y50.275002
  X84.889999
  Y54.540132
G0 Z25.000000
  Y95.459872
F100	; set feedrate
G1 Z2.775801
F600	; set feedrate
G1 Y99.724998
  X79.945000
  Y97.178898
G0 Z25.000000
  Y52.821102
F100	; set feedrate
G1 Z2.775801
F600	; set feedrate
G1 Y50.275002
  X75.000000
  Y52.275002
G0 Z25.000000
  Y72.414902
F100	; set feedrate
G1 Z2.775801
F600	; set feedrate
G1 Y77.587364
G0 Z25.000000
  Y97.724998
F100	; set feedrate
G1 Z2.775801
F600	; set feedrate
G1 Y99.724998
  X70.055000
  Y97.178898
G0 Z25.000000
  Y52.821102
F100	; set feedrate
G1 Z2.775801
F600	; set feedrate
G1 Y50.275002
  X65.110001
  Y54.540132
G0 Z25.000000
  Y95.459872
F100	; set feedrate
G1 Z2.775801
F600	; set feedrate
G1 Y99.724998
  X60.165001
  Y92.211923
G0 Z25.000000
  Y57.788073
F100	; set feedrate
G1 Z2.775801
F600	; set feedrate
G1 Y50.275002
  X55.220001
  Y63.821755
G0 Z25.000000
  Y86.178245
F100	; set feedrate
G1 Z2.775801
F600	; set feedrate
G1 Y99.724998
  X50.275002
  Y50.275002
F100	; set feedrate
G1 Z-0.002199
F600	; set feedrate
G1 Y99.724998
  X55.220001
  Y86.178245
G0 Z25.000000
  Y63.821755
F100	; set feedrate
G1 Z-0.002199
F600	; set feedrate
G1 Y50.275002
  X60.165001
  Y57.788073
G0 Z25.000000
  Y92.211923
F100	; set feedrate
G1 Z-0.002199
F600	; set feedrate
G1 Y99.724998
  X65.110001
  Y95.459872
G0 Z25.000000
  Y54.540132
F100	; set feedrate
G1 Z-0.002199
F600	; set feedrate
G1 Y50.275002
  X70.055000
  Y52.821102
G0 Z25.000000
  Y97.178898
F100	; set feedrate
G1 Z-0.002199
F600	; set feedrate
G1 Y99.724998
  X75.000000
  Y97.724998
G0 Z25.000000
  Y77.587364
F100	; set feedrate
G1 Z-0.002199
F600	; set feedrate
G1 Y72.414902
G0 Z25.000000
  Y52.275002
F100	; set feedrate
G1 Z-0.002199
F600	; set feedrate
G1 Y50.275002
  X79.945000
  Y52.821102
G0 Z25.000000
  Y97.178898
F100	; set feedrate
G1 Z-0.002199
F600	; set feedrate
G1 Y99.724998
  X84.889999
  Y95.459872
G0 Z25.000000
  Y54.540132
F100	; set feedrate
G1 Z-0.002199
F600	; set feedrate
G1 Y50.275002
  X89.834999
  Y57.788070
G0 Z25.000000
  Y92.211926
F100	; set feedrate
G1 Z-0.002199
F600	; set feedrate
G1 Y99.724998
  X94.779999
  Y86.178238
G0 Z25.000000
  Y63.821762
F100	; set feedrate
G1 Z-0.002199
F600	; set feedrate
G1 Y50.275002
  X99.724998
  Y99.724998
M5	; stop spindle
G0 Z25.000000
G21	; metric
F1200	; set feedrate
G64 P0.000000	; continuous mode with tolerance
M5	; stop spindle
T2 M6	; select tool
S1000	; set spindle speed
M3	; start spindle
G04 P2.0	; wait for 2.0 seconds
G0 X50.275002 Y50.275002
F100	; set feedrate
G1 Z-0.002199
F1200	; set feedrate
G1 X99.724998
  Y50.673792
  X50.275002
  Y51.072582
  X99.724998
  Y51.471372
  X50.275002
  Y51.870163
  X99.724998
  Y52.268953
  X50.275002
  Y52.667743
  X99.724998
  Y53.066534
  X50.275002
  Y53.465324
  X99.724998
  Y53.864114
  X50.275002
  Y54.262905
  X99.724998
  Y54.661695
  X78.964741
  X78.949132 Z5.694469
  X78.933522 Z5.727854
  X78.917913 Z5.753173
  X78.902304 Z5.774390
  X78.886695 Z5.793001
  X78.871086 Z5.809765
  X78.855476 Z5.825131
  X78.839867 Z5.839390
  X78.824258 Z5.852744
  X78.808649 Z5.865339
  X78.793040 Z5.877286
  X78.777430 Z5.888670
  X78.761821 Z5.899560
  X78.746212 Z5.910011
  X78.730603 Z5.920068
  X78.714993 Z5.929770
  X78.699384 Z5.938892
  X78.683775 Z5.947030
  X78.668166 Z5.954252
  X78.652557 Z5.961009
  X78.636947 Z5.967619
  X78.621338 Z5.974090
  X78.605729 Z5.980429
  X78.590120 Z5.986643
  X78.574511 Z5.992738
  X78.558901 Z5.998720
  X78.543292 Z6.004594
  X78.527683 Z6.010364
  X78.512074 Z6.016037
  X78.496464 Z6.021614
  X78.480855 Z6.027102
  X78.465246 Z6.032502
  X78.449637 Z6.037819
  X78.434028 Z6.043055
  X78.418418 Z6.048213
  X78.402809 Z6.053297
  X78.387200 Z6.058309
  X78.371591 Z6.063251
  X78.355981 Z6.068125
  X78.340372 Z6.072934
  X78.324763 Z6.077680
  X78.309154 Z6.082365
  X78.293545 Z6.086990
  X78.277935 Z6.091557
  X78.262326 Z6.096068
  X78.246717 Z6.100525
  X78.231108 Z6.104929
  X78.215499 Z6.109281
  X78.199889 Z6.113583
  X78.184280 Z6.117836
  X78.168671 Z6.122041
  X78.153062 Z6.126200
  X78.137452 Z6.130313
  X78.121843 Z6.134382
  X78.106234 Z6.138408
  X78.090625 Z6.142392
  X78.075016 Z6.146334
  X78.059406 Z6.150236
  X78.043797 Z6.154098
  X78.028188 Z6.157922
  X78.012579 Z6.161708
  X77.996970 Z6.165457
  X77.981360 Z6.169169
  X77.965751 Z6.172846
  X77.950142 Z6.176488
  X77.934533 Z6.180096
  X77.918923 Z6.183671
  X77.903314 Z6.187212
  X77.887705 Z6.190721
  X77.872096 Z6.194199
  X77.856487 Z6.197645
  X77.840877 Z6.201061
  X77.825268 Z6.204446
  X77.809659 Z6.207803
  X77.794050 Z6.211130
  X77.778440 Z6.214428
  X77.762831 Z6.217612
  X77.747222 Z6.220397
  X77.731613 Z6.222790
  X77.716004 Z6.225084
  X77.700394 Z6.227363
  X77.684785 Z6.229629
  X77.669176 Z6.231882
  X77.653567 Z6.234121
  X77.637958 Z6.236348
  X77.622348 Z6.238561
  X77.606739 Z6.240762
  X77.591130 Z6.242950
  X77.575521 Z6.245126
  X77.559911 Z6.247289
  X77.544302 Z6.249440
  X77.528693 Z6.251579
  X77.513084 Z6.253706
  X77.497475 Z6.255821
  X77.481865 Z6.257925
  X77.466256 Z6.260016
  X77.450647 Z6.262096
  X77.435038 Z6.264165
  X77.419429 Z6.266223
  X77.403819 Z6.268269
  X77.388210 Z6.270304
  X77.372601 Z6.272328
  X77.356992 Z6.274341
  X77.341382 Z6.276344
  X77.325773 Z6.278335
  X77.310164 Z6.280316
  X77.294555 Z6.282287
  X77.278946 Z6.284247
  X77.263336 Z6.286197
  X77.247727 Z6.288137
  X77.232118 Z6.290066
  X77.216509 Z6.291986
  X77.200899 Z6.293895
  X77.185290 Z6.295795
  X77.169681 Z6.297685
  X77.154072 Z6.299565
  X77.138463 Z6.301435
  X77.122853 Z6.303296
  X77.107244 Z6.305148
  X77.091635 Z6.306990
  X77.076026 Z6.308822
  X77.060417 Z6.310646
  X77.044807 Z6.312460
  X77.029198 Z6.314265
  X77.013589 Z6.316061
  X76.997980 Z6.317849
  X76.982370 Z6.319627
  X76.966761 Z6.321396
  X76.951152 Z6.323157
  X76.935543 Z6.324909
  X76.919934 Z6.326652
  X76.904324 Z6.328387
  X76.888715 Z6.330113
  X76.873106 Z6.331831
  X76.857497 Z6.333540
  X76.841888 Z6.335228
  X76.826278 Z6.336662
  X76.810669 Z6.337766
  X76.795060 Z6.338777
  X76.779451 Z6.339785
  X76.763841 Z6.340789
  X76.748232 Z6.341791
  X76.732623 Z6.342790
  X76.717014 Z6.343786
  X76.701405 Z6.344780
  X76.685795 Z6.345770
  X76.670186 Z6.346758
  X76.654577 Z6.347742
  X76.638968 Z6.348724
  X76.623358 Z6.349703
  X76.607749 Z6.350679
  X76.592140 Z6.351653
  X76.576531 Z6.352623
  X76.560922 Z6.353591
  X76.545312 Z6.354556
  X76.529703 Z6.355518
  X76.514094 Z6.356478
  X76.498485 Z6.357435
  X76.482876 Z6.358389
  X76.467266 Z6.359340
  X76.451657 Z6.360289
  X76.436048 Z6.361235
  X76.420439 Z6.362178
  X76.404829 Z6.363119
  X76.389220 Z6.364057
  X76.373611 Z6.364992
  X76.358002 Z6.365925
  X76.342393 Z6.366855
  X76.326783 Z6.367782
  X76.311174 Z6.368707
  X76.295565 Z6.369629
  X76.279956 Z6.370549
  X76.264347 Z6.371466
  X76.248737 Z6.372380
  X76.233128 Z6.373292
  X76.217519 Z6.374201
  X76.201910 Z6.375108
  X76.186300 Z6.376012
  X76.170691 Z6.376914
  X76.155082 Z6.377813
  X76.139473 Z6.378710
  X76.123864 Z6.379604
  X76.108254 Z6.380496
  X76.092645 Z6.381385
  X76.077036 Z6.382272
  X76.061427 Z6.383156
  X76.045817 Z6.384038
  X76.030208 Z6.384917
  X76.014599 Z6.385794
  X75.998990 Z6.386668
  X75.983381 Z6.387540
  X75.967771 Z6.388410
  X75.952162 Z6.389277
  X75.936553 Z6.390142
  X75.920944 Z6.390975
  X75.905335 Z6.391544
  X75.889725 Z6.391855
  X75.874116 Z6.392142
  X75.858507 Z6.392428
  X75.842898 Z6.392713
  X75.827288 Z6.392999
  X75.811679 Z6.393284
  X75.796070 Z6.393569
  X75.780461 Z6.393854
  X75.764852 Z6.394138
  X75.749242 Z6.394422
  X75.733633 Z6.394706
  X75.718024 Z6.394990
  X75.702415 Z6.395273
  X75.686806 Z6.395557
  X75.671196 Z6.395840
  X75.655587 Z6.396122
  X75.639978 Z6.396405
  X75.624369 Z6.396687
  X75.608759 Z6.396968
  X75.593150 Z6.397250
  X75.577541 Z6.397531
  X75.561932 Z6.397812
  X75.546323 Z6.398093
  X75.530713 Z6.398374
  X75.515104 Z6.398654
  X75.499495 Z6.398934
  X75.483886 Z6.399214
  X75.468276 Z6.399493
  X75.452667 Z6.399773
  X75.437058 Z6.400052
  X75.421449 Z6.400331
  X75.405840 Z6.400609
  X75.390230 Z6.400887
  X75.374621 Z6.401165
  X75.359012 Z6.401443
  X75.343403 Z6.401720
  X75.327794 Z6.401998
  X75.312184 Z6.402275
  X75.296575 Z6.402551
  X75.280966 Z6.402828
  X75.265357 Z6.403104
  X75.249747 Z6.403380
  X75.234138 Z6.403656
  X75.218529 Z6.403931
  X75.202920 Z6.404206
  X75.187311 Z6.404481
  X75.171701 Z6.404756
  X75.156092 Z6.405030
  X75.140483 Z6.405305
  X75.124874 Z6.405579
  X75.109265 Z6.405852
  X75.093655 Z6.406126
  X75.078046 Z6.406399
  X75.062437 Z6.406672
  X75.046828 Z6.406945
  X75.031218 Z6.407217
  X75.015609 Z6.407489
  X75.000000
  X74.984391
  X74.968782 Z6.407217
  X74.953172 Z6.406945
  X74.937563 Z6.406672
  X74.921954 Z6.406399
  X74.906345 Z6.406126
  X74.890735 Z6.405852
  X74.875126 Z6.405579
  X74.859517 Z6.405305
  X74.843908 Z6.405030
  X74.828299 Z6.404756
  X74.812689 Z6.404481
  X74.797080 Z6.404206
  X74.781471 Z6.403931
  X74.765862 Z6.403656
  X74.750253 Z6.403380
  X74.734643 Z6.403104
  X74.719034 Z6.402828
  X74.703425 Z6.402551
  X74.687816 Z6.402275
  X74.672206 Z6.401998
  X74.656597 Z6.401720
  X74.640988 Z6.401443
  X74.625379 Z6.401165
  X74.609770 Z6.400887
  X74.594160 Z6.400609
  X74.578551 Z6.400331
  X74.562942 Z6.400052
  X74.547333 Z6.399773
  X74.531724 Z6.399493
  X74.516114 Z6.399214
  X74.500505 Z6.398934
  X74.484896 Z6.398654
  X74.469287 Z6.398374
  X74.453677 Z6.398093
  X74.438068 Z6.397812
  X74.422459 Z6.397531
  X74.406850 Z6.397250
  X74.391241 Z6.396968
  X74.375631 Z6.396687
  X74.360022 Z6.396405
  X74.344413 Z6.396122
  X74.328804 Z6.395840
  X74.313194 Z6.395557
  X74.297585 Z6.395273
  X74.281976 Z6.394990
  X74.266367 Z6.394706
  X74.250758 Z6.394422
  X74.235148 Z6.394138
  X74.219539 Z6.393854
  X74.203930 Z6.393569
  X74.188321 Z6.393284
  X74.172712 Z6.392999
  X74.157102 Z6.392713
  X74.141493 Z6.392428
  X74.125884 Z6.392142
  X74.110275 Z6.391855
  X74.094665 Z6.391544
  X74.079056 Z6.390975
  X74.063447 Z6.390142
  X74.047838 Z6.389277
  X74.032229 Z6.388410
  X74.016619 Z6.387540
  X74.001010 Z6.386668
  X73.985401 Z6.385794
  X73.969792 Z6.384917
  X73.954183 Z6.384038
  X73.938573 Z6.383156
  X73.922964 Z6.382272
  X73.907355 Z6.381385
  X73.891746 Z6.380496
  X73.876136 Z6.379604
  X73.860527 Z6.378710
  X73.844918 Z6.377813
  X73.829309 Z6.376914
  X73.813700 Z6.376012
  X73.798090 Z6.375108
  X73.782481 Z6.374201
  X73.766872 Z6.373292
  X73.751263 Z6.372380
  X73.735653 Z6.371466
  X73.720044 Z6.370549
  X73.704435 Z6.369629
  X73.688826 Z6.368707
  X73.673217 Z6.367782
  X73.657607 Z6.366855
  X73.641998 Z6.365925
  X73.626389 Z6.364992
  X73.610780 Z6.364057
  X73.595171 Z6.363119
  X73.579561 Z6.362178
  X73.563952 Z6.361235
  X73.548343 Z6.360289
  X73.532734 Z6.359340
  X73.517124 Z6.358389
  X73.501515 Z6.357435
  X73.485906 Z6.356478
  X73.470297 Z6.355518
  X73.454688 Z6.354556
  X73.439078 Z6.353591
  X73.423469 Z6.352623
  X73.407860 Z6.351653
  X73.392251 Z6.350679
  X73.376642 Z6.349703
  X73.361032 Z6.348724
  X73.345423 Z6.347742
  X73.329814 Z6.346758
  X73.314205 Z6.345770
  X73.298595 Z6.344780
  X73.282986 Z6.343786
  X73.267377 Z6.342790
  X73.251768 Z6.341791
  X73.236159 Z6.340789
  X73.220549 Z6.339785
  X73.204940 Z6.338777
  X73.189331 Z6.337766
  X73.173722 Z6.336662
F1093.546647	; set feedrate
G1 X73.158112 Z6.335228
F929.925318	; set feedrate
G1 X73.142503 Z6.333540
F918.619902	; set feedrate
G1 X73.126894 Z6.331831
F914.186587	; set feedrate
G1 X73.111285 Z6.330113
F909.764944	; set feedrate
G1 X73.095676 Z6.328387
F905.354812	; set feedrate
G1 X73.080066 Z6.326652
F900.956032	; set feedrate
G1 X73.064457 Z6.324909
F896.568445	; set feedrate
G1 X73.048848 Z6.323157
F892.191890	; set feedrate
G1 X73.033239 Z6.321396
F887.826211	; set feedrate
G1 X73.017630 Z6.319627
F883.471249	; set feedrate
G1 X73.002020 Z6.317849
F879.126846	; set feedrate
G1 X72.986411 Z6.316061
F874.792845	; set feedrate
G1 X72.970802 Z6.314265
F870.469089	; set feedrate
G1 X72.955193 Z6.312460
F866.155422	; set feedrate
G1 X72.939583 Z6.310646
F861.851687	; set feedrate
G1 X72.923974 Z6.308822
F857.557729	; set feedrate
G1 X72.908365 Z6.306990
F853.273390	; set feedrate
G1 X72.892756 Z6.305148
F848.998516	; set feedrate
G1 X72.877147 Z6.303296
F844.732951	; set feedrate
G1 X72.861537 Z6.301435
F840.476539	; set feedrate
G1 X72.845928 Z6.299565
F836.229126	; set feedrate
G1 X72.830319 Z6.297685
F831.990555	; set feedrate
G1 X72.814710 Z6.295795
F827.760672	; set feedrate
G1 X72.799101 Z6.293895
F823.539322	; set feedrate
G1 X72.783491 Z6.291986
F819.326348	; set feedrate
G1 X72.767882 Z6.290066
F815.121596	; set feedrate
G1 X72.752273 Z6.288137
F810.924911	; set feedrate
G1 X72.736664 Z6.286197
F806.736136	; set feedrate
G1 X72.721054 Z6.284247
F802.555115	; set feedrate
G1 X72.705445 Z6.282287
F798.381694	; set feedrate
G1 X72.689836 Z6.280316
F794.215714	; set feedrate
G1 X72.674227 Z6.278335
F790.057021	; set feedrate
G1 X72.658618 Z6.276344
F785.905457	; set feedrate
G1 X72.643008 Z6.274341
F781.760864	; set feedrate
G1 X72.627399 Z6.272328
F777.623086	; set feedrate
G1 X72.611790 Z6.270304
F773.491964	; set feedrate
G1 X72.596181 Z6.268269
F769.367339	; set feedrate
G1 X72.580571 Z6.266223
F765.249053	; set feedrate
G1 X72.564962 Z6.264165
F761.136945	; set feedrate
G1 X72.549353 Z6.262096
F757.030855	; set feedrate
G1 X72.533744 Z6.260016
F752.930624	; set feedrate
G1 X72.518135 Z6.257925
F748.836087	; set feedrate
G1 X72.502525 Z6.255821
F744.747085	; set feedrate
G1 X72.486916 Z6.253706
F740.663452	; set feedrate
G1 X72.471307 Z6.251579
F736.585026	; set feedrate
G1 X72.455698 Z6.249440
F732.511641	; set feedrate
G1 X72.440089 Z6.247289
F728.443131	; set feedrate
G1 X72.424479 Z6.245126
F724.379329	; set feedrate
G1 X72.408870 Z6.242950
F720.320068	; set feedrate
G1 X72.393261 Z6.240762
F716.265178	; set feedrate
G1 X72.377652 Z6.238561
F712.214489	; set feedrate
G1 X72.362042 Z6.236348
F708.167830	; set feedrate
G1 X72.346433 Z6.234121
F704.125027	; set feedrate
G1 X72.330824 Z6.231882
F700.085907	; set feedrate
G1 X72.315215 Z6.229629
F696.050293	; set feedrate
G1 X72.299606 Z6.227363
F692.018009	; set feedrate
G1 X72.283996 Z6.225084
F687.988877	; set feedrate
G1 X72.268387 Z6.222790
F659.863472	; set feedrate
G1 X72.252778 Z6.220397
F569.283981	; set feedrate
G1 X72.237169 Z6.217612
F500.381960	; set feedrate
G1 X72.221560 Z6.214428
F483.663203	; set feedrate
G1 X72.205950 Z6.211130
F479.691507	; set feedrate
G1 X72.190341 Z6.207803
F475.723029	; set feedrate
G1 X72.174732 Z6.204446
F471.757406	; set feedrate
G1 X72.159123 Z6.201061
F467.794275	; set feedrate
G1 X72.143513 Z6.197645
F463.833264	; set feedrate
G1 X72.127904 Z6.194199
F459.873994	; set feedrate
G1 X72.112295 Z6.190721
F455.916082	; set feedrate
G1 X72.096686 Z6.187212
F451.959135	; set feedrate
G1 X72.081077 Z6.183671
F448.002756	; set feedrate
G1 X72.065467 Z6.180096
F444.046537	; set feedrate
G1 X72.049858 Z6.176488
F440.090063	; set feedrate
G1 X72.034249 Z6.172846
F436.132909	; set feedrate
G1 X72.018640 Z6.169169
F432.174643	; set feedrate
G1 X72.003030 Z6.165457
F428.214820	; set feedrate
G1 X71.987421 Z6.161708
F424.252987	; set feedrate
G1 X71.971812 Z6.157922
F420.288679	; set feedrate
G1 X71.956203 Z6.154098
F416.321419	; set feedrate
G1 X71.940594 Z6.150236
F412.350716	; set feedrate
G1 X71.924984 Z6.146334
F408.376069	; set feedrate
G1 X71.909375 Z6.142392
F404.396960	; set feedrate
G1 X71.893766 Z6.138408
F400.412858	; set feedrate
G1 X71.878157 Z6.134382
F396.423215	; set feedrate
G1 X71.862548 Z6.130313
F392.427467	; set feedrate
G1 X71.846938 Z6.126200
F388.425031	; set feedrate
G1 X71.831329 Z6.122041
F384.415307	; set feedrate
G1 X71.815720 Z6.117836
F380.397672	; set feedrate
G1 X71.800111 Z6.113583
F376.371485	; set feedrate
G1 X71.784501 Z6.109281
F372.336078	; set feedrate
G1 X71.768892 Z6.104929
F368.290763	; set feedrate
G1 X71.753283 Z6.100525
F364.234823	; set feedrate
G1 X71.737674 Z6.096068
F360.167514	; set feedrate
G1 X71.722065 Z6.091557
F356.088063	; set feedrate
G1 X71.706455 Z6.086990
F351.995664	; set feedrate
G1 X71.690846 Z6.082365
F347.889478	; set feedrate
G1 X71.675237 Z6.077680
F343.768629	; set feedrate
G1 X71.659628 Z6.072934
F339.632203	; set feedrate
G1 X71.644019 Z6.068125
F335.479243	; set feedrate
G1 X71.628409 Z6.063251
F331.308747	; set feedrate
G1 X71.612800 Z6.058309
F327.119665	; set feedrate
G1 X71.597191 Z6.053297
F322.910893	; set feedrate
G1 X71.581582 Z6.048213
F318.681273	; set feedrate
G1 X71.565972 Z6.043055
F314.429583	; set feedrate
G1 X71.550363 Z6.037819
F310.154537	; set feedrate
G1 X71.534754 Z6.032502
F305.854774	; set feedrate
G1 X71.519145 Z6.027102
F301.528859	; set feedrate
G1 X71.503536 Z6.021614
F297.175267	; set feedrate
G1 X71.487926 Z6.016037
F292.792382	; set feedrate
G1 X71.472317 Z6.010364
F288.378488	; set feedrate
G1 X71.456708 Z6.004594
F283.931754	; set feedrate
G1 X71.441099 Z5.998720
F279.450229	; set feedrate
G1 X71.425489 Z5.992738
F274.931825	; set feedrate
G1 X71.409880 Z5.986643
F270.374306	; set feedrate
G1 X71.394271 Z5.980429
F265.775271	; set feedrate
G1 X71.378662 Z5.974090
F261.132135	; set feedrate
G1 X71.363053 Z5.967619
F256.442107	; set feedrate
G1 X71.347443 Z5.961009
F251.702172	; set feedrate
G1 X71.331834 Z5.954252
F238.167874	; set feedrate
G1 X71.316225 Z5.947030
F216.290744	; set feedrate
G1 X71.300616 Z5.938892
F198.206807	; set feedrate
G1 X71.285007 Z5.929770
F189.433471	; set feedrate
G1 X71.269397 Z5.920068
F184.628568	; set feedrate
G1 X71.253788 Z5.910011
F179.743991	; set feedrate
G1 X71.238179 Z5.899560
F174.772361	; set feedrate
G1 X71.222570 Z5.888670
F169.705301	; set feedrate
G1 X71.206960 Z5.877286
F164.533232	; set feedrate
G1 X71.191351 Z5.865339
F159.245108	; set feedrate
G1 X71.175742 Z5.852744
F153.828061	; set feedrate
G1 X71.160133 Z5.839390
F148.266930	; set feedrate
G1 X71.144524 Z5.825131
F142.543582	; set feedrate
G1 X71.128914 Z5.809765
F136.635901	; set feedrate
G1 X71.113305 Z5.793001
F130.516121	; set feedrate
G1 X71.097696 Z5.774390
F124.147559	; set feedrate
G1 X71.082087 Z5.753173
F117.476061	; set feedrate
G1 X71.066478 Z5.727854
F110.390874	; set feedrate
G1 X71.050868 Z5.694469
F100.000375	; set feedrate
G1 X71.035259 Z-0.002199
F1200	; set feedrate
G1 X50.275002
  Y55.060485
  X69.349464
  X69.365073 Z5.686249
  X69.380682 Z5.734514
  X69.396291 Z5.767862
  X69.411901 Z5.794930
  X69.427510 Z5.818277
  X69.443119 Z5.839085
  X69.458728 Z5.858013
  X69.474337 Z5.875477
  X69.489947 Z5.891360
  X69.505556 Z5.905525
  X69.521165 Z5.918220
  X69.536774 Z5.930071
  X69.552384 Z5.941444
  X69.567993 Z5.952386
  X69.583602 Z5.962940
  X69.599211 Z5.973140
  X69.614820 Z5.983015
  X69.630430 Z5.992591
  X69.646039 Z6.001891
  X69.661648 Z6.010933
  X69.677257 Z6.019737
  X69.692866 Z6.028316
  X69.708476 Z6.036684
  X69.724085 Z6.044855
  X69.739694 Z6.052839
  X69.755303 Z6.060646
  X69.770913 Z6.068285
  X69.786522 Z6.075766
  X69.802131 Z6.083095
  X69.817740 Z6.090279
  X69.833349 Z6.097325
  X69.848959 Z6.104240
  X69.864568 Z6.111028
  X69.880177 Z6.117695
  X69.895786 Z6.124245
  X69.911396 Z6.130684
  X69.927005 Z6.137014
  X69.942614 Z6.143241
  X69.958223 Z6.149367
  X69.973832 Z6.155396
  X69.989442 Z6.161332
  X70.005051 Z6.167177
  X70.020660 Z6.172935
  X70.036269 Z6.178607
  X70.051878 Z6.184197
  X70.067488 Z6.189707
  X70.083097 Z6.195139
  X70.098706 Z6.200495
  X70.114315 Z6.205778
  X70.129925 Z6.210990
  X70.145534 Z6.216131
  X70.161143 Z6.221205
  X70.176752 Z6.226212
  X70.192361 Z6.231155
  X70.207971 Z6.236035
  X70.223580 Z6.240854
  X70.239189 Z6.245612
  X70.254798 Z6.250311
  X70.270407 Z6.254953
  X70.286017 Z6.259539
  X70.301626 Z6.264069
  X70.317235 Z6.268546
  X70.332844 Z6.272970
  X70.348454 Z6.277342
  X70.364063 Z6.281664
  X70.379672 Z6.285936
  X70.395281 Z6.290159
  X70.410890 Z6.294334
  X70.426500 Z6.298462
  X70.442109 Z6.302475
  X70.457718 Z6.306133
  X70.473327 Z6.309460
  X70.488937 Z6.312715
  X70.504546 Z6.315940
  X70.520155 Z6.319137
  X70.535764 Z6.322305
  X70.551373 Z6.325445
  X70.566983 Z6.328557
  X70.582592 Z6.331643
  X70.598201 Z6.334701
  X70.613810 Z6.337732
  X70.629419 Z6.340738
  X70.645029 Z6.343717
  X70.660638 Z6.346671
  X70.676247 Z6.349599
  X70.691856 Z6.352503
  X70.707466 Z6.355382
  X70.723075 Z6.358236
  X70.738684 Z6.361066
  X70.754293 Z6.363872
  X70.769902 Z6.366655
  X70.785512 Z6.369414
  X70.801121 Z6.372150
  X70.816730 Z6.374864
  X70.832339 Z6.377555
  X70.847948 Z6.380223
  X70.863558 Z6.382869
  X70.879167 Z6.385494
  X70.894776 Z6.388096
  X70.910385 Z6.390678
  X70.925995 Z6.393238
  X70.941604 Z6.395777
  X70.957213 Z6.398295
  X70.972822 Z6.400793
  X70.988431 Z6.403270
  X71.004041 Z6.405727
  X71.019650 Z6.408164
  X71.035259 Z6.410581
  X71.050868 Z6.412978
  X71.066478 Z6.415356
  X71.082087 Z6.417715
  X71.097696 Z6.420054
  X71.113305 Z6.422374
  X71.128914 Z6.424676
  X71.144524 Z6.426959
  X71.160133 Z6.429223
  X71.175742 Z6.431469
  X71.191351 Z6.433697
  X71.206960 Z6.435907
  X71.222570 Z6.438099
  X71.238179 Z6.440273
  X71.253788 Z6.442430
  X71.269397 Z6.444569
  X71.285007 Z6.446690
  X71.300616 Z6.448795
  X71.316225 Z6.450882
  X71.331834 Z6.452953
  X71.347443 Z6.455006
  X71.363053 Z6.457043
  X71.378662 Z6.459012
  X71.394271 Z6.460708
  X71.409880 Z6.462262
  X71.425489 Z6.463806
  X71.441099 Z6.465340
  X71.456708 Z6.466864
  X71.472317 Z6.468378
  X71.487926 Z6.469883
  X71.503536 Z6.471378
  X71.519145 Z6.472864
  X71.534754 Z6.474340
  X71.550363 Z6.475806
  X71.565972 Z6.477263
  X71.581582 Z6.478711
  X71.597191 Z6.480149
  X71.612800 Z6.481578
  X71.628409 Z6.482998
  X71.644019 Z6.484409
  X71.659628 Z6.485810
  X71.675237 Z6.487202
  X71.690846 Z6.488585
  X71.706455 Z6.489960
  X71.722065 Z6.491325
  X71.737674 Z6.492681
  X71.753283 Z6.494028
  X71.768892 Z6.495367
  X71.784501 Z6.496697
  X71.800111 Z6.498017
  X71.815720 Z6.499330
  X71.831329 Z6.500633
  X71.846938 Z6.501928
  X71.862548 Z6.503214
  X71.878157 Z6.504491
  X71.893766 Z6.505760
  X71.909375 Z6.507021
  X71.924984 Z6.508273
  X71.940594 Z6.509516
  X71.956203 Z6.510752
  X71.971812 Z6.511978
  X71.987421 Z6.513197
  X72.003030 Z6.514407
  X72.018640 Z6.515609
  X72.034249 Z6.516802
  X72.049858 Z6.517988
  X72.065467 Z6.519165
  X72.081077 Z6.520334
  X72.096686 Z6.521495
  X72.112295 Z6.522648
  X72.127904 Z6.523793
  X72.143513 Z6.524930
  X72.159123 Z6.526058
  X72.174732 Z6.527179
  X72.190341 Z6.528292
  X72.205950 Z6.529397
  X72.221560 Z6.530495
  X72.237169 Z6.531584
  X72.252778 Z6.532665
  X72.268387 Z6.533739
  X72.283996 Z6.534805
  X72.299606 Z6.535814
  X72.315215 Z6.536605
  X72.330824 Z6.537353
  X72.346433 Z6.538098
  X72.362042 Z6.538839
  X72.377652 Z6.539576
  X72.393261 Z6.540309
  X72.408870 Z6.541039
  X72.424479 Z6.541764
  X72.440089 Z6.542485
  X72.455698 Z6.543203
  X72.471307 Z6.543917
  X72.486916 Z6.544627
  X72.502525 Z6.545333
  X72.518135 Z6.546035
  X72.533744 Z6.546734
  X72.549353 Z6.547428
  X72.564962 Z6.548119
  X72.580571 Z6.548806
  X72.596181 Z6.549489
  X72.611790 Z6.550169
  X72.627399 Z6.550844
  X72.643008 Z6.551516
  X72.658618 Z6.552185
  X72.674227 Z6.552849
  X72.689836 Z6.553510
  X72.705445 Z6.554167
  X72.721054 Z6.554820
  X72.736664 Z6.555470
  X72.752273 Z6.556115
  X72.767882 Z6.556758
  X72.783491 Z6.557396
  X72.799101 Z6.558031
  X72.814710 Z6.558662
  X72.830319 Z6.559289
  X72.845928 Z6.559913
  X72.861537 Z6.560533
  X72.877147 Z6.561150
  X72.892756 Z6.561763
  X72.908365 Z6.562372
  X72.923974 Z6.562977
  X72.939583 Z6.563579
  X72.955193 Z6.564178
  X72.970802 Z6.564773
  X72.986411 Z6.565364
  X73.002020 Z6.565951
  X73.017630 Z6.566535
  X73.033239 Z6.567116
  X73.048848 Z6.567692
  X73.064457 Z6.568266
  X73.080066 Z6.568835
  X73.095676 Z6.569402
  X73.111285 Z6.569964
  X73.126894 Z6.570523
  X73.142503 Z6.571079
  X73.158112 Z6.571631
  X73.173722 Z6.572179
  X73.189331 Z6.572724
  X73.204940 Z6.573246
  X73.220549 Z6.573596
  X73.236159 Z6.573919
  X73.251768 Z6.574240
  X73.267377 Z6.574559
  X73.282986 Z6.574878
  X73.298595 Z6.575195
  X73.314205 Z6.575512
  X73.329814 Z6.575826
  X73.345423 Z6.576140
  X73.361032 Z6.576452
  X73.376642 Z6.576763
  X73.392251 Z6.577073
  X73.407860 Z6.577382
  X73.423469 Z6.577689
  X73.439078 Z6.577995
  X73.454688 Z6.578300
  X73.470297 Z6.578604
  X73.485906 Z6.578906
  X73.501515 Z6.579207
  X73.517124 Z6.579507
  X73.532734 Z6.579805
  X73.548343 Z6.580103
  X73.563952 Z6.580399
  X73.579561 Z6.580694
  X73.595171 Z6.580988
  X73.610780 Z6.581280
  X73.626389 Z6.581571
  X73.641998 Z6.581861
  X73.657607 Z6.582150
  X73.673217 Z6.582437
  X73.688826 Z6.582724
  X73.704435 Z6.583009
  X73.720044 Z6.583293
  X73.735653 Z6.583575
  X73.751263 Z6.583857
  X73.766872 Z6.584137
  X73.782481 Z6.584416
  X73.798090 Z6.584694
  X73.813700 Z6.584970
  X73.829309 Z6.585245
  X73.844918 Z6.585519
  X73.860527 Z6.585792
  X73.876136 Z6.586064
  X73.891746 Z6.586334
  X73.907355 Z6.586603
  X73.922964 Z6.586871
  X73.938573 Z6.587138
  X73.954183 Z6.587404
  X73.969792 Z6.587668
  X73.985401 Z6.587931
  X74.001010 Z6.588193
  X74.016619 Z6.588454
  X74.032229 Z6.588714
  X74.047838 Z6.588972
  X74.063447 Z6.589229
  X74.079056 Z6.589485
  X74.094665 Z6.589740
  X74.110275 Z6.589931
  X74.125884
  X74.141493 Z6.590100
  X74.157102
  X74.172712 Z6.590268
  X74.188321
  X74.203930
  X74.219539 Z6.590519
  X74.235148
  X74.250758 Z6.590686
  X74.266367
  X74.281976 Z6.590852
  X74.297585
  X74.313194
  X74.328804 Z6.591100
  X74.344413
  X74.360022 Z6.591265
  X74.375631
  X74.391241
  X74.406850 Z6.591511
  X74.422459
  X74.438068 Z6.591675
  X74.453677
  X74.469287
  X74.484896 Z6.591919
  X74.500505
  X74.516114 Z6.592082
  X74.531724
  X74.547333
  X74.562942 Z6.592324
  X74.578551
  X74.594160 Z6.592485
  X74.609770
  X74.625379
  X74.640988 Z6.592725
  X74.656597
  X74.672206 Z6.592885
  X74.687816
  X74.703425
  X74.719034 Z6.593123
  X74.734643
  X74.750253 Z6.593281
  X74.765862
  X74.781471
  X74.797080 Z6.593518
  X74.812689
  X74.828299 Z6.593675
  X74.843908
  X74.859517
  X74.875126 Z6.593909
  X74.890735
  X74.906345 Z6.594065
  X74.921954
  X74.937563
  X74.953172 Z6.594297
  X74.968782
  X74.984391 Z6.594452
  X75.000000
  X75.015609
  X75.031218
  X75.046828 Z6.594297
  X75.062437
  X75.078046 Z6.594143
  X75.093655
  X75.109265
  X75.124874 Z6.593909
  X75.140483
  X75.156092
  X75.171701 Z6.593675
  X75.187311
  X75.202920 Z6.593518
  X75.218529
  X75.234138
  X75.249747 Z6.593281
  X75.265357
  X75.280966 Z6.593123
  X75.296575
  X75.312184
  X75.327794 Z6.592885
  X75.343403
  X75.359012 Z6.592725
  X75.374621
  X75.390230
  X75.405840 Z6.592485
  X75.421449
  X75.437058 Z6.592324
  X75.452667
  X75.468276
  X75.483886 Z6.592082
  X75.499495
  X75.515104 Z6.591919
  X75.530713
  X75.546323
  X75.561932 Z6.591675
  X75.577541
  X75.593150 Z6.591511
  X75.608759
  X75.624369 Z6.591347
  X75.639978
  X75.655587
  X75.671196 Z6.591100
  X75.686806
  X75.702415 Z6.590935
  X75.718024
  X75.733633
  X75.749242 Z6.590686
  X75.764852
  X75.780461 Z6.590519
  X75.796070
  X75.811679
  X75.827288 Z6.590268
  X75.842898
  X75.858507 Z6.590100
  X75.874116
  X75.889725 Z6.589931
  X75.905335 Z6.589740
  X75.920944 Z6.589485
  X75.936553 Z6.589229
  X75.952162 Z6.588972
  X75.967771 Z6.588714
  X75.983381 Z6.588454
  X75.998990 Z6.588193
  X76.014599 Z6.587931
  X76.030208 Z6.587668
  X76.045817 Z6.587404
  X76.061427 Z6.587138
  X76.077036 Z6.586871
  X76.092645 Z6.586603
  X76.108254 Z6.586334
  X76.123864 Z6.586064
  X76.139473 Z6.585792
  X76.155082 Z6.585519
  X76.170691 Z6.585245
  X76.186300 Z6.584970
  X76.201910 Z6.584694
  X76.217519 Z6.584416
  X76.233128 Z6.584137
  X76.248737 Z6.583857
  X76.264347 Z6.583575
  X76.279956 Z6.583293
  X76.295565 Z6.583009
  X76.311174 Z6.582724
  X76.326783 Z6.582437
  X76.342393 Z6.582150
  X76.358002 Z6.581861
  X76.373611 Z6.581571
  X76.389220 Z6.581280
  X76.404829 Z6.580988
  X76.420439 Z6.580694
  X76.436048 Z6.580399
  X76.451657 Z6.580103
  X76.467266 Z6.579805
  X76.482876 Z6.579507
  X76.498485 Z6.579207
  X76.514094 Z6.578906
  X76.529703 Z6.578604
  X76.545312 Z6.578300
  X76.560922 Z6.577995
  X76.576531 Z6.577689
  X76.592140 Z6.577382
  X76.607749 Z6.577073
  X76.623358 Z6.576763
  X76.638968 Z6.576452
  X76.654577 Z6.576140
  X76.670186 Z6.575826
  X76.685795 Z6.575512
  X76.701405 Z6.575195
  X76.717014 Z6.574878
  X76.732623 Z6.574559
  X76.748232 Z6.574240
  X76.763841 Z6.573919
  X76.779451 Z6.573596
  X76.795060 Z6.573246
  X76.810669 Z6.572724
  X76.826278 Z6.572179
  X76.841888 Z6.571631
  X76.857497 Z6.571079
  X76.873106 Z6.570523
  X76.888715 Z6.569964
  X76.904324 Z6.569402
  X76.919934 Z6.568835
  X76.935543 Z6.568266
  X76.951152 Z6.567692
  X76.966761 Z6.567116
  X76.982370 Z6.566535
  X76.997980 Z6.565951
  X77.013589 Z6.565364
  X77.029198 Z6.564773
  X77.044807 Z6.564178
  X77.060417 Z6.563579
  X77.076026 Z6.562977
  X77.091635 Z6.562372
  X77.107244 Z6.561763
  X77.122853 Z6.561150
  X77.138463 Z6.560533
  X77.154072 Z6.559913
  X77.169681 Z6.559289
  X77.185290 Z6.558662
  X77.200899 Z6.558031
  X77.216509 Z6.557396
  X77.232118 Z6.556758
  X77.247727 Z6.556115
  X77.263336 Z6.555470
  X77.278946 Z6.554820
  X77.294555 Z6.554167
  X77.310164 Z6.553510
  X77.325773 Z6.552849
  X77.341382 Z6.552185
  X77.356992 Z6.551516
  X77.372601 Z6.550844
  X77.388210 Z6.550169
  X77.403819 Z6.549489
  X77.419429 Z6.548806
  X77.435038 Z6.548119
  X77.450647 Z6.547428
  X77.466256 Z6.546734
  X77.481865 Z6.546035
  X77.497475 Z6.545333
  X77.513084 Z6.544627
  X77.528693 Z6.543917
  X77.544302 Z6.543203
  X77.559911 Z6.542485
  X77.575521 Z6.541764
  X77.591130 Z6.541039
  X77.606739 Z6.540309
  X77.622348 Z6.539576
  X77.637958 Z6.538839
  X77.653567 Z6.538098
  X77.669176 Z6.537353
  X77.684785 Z6.536605
  X77.700394 Z6.535814
  X77.716004 Z6.534805
  X77.731613 Z6.533739
  X77.747222 Z6.532665
  X77.762831 Z6.531584
  X77.778440 Z6.530495
  X77.794050 Z6.529397
  X77.809659 Z6.528292
  X77.825268 Z6.527179
  X77.840877 Z6.526058
  X77.856487 Z6.524930
  X77.872096 Z6.523793
  X77.887705 Z6.522648
  X77.903314 Z6.521495
  X77.918923 Z6.520334
  X77.934533 Z6.519165
  X77.950142 Z6.517988
  X77.965751 Z6.516802
  X77.981360 Z6.515609
  X77.996970 Z6.514407
  X78.012579 Z6.513197
  X78.028188 Z6.511978
  X78.043797 Z6.510752
  X78.059406 Z6.509516
  X78.075016 Z6.508273
  X78.090625 Z6.507021
  X78.106234 Z6.505760
  X78.121843 Z6.504491
  X78.137452 Z6.503214
  X78.153062 Z6.501928
  X78.168671 Z6.500633
  X78.184280 Z6.499330
F1193.805667	; set feedrate
G1 X78.199889 Z6.498017
F1185.959400	; set feedrate
G1 X78.215499 Z6.496697
F1178.181954	; set feedrate
G1 X78.231108 Z6.495367
F1170.472232	; set feedrate
G1 X78.246717 Z6.494028
F1162.829156	; set feedrate
G1 X78.262326 Z6.492681
F1155.251672	; set feedrate
G1 X78.277935 Z6.491325
F1147.738743	; set feedrate
G1 X78.293545 Z6.489960
F1140.289355	; set feedrate
G1 X78.309154 Z6.488585
F1132.902512	; set feedrate
G1 X78.324763 Z6.487202
F1125.577237	; set feedrate
G1 X78.340372 Z6.485810
F1118.312573	; set feedrate
G1 X78.355981 Z6.484409
F1111.107579	; set feedrate
G1 X78.371591 Z6.482998
F1103.961333	; set feedrate
G1 X78.387200 Z6.481578
F1096.872928	; set feedrate
G1 X78.402809 Z6.480149
F1089.841478	; set feedrate
G1 X78.418418 Z6.478711
F1082.866109	; set feedrate
G1 X78.434028 Z6.477263
F1075.945965	; set feedrate
G1 X78.449637 Z6.475806
F1069.080205	; set feedrate
G1 X78.465246 Z6.474340
F1062.268004	; set feedrate
G1 X78.480855 Z6.472864
F1055.508550	; set feedrate
G1 X78.496464 Z6.471378
F1048.801048	; set feedrate
G1 X78.512074 Z6.469883
F1042.144714	; set feedrate
G1 X78.527683 Z6.468378
F1035.538781	; set feedrate
G1 X78.543292 Z6.466864
F1028.982493	; set feedrate
G1 X78.558901 Z6.465340
F1022.475108	; set feedrate
G1 X78.574511 Z6.463806
F1016.015897	; set feedrate
G1 X78.590120 Z6.462262
F1009.604143	; set feedrate
G1 X78.605729 Z6.460708
F925.632700	; set feedrate
G1 X78.621338 Z6.459012
F799.179809	; set feedrate
G1 X78.636947 Z6.457043
F772.810627	; set feedrate
G1 X78.652557 Z6.455006
F766.629508	; set feedrate
G1 X78.668166 Z6.452953
F760.504387	; set feedrate
G1 X78.683775 Z6.450882
F754.434217	; set feedrate
G1 X78.699384 Z6.448795
F748.417973	; set feedrate
G1 X78.714993 Z6.446690
F742.454652	; set feedrate
G1 X78.730603 Z6.444569
F736.543268	; set feedrate
G1 X78.746212 Z6.442430
F730.682860	; set feedrate
G1 X78.761821 Z6.440273
F724.872481	; set feedrate
G1 X78.777430 Z6.438099
F719.111207	; set feedrate
G1 X78.793040 Z6.435907
F713.398129	; set feedrate
G1 X78.808649 Z6.433697
F707.732359	; set feedrate
G1 X78.824258 Z6.431469
F702.113023	; set feedrate
G1 X78.839867 Z6.429223
F696.539266	; set feedrate
G1 X78.855476 Z6.426959
F691.010247	; set feedrate
G1 X78.871086 Z6.424676
F685.525142	; set feedrate
G1 X78.886695 Z6.422374
F680.083142	; set feedrate
G1 X78.902304 Z6.420054
F674.683452	; set feedrate
G1 X78.917913 Z6.417715
F669.325293	; set feedrate
G1 X78.933522 Z6.415356
F664.007899	; set feedrate
G1 X78.949132 Z6.412978
F658.730516	; set feedrate
G1 X78.964741 Z6.410581
F653.492405	; set feedrate
G1 X78.980350 Z6.408164
F648.292840	; set feedrate
G1 X78.995959 Z6.405727
F643.131104	; set feedrate
G1 X79.011569 Z6.403270
F638.006497	; set feedrate
G1 X79.027178 Z6.400793
F632.918326	; set feedrate
G1 X79.042787 Z6.398295
F627.865911	; set feedrate
G1 X79.058396 Z6.395777
F622.848584	; set feedrate
G1 X79.074005 Z6.393238
F617.865685	; set feedrate
G1 X79.089615 Z6.390678
F612.916565	; set feedrate
G1 X79.105224 Z6.388096
F608.000587	; set feedrate
G1 X79.120833 Z6.385494
F603.117121	; set feedrate
G1 X79.136442 Z6.382869
F598.265546	; set feedrate
G1 X79.152052 Z6.380223
F593.445252	; set feedrate
G1 X79.167661 Z6.377555
F588.655636	; set feedrate
G1 X79.183270 Z6.374864
F583.896104	; set feedrate
G1 X79.198879 Z6.372150
F579.166070	; set feedrate
G1 X79.214488 Z6.369414
F574.464955	; set feedrate
G1 X79.230098 Z6.366655
F569.792187	; set feedrate
G1 X79.245707 Z6.363872
F565.147203	; set feedrate
G1 X79.261316 Z6.361066
F560.529447	; set feedrate
G1 X79.276925 Z6.358236
F555.938366	; set feedrate
G1 X79.292534 Z6.355382
F551.373418	; set feedrate
G1 X79.308144 Z6.352503
F546.834063	; set feedrate
G1 X79.323753 Z6.349599
F542.319771	; set feedrate
G1 X79.339362 Z6.346671
F537.830013	; set feedrate
G1 X79.354971 Z6.343717
F533.364269	; set feedrate
G1 X79.370581 Z6.340738
F528.922022	; set feedrate
G1 X79.386190 Z6.337732
F524.502760	; set feedrate
G1 X79.401799 Z6.334701
F520.105977	; set feedrate
G1 X79.417408 Z6.331643
F515.731169	; set feedrate
G1 X79.433017 Z6.328557
F511.377837	; set feedrate
G1 X79.448627 Z6.325445
F507.045487	; set feedrate
G1 X79.464236 Z6.322305
F502.733626	; set feedrate
G1 X79.479845 Z6.319137
F498.441766	; set feedrate
G1 X79.495454 Z6.315940
F494.169422	; set feedrate
G1 X79.511063 Z6.312715
F489.916111	; set feedrate
G1 X79.526673 Z6.309460
F479.644387	; set feedrate
G1 X79.542282 Z6.306133
F438.338454	; set feedrate
G1 X79.557891 Z6.302475
F401.588878	; set feedrate
G1 X79.573500 Z6.298462
F391.114813	; set feedrate
G1 X79.589110 Z6.294334
F387.003150	; set feedrate
G1 X79.604719 Z6.290159
F382.911581	; set feedrate
G1 X79.620328 Z6.285936
F378.839432	; set feedrate
G1 X79.635937 Z6.281664
F374.786031	; set feedrate
G1 X79.651546 Z6.277342
F370.750707	; set feedrate
G1 X79.667156 Z6.272970
F366.732789	; set feedrate
G1 X79.682765 Z6.268546
F362.731606	; set feedrate
G1 X79.698374 Z6.264069
F358.746487	; set feedrate
G1 X79.713983 Z6.259539
F354.776759	; set feedrate
G1 X79.729593 Z6.254953
F350.821744	; set feedrate
G1 X79.745202 Z6.250311
F346.880765	; set feedrate
G1 X79.760811 Z6.245612
F342.953139	; set feedrate
G1 X79.776420 Z6.240854
F339.038178	; set feedrate
G1 X79.792029 Z6.236035
F335.135190	; set feedrate
G1 X79.807639 Z6.231155
F331.243475	; set feedrate
G1 X79.823248 Z6.226212
F327.362327	; set feedrate
G1 X79.838857 Z6.221205
F323.491031	; set feedrate
G1 X79.854466 Z6.216131
F319.628863	; set feedrate
G1 X79.870075 Z6.210990
F315.775089	; set feedrate
G1 X79.885685 Z6.205778
F311.928961	; set feedrate
G1 X79.901294 Z6.200495
F308.089721	; set feedrate
G1 X79.916903 Z6.195139
F304.256596	; set feedrate
G1 X79.932512 Z6.189707
F300.428797	; set feedrate
G1 X79.948122 Z6.184197
F296.605517	; set feedrate
G1 X79.963731 Z6.178607
F292.785931	; set feedrate
G1 X79.979340 Z6.172935
F288.969194	; set feedrate
G1 X79.994949 Z6.167177
F285.154438	; set feedrate
G1 X80.010558 Z6.161332
F281.340769	; set feedrate
G1 X80.026168 Z6.155396
F277.527268	; set feedrate
G1 X80.041777 Z6.149367
F273.712986	; set feedrate
G1 X80.057386 Z6.143241
F269.896941	; set feedrate
G1 X80.072995 Z6.137014
F266.078117	; set feedrate
G1 X80.088604 Z6.130684
F262.255460	; set feedrate
G1 X80.104214 Z6.124245
F258.427874	; set feedrate
G1 X80.119823 Z6.117695
F254.594216	; set feedrate
G1 X80.135432 Z6.111028
F250.753295	; set feedrate
G1 X80.151041 Z6.104240
F246.903864	; set feedrate
G1 X80.166651 Z6.097325
F243.044618	; set feedrate
G1 X80.182260 Z6.090279
F239.174184	; set feedrate
G1 X80.197869 Z6.083095
F235.291117	; set feedrate
G1 X80.213478 Z6.075766
F231.393894	; set feedrate
G1 X80.229087 Z6.068285
F227.480901	; set feedrate
G1 X80.244697 Z6.060646
F223.550431	; set feedrate
G1 X80.260306 Z6.052839
F219.600666	; set feedrate
G1 X80.275915 Z6.044855
F215.629669	; set feedrate
G1 X80.291524 Z6.036684
F211.635371	; set feedrate
G1 X80.307134 Z6.028316
F207.615553	; set feedrate
G1 X80.322743 Z6.019737
F203.567830	; set feedrate
G1 X80.338352 Z6.010933
F199.489631	; set feedrate
G1 X80.353961 Z6.001891
F195.378172	; set feedrate
G1 X80.369570 Z5.992591
F191.230431	; set feedrate
G1 X80.385180 Z5.983015
F187.043114	; set feedrate
G1 X80.400789 Z5.973140
F182.812617	; set feedrate
G1 X80.416398 Z5.962940
F178.534980	; set feedrate
G1 X80.432007 Z5.952386
F174.205829	; set feedrate
G1 X80.447616 Z5.941444
F169.820316	; set feedrate
G1 X80.463226 Z5.930071
F165.373028	; set feedrate
G1 X80.478835 Z5.918220
F158.485825	; set feedrate
G1 X80.494444 Z5.905525
F148.807177	; set feedrate
G1 X80.510053 Z5.891360
F140.207465	; set feedrate
G1 X80.525663 Z5.875477
F134.121568	; set feedrate
G1 X80.541272 Z5.858013
F129.615857	; set feedrate
G1 X80.556881 Z5.839085
F125.010451	; set feedrate
G1 X80.572490 Z5.818277
F120.290638	; set feedrate
G1 X80.588099 Z5.794930
F115.436157	; set feedrate
G1 X80.603709 Z5.767862
F110.412009	; set feedrate
G1 X80.619318 Z5.734514
F105.099609	; set feedrate
G1 X80.634927 Z5.686249
F100.000376	; set feedrate
G1 X80.650536 Z-0.002199
F1200	; set feedrate
G1 X99.724998
  Y55.459275
  X81.899274
  X81.883664 Z5.686158
  X81.868055 Z5.739999
  X81.852446 Z5.776353
  X81.836837 Z5.805664
  X81.821227 Z5.830857
  X81.805618 Z5.853258
  X81.790009 Z5.873602
  X81.774400 Z5.892347
  X81.758791 Z5.909800
  X81.743181 Z5.926180
  X81.727572 Z5.941652
  X81.711963 Z5.956339
  X81.696354 Z5.970339
  X81.680745 Z5.983732
  X81.665135 Z5.996581
  X81.649526 Z6.008940
  X81.633917 Z6.020855
  X81.618308 Z6.032364
  X81.602698 Z6.043499
  X81.587089 Z6.054289
  X81.571480 Z6.064759
  X81.555871 Z6.074932
  X81.540262 Z6.084826
  X81.524652 Z6.094459
  X81.509043 Z6.103847
  X81.493434 Z6.113003
  X81.477825 Z6.121940
  X81.462216 Z6.130669
  X81.446606 Z6.139202
  X81.430997 Z6.147546
  X81.415388 Z6.155713
  X81.399779 Z6.163708
  X81.384169 Z6.171540
  X81.368560 Z6.179215
  X81.352951 Z6.186546
  X81.337342 Z6.193360
  X81.321733 Z6.199729
  X81.306123 Z6.205952
  X81.290514 Z6.212076
  X81.274905 Z6.218104
  X81.259296 Z6.224039
  X81.243686 Z6.229883
  X81.228077 Z6.235639
  X81.212468 Z6.241310
  X81.196859 Z6.246898
  X81.181250 Z6.252404
  X81.165640 Z6.257832
  X81.150031 Z6.263183
  X81.134422 Z6.268459
  X81.118813 Z6.273662
  X81.103204 Z6.278794
  X81.087594 Z6.283855
  X81.071985 Z6.288849
  X81.056376 Z6.293776
  X81.040767 Z6.298637
  X81.025157 Z6.303435
  X81.009548 Z6.308170
  X80.993939 Z6.312844
  X80.978330 Z6.317458
  X80.962721 Z6.322013
  X80.947111 Z6.326510
  X80.931502 Z6.330951
  X80.915893 Z6.335336
  X80.900284 Z6.339666
  X80.884675 Z6.343943
  X80.869065 Z6.348168
  X80.853456 Z6.352340
  X80.837847 Z6.356462
  X80.822238 Z6.360534
  X80.806628 Z6.364556
  X80.791019 Z6.368531
  X80.775410 Z6.372457
  X80.759801 Z6.376337
  X80.744192 Z6.380170
  X80.728582 Z6.383958
  X80.712973 Z6.387701
  X80.697364 Z6.391400
  X80.681755 Z6.395056
  X80.666145 Z6.398669
  X80.650536 Z6.402239
  X80.634927 Z6.405767
  X80.619318 Z6.409255
  X80.603709 Z6.412701
  X80.588099 Z6.416108
  X80.572490 Z6.419475
  X80.556881 Z6.422802
  X80.541272 Z6.426092
  X80.525663 Z6.429343
  X80.510053 Z6.432556
  X80.494444 Z6.435732
  X80.478835 Z6.438871
  X80.463226 Z6.441974
  X80.447616 Z6.445041
  X80.432007 Z6.448072
  X80.416398 Z6.451068
  X80.400789 Z6.454016
  X80.385180 Z6.456726
  X80.369570 Z6.459201
  X80.353961 Z6.461639
  X80.338352 Z6.464052
  X80.322743 Z6.466441
  X80.307134 Z6.468807
  X80.291524 Z6.471148
  X80.275915 Z6.473467
  X80.260306 Z6.475762
  X80.244697 Z6.478034
  X80.229087 Z6.480283
  X80.213478 Z6.482510
  X80.197869 Z6.484714
  X80.182260 Z6.486896
  X80.166651 Z6.489055
  X80.151041 Z6.491193
  X80.135432 Z6.493309
  X80.119823 Z6.495403
  X80.104214 Z6.497476
  X80.088604 Z6.499527
  X80.072995 Z6.501557
  X80.057386 Z6.503566
  X80.041777 Z6.505554
  X80.026168 Z6.507521
  X80.010558 Z6.509468
  X79.994949 Z6.511394
  X79.979340 Z6.513299
  X79.963731 Z6.515185
  X79.948122 Z6.517050
  X79.932512 Z6.518895
  X79.916903 Z6.520721
  X79.901294 Z6.522526
  X79.885685 Z6.524312
  X79.870075 Z6.526079
  X79.854466 Z6.527826
  X79.838857 Z6.529554
  X79.823248 Z6.531262
  X79.807639 Z6.532952
  X79.792029 Z6.534622
  X79.776420 Z6.536274
  X79.760811 Z6.537907
  X79.745202 Z6.539521
  X79.729593 Z6.541116
  X79.713983 Z6.542693
  X79.698374 Z6.544252
  X79.682765 Z6.545793
  X79.667156 Z6.547315
  X79.651546 Z6.548819
  X79.635937 Z6.550305
  X79.620328 Z6.551773
  X79.604719 Z6.553223
  X79.589110 Z6.554656
  X79.573500 Z6.556071
  X79.557891 Z6.557468
  X79.542282 Z6.558848
  X79.526673 Z6.560210
  X79.511063 Z6.561555
  X79.495454 Z6.562882
  X79.479845 Z6.564193
  X79.464236 Z6.565481
  X79.448627 Z6.566596
  X79.433017 Z6.567632
  X79.417408 Z6.568658
  X79.401799 Z6.569671
  X79.386190 Z6.570674
  X79.370581 Z6.571665
  X79.354971 Z6.572645
  X79.339362 Z6.573613
  X79.323753 Z6.574571
  X79.308144 Z6.575517
  X79.292534 Z6.576452
  X79.276925 Z6.577376
  X79.261316 Z6.578289
  X79.245707 Z6.579190
  X79.230098 Z6.580081
  X79.214488 Z6.580961
  X79.198879 Z6.581829
  X79.183270 Z6.582687
  X79.167661 Z6.583534
  X79.152052 Z6.584370
  X79.136442 Z6.585195
  X79.120833 Z6.586009
  X79.105224 Z6.586813
  X79.089615 Z6.587605
  X79.074005 Z6.588387
  X79.058396 Z6.589159
  X79.042787 Z6.589919
  X79.027178 Z6.590669
  X79.011569 Z6.591408
  X78.995959 Z6.592137
  X78.980350 Z6.592855
  X78.964741 Z6.593562
  X78.949132 Z6.594259
  X78.933522 Z6.594945
  X78.917913 Z6.595621
  X78.902304 Z6.596287
  X78.886695 Z6.596942
  X78.871086 Z6.597586
  X78.855476 Z6.598220
  X78.839867 Z6.598844
  X78.824258 Z6.599457
  X78.808649 Z6.600060
  X78.793040 Z6.600652
  X78.777430 Z6.601234
  X78.761821 Z6.601806
  X78.746212 Z6.602368
  X78.730603 Z6.602919
  X78.714993 Z6.603460
  X78.699384 Z6.603991
  X78.683775 Z6.604512
  X78.668166 Z6.605022
  X78.652557 Z6.605522
  X78.636947 Z6.606012
  X78.621338 Z6.606492
  X78.605729 Z6.606962
  X78.590120 Z6.607422
  X78.574511 Z6.607871
  X78.558901 Z6.608311
  X78.543292 Z6.608723
  X78.527683 Z6.609051
  X78.512074 Z6.609373
  X78.496464 Z6.609689
  X78.480855 Z6.609999
  X78.465246 Z6.610303
  X78.449637 Z6.610600
  X78.434028 Z6.610892
  X78.418418 Z6.611177
  X78.402809 Z6.611456
  X78.387200 Z6.611730
  X78.371591 Z6.611997
  X78.355981 Z6.612258
  X78.340372 Z6.612513
  X78.324763 Z6.612762
  X78.309154 Z6.613005
  X78.293545 Z6.613242
  X78.277935 Z6.613473
  X78.262326 Z6.613697
  X78.246717 Z6.613916
  X78.231108 Z6.614129
  X78.215499 Z6.614336
  X78.199889 Z6.614536
  X78.184280 Z6.614731
  X78.168671 Z6.614919
  X78.153062 Z6.615102
  X78.137452 Z6.615279
  X78.121843
  X78.106234 Z6.615614
  X78.090625 Z6.615772
  X78.075016
  X78.059406 Z6.616072
  X78.043797
  X78.028188 Z6.616347
  X78.012579 Z6.616476
  X77.996970
  X77.981360 Z6.616715
  X77.965751
  X77.950142 Z6.616930
  X77.934533
  X77.918923 Z6.617122
  X77.903314
  X77.887705 Z6.617289
  X77.872096
  X77.856487
  X77.840877 Z6.617496
  X77.825268
  X77.809659
  X77.794050
  X77.778440 Z6.617688
  X77.762831
  X77.747222
  X77.731613
  X77.716004
  X77.700394
  X77.684785
  X77.669176
  X72.330824
  X72.315215
  X72.299606
  X72.283996
  X72.268387
  X72.252778
  X72.237169
  X72.221560
  X72.205950
  X72.190341
  X72.174732
  X72.159123 Z6.617496
  X72.143513
  X72.127904
  X72.112295 Z6.617289
  X72.096686
  X72.081077 Z6.617122
  X72.065467
  X72.049858 Z6.616930
  X72.034249
  X72.018640 Z6.616715
  X72.003030
  X71.987421 Z6.616476
  X71.971812 Z6.616347
  X71.956203
  X71.940594 Z6.616072
  X71.924984 Z6.615925
  X71.909375
  X71.893766 Z6.615614
  X71.878157 Z6.615449
  X71.862548
  X71.846938 Z6.615102
  X71.831329 Z6.614919
  X71.815720 Z6.614731
  X71.800111 Z6.614536
  X71.784501 Z6.614336
  X71.768892 Z6.614129
  X71.753283 Z6.613916
  X71.737674 Z6.613697
  X71.722065 Z6.613473
  X71.706455 Z6.613242
  X71.690846 Z6.613005
  X71.675237 Z6.612762
  X71.659628 Z6.612513
  X71.644019 Z6.612258
  X71.628409 Z6.611997
  X71.612800 Z6.611730
  X71.597191 Z6.611456
  X71.581582 Z6.611177
  X71.565972 Z6.610892
  X71.550363 Z6.610600
  X71.534754 Z6.610303
  X71.519145 Z6.609999
  X71.503536 Z6.609689
  X71.487926 Z6.609373
  X71.472317 Z6.609051
  X71.456708 Z6.608723
  X71.441099 Z6.608311
  X71.425489 Z6.607871
  X71.409880 Z6.607422
  X71.394271 Z6.606962
  X71.378662 Z6.606492
  X71.363053 Z6.606012
  X71.347443 Z6.605522
  X71.331834 Z6.605022
  X71.316225 Z6.604512
  X71.300616 Z6.603991
  X71.285007 Z6.603460
  X71.269397 Z6.602919
  X71.253788 Z6.602368
  X71.238179 Z6.601806
  X71.222570 Z6.601234
  X71.206960 Z6.600652
  X71.191351 Z6.600060
  X71.175742 Z6.599457
  X71.160133 Z6.598844
  X71.144524 Z6.598220
  X71.128914 Z6.597586
  X71.113305 Z6.596942
  X71.097696 Z6.596287
  X71.082087 Z6.595621
  X71.066478 Z6.594945
  X71.050868 Z6.594259
  X71.035259 Z6.593562
  X71.019650 Z6.592855
  X71.004041 Z6.592137
  X70.988431 Z6.591408
  X70.972822 Z6.590669
  X70.957213 Z6.589919
  X70.941604 Z6.589159
  X70.925995 Z6.588387
  X70.910385 Z6.587605
  X70.894776 Z6.586813
  X70.879167 Z6.586009
  X70.863558 Z6.585195
  X70.847948 Z6.584370
  X70.832339 Z6.583534
  X70.816730 Z6.582687
  X70.801121 Z6.581829
  X70.785512 Z6.580961
  X70.769902 Z6.580081
  X70.754293 Z6.579190
  X70.738684 Z6.578289
  X70.723075 Z6.577376
  X70.707466 Z6.576452
  X70.691856 Z6.575517
  X70.676247 Z6.574571
  X70.660638 Z6.573613
  X70.645029 Z6.572645
  X70.629419 Z6.571665
  X70.613810 Z6.570674
  X70.598201 Z6.569671
  X70.582592 Z6.568658
  X70.566983 Z6.567632
  X70.551373 Z6.566596
  X70.535764 Z6.565481
  X70.520155 Z6.564193
F1195.443598	; set feedrate
G1 X70.504546 Z6.562882
F1180.035245	; set feedrate
G1 X70.488937 Z6.561555
F1164.960564	; set feedrate
G1 X70.473327 Z6.560210
F1150.208129	; set feedrate
G1 X70.457718 Z6.558848
F1135.767020	; set feedrate
G1 X70.442109 Z6.557468
F1121.626805	; set feedrate
G1 X70.426500 Z6.556071
F1107.777504	; set feedrate
G1 X70.410890 Z6.554656
F1094.209571	; set feedrate
G1 X70.395281 Z6.553223
F1080.913869	; set feedrate
G1 X70.379672 Z6.551773
F1067.881644	; set feedrate
G1 X70.364063 Z6.550305
F1055.104512	; set feedrate
G1 X70.348454 Z6.548819
F1042.574435	; set feedrate
G1 X70.332844 Z6.547315
F1030.283704	; set feedrate
G1 X70.317235 Z6.545793
F1018.224923	; set feedrate
G1 X70.301626 Z6.544252
F1006.390992	; set feedrate
G1 X70.286017 Z6.542693
F994.775094	; set feedrate
G1 X70.270407 Z6.541116
F983.370679	; set feedrate
G1 X70.254798 Z6.539521
F972.171452	; set feedrate
G1 X70.239189 Z6.537907
F961.171362	; set feedrate
G1 X70.223580 Z6.536274
F950.364587	; set feedrate
G1 X70.207971 Z6.534622
F939.745524	; set feedrate
G1 X70.192361 Z6.532952
F929.308783	; set feedrate
G1 X70.176752 Z6.531262
F919.049170	; set feedrate
G1 X70.161143 Z6.529554
F908.961683	; set feedrate
G1 X70.145534 Z6.527826
F899.041501	; set feedrate
G1 X70.129925 Z6.526079
F889.283978	; set feedrate
G1 X70.114315 Z6.524312
F879.684630	; set feedrate
G1 X70.098706 Z6.522526
F870.239136	; set feedrate
G1 X70.083097 Z6.520721
F860.943321	; set feedrate
G1 X70.067488 Z6.518895
F851.793158	; set feedrate
G1 X70.051878 Z6.517050
F842.784757	; set feedrate
G1 X70.036269 Z6.515185
F833.914361	; set feedrate
G1 X70.020660 Z6.513299
F825.178336	; set feedrate
G1 X70.005051 Z6.511394
F816.573174	; set feedrate
G1 X69.989442 Z6.509468
F808.095480	; set feedrate
G1 X69.973832 Z6.507521
F799.741970	; set feedrate
G1 X69.958223 Z6.505554
F791.509469	; set feedrate
G1 X69.942614 Z6.503566
F783.394901	; set feedrate
G1 X69.927005 Z6.501557
F775.395289	; set feedrate
G1 X69.911396 Z6.499527
F767.507751	; set feedrate
G1 X69.895786 Z6.497476
F759.729494	; set feedrate
G1 X69.880177 Z6.495403
F752.057812	; set feedrate
G1 X69.864568 Z6.493309
F744.490081	; set feedrate
G1 X69.848959 Z6.491193
F737.023759	; set feedrate
G1 X69.833349 Z6.489055
F729.656378	; set feedrate
G1 X69.817740 Z6.486896
F722.385546	; set feedrate
G1 X69.802131 Z6.484714
F715.208939	; set feedrate
G1 X69.786522 Z6.482510
F708.124305	; set feedrate
G1 X69.770913 Z6.480283
F701.129454	; set feedrate
G1 X69.755303 Z6.478034
F694.222260	; set feedrate
G1 X69.739694 Z6.475762
F687.400658	; set feedrate
G1 X69.724085 Z6.473467
F680.662641	; set feedrate
G1 X69.708476 Z6.471148
F674.006258	; set feedrate
G1 X69.692866 Z6.468807
F667.429613	; set feedrate
G1 X69.677257 Z6.466441
F660.930860	; set feedrate
G1 X69.661648 Z6.464052
F654.508206	; set feedrate
G1 X69.646039 Z6.461639
F648.159902	; set feedrate
G1 X69.630430 Z6.459201
F638.446703	; set feedrate
G1 X69.614820 Z6.456726
F584.623482	; set feedrate
G1 X69.599211 Z6.454016
F538.849289	; set feedrate
G1 X69.583602 Z6.451068
F530.513448	; set feedrate
G1 X69.567993 Z6.448072
F524.571099	; set feedrate
G1 X69.552384 Z6.445041
F518.704394	; set feedrate
G1 X69.536774 Z6.441974
F512.911357	; set feedrate
G1 X69.521165 Z6.438871
F507.190071	; set feedrate
G1 X69.505556 Z6.435732
F501.538670	; set feedrate
G1 X69.489947 Z6.432556
F495.955343	; set feedrate
G1 X69.474337 Z6.429343
F490.438332	; set feedrate
G1 X69.458728 Z6.426092
F484.985922	; set feedrate
G1 X69.443119 Z6.422802
F479.596450	; set feedrate
G1 X69.427510 Z6.419475
F474.268294	; set feedrate
G1 X69.411901 Z6.416108
F468.999876	; set feedrate
G1 X69.396291 Z6.412701
F463.789659	; set feedrate
G1 X69.380682 Z6.409255
F458.636145	; set feedrate
G1 X69.365073 Z6.405767
F453.537875	; set feedrate
G1 X69.349464 Z6.402239
F448.493424	; set feedrate
G1 X69.333855 Z6.398669
F443.501403	; set feedrate
G1 X69.318245 Z6.395056
F438.560456	; set feedrate
G1 X69.302636 Z6.391400
F433.669258	; set feedrate
G1 X69.287027 Z6.387701
F428.826516	; set feedrate
G1 X69.271418 Z6.383958
F424.030964	; set feedrate
G1 X69.255808 Z6.380170
F419.281365	; set feedrate
G1 X69.240199 Z6.376337
F414.576509	; set feedrate
G1 X69.224590 Z6.372457
F409.915210	; set feedrate
G1 X69.208981 Z6.368531
F405.296307	; set feedrate
G1 X69.193372 Z6.364556
F400.718663	; set feedrate
G1 X69.177762 Z6.360534
F396.181161	; set feedrate
G1 X69.162153 Z6.356462
F391.682707	; set feedrate
G1 X69.146544 Z6.352340
F387.222224	; set feedrate
G1 X69.130935 Z6.348168
F382.798658	; set feedrate
G1 X69.115325 Z6.343943
F378.410968	; set feedrate
G1 X69.099716 Z6.339666
F374.058134	; set feedrate
G1 X69.084107 Z6.335336
F369.739149	; set feedrate
G1 X69.068498 Z6.330951
F365.453022	; set feedrate
G1 X69.052889 Z6.326510
F361.198776	; set feedrate
G1 X69.037279 Z6.322013
F356.975447	; set feedrate
G1 X69.021670 Z6.317458
F352.782083	; set feedrate
G1 X69.006061 Z6.312844
F348.617741	; set feedrate
G1 X68.990452 Z6.308170
F344.481492	; set feedrate
G1 X68.974843 Z6.303435
F340.372412	; set feedrate
G1 X68.959233 Z6.298637
F336.289589	; set feedrate
G1 X68.943624 Z6.293776
F332.232115	; set feedrate
G1 X68.928015 Z6.288849
F328.199090	; set feedrate
G1 X68.912406 Z6.283855
F324.189620	; set feedrate
G1 X68.896796 Z6.278794
F320.202813	; set feedrate
G1 X68.881187 Z6.273662
F316.237781	; set feedrate
G1 X68.865578 Z6.268459
F312.293640	; set feedrate
G1 X68.849969 Z6.263183
F308.369504	; set feedrate
G1 X68.834360 Z6.257832
F304.464490	; set feedrate
G1 X68.818750 Z6.252404
F300.577711	; set feedrate
G1 X68.803141 Z6.246898
F296.708280	; set feedrate
G1 X68.787532 Z6.241310
F292.855304	; set feedrate
G1 X68.771923 Z6.235639
F289.017886	; set feedrate
G1 X68.756314 Z6.229883
F285.195123	; set feedrate
G1 X68.740704 Z6.224039
F281.386104	; set feedrate
G1 X68.725095 Z6.218104
F277.589908	; set feedrate
G1 X68.709486 Z6.212076
F273.805602	; set feedrate
G1 X68.693877 Z6.205952
F270.032242	; set feedrate
G1 X68.678267 Z6.199729
F264.694758	; set feedrate
G1 X68.662658 Z6.193360
F249.935267	; set feedrate
G1 X68.647049 Z6.186546
F235.234809	; set feedrate
G1 X68.631440 Z6.179215
F226.627730	; set feedrate
G1 X68.615831 Z6.171540
F222.986045	; set feedrate
G1 X68.600221 Z6.163708
F219.352692	; set feedrate
G1 X68.584612 Z6.155713
F215.726059	; set feedrate
G1 X68.569003 Z6.147546
F212.104819	; set feedrate
G1 X68.553394 Z6.139202
F208.487606	; set feedrate
G1 X68.537784 Z6.130669
F204.873004	; set feedrate
G1 X68.522175 Z6.121940
F201.259547	; set feedrate
G1 X68.506566 Z6.113003
F197.645708	; set feedrate
G1 X68.490957 Z6.103847
F194.029892	; set feedrate
G1 X68.475348 Z6.094459
F190.410433	; set feedrate
G1 X68.459738 Z6.084826
F186.785577	; set feedrate
G1 X68.444129 Z6.074932
F183.153479	; set feedrate
G1 X68.428520 Z6.064759
F179.512184	; set feedrate
G1 X68.412911 Z6.054289
F175.859619	; set feedrate
G1 X68.397302 Z6.043499
F172.193574	; set feedrate
G1 X68.381692 Z6.032364
F168.511687	; set feedrate
G1 X68.366083 Z6.020855
F164.811418	; set feedrate
G1 X68.350474 Z6.008940
F161.090027	; set feedrate
G1 X68.334865 Z5.996581
F157.344545	; set feedrate
G1 X68.319255 Z5.983732
F153.571736	; set feedrate
G1 X68.303646 Z5.970339
F149.768056	; set feedrate
G1 X68.288037 Z5.956339
F145.929602	; set feedrate
G1 X68.272428 Z5.941652
F142.052040	; set feedrate
G1 X68.256819 Z5.926180
F138.130528	; set feedrate
G1 X68.241209 Z5.909800
F134.159597	; set feedrate
G1 X68.225600 Z5.892347
F130.132997	; set feedrate
G1 X68.209991 Z5.873602
F126.043456	; set feedrate
G1 X68.194382 Z5.853258
F121.882267	; set feedrate
G1 X68.178773 Z5.830857
F117.638448	; set feedrate
G1 X68.163163 Z5.805664
F113.296504	; set feedrate
G1 X68.147554 Z5.776353
F108.827724	; set feedrate
G1 X68.131945 Z5.739999
F104.117702	; set feedrate
G1 X68.116336 Z5.686158
F100.000376	; set feedrate
G1 X68.100726 Z-0.002199
F1200	; set feedrate
G1 X50.275002
  Y55.858066
  X67.054909
  X67.070518 Z5.681338
  X67.086127 Z5.742707
  X67.101737 Z5.782418
  X67.117346 Z5.814088
  X67.132955 Z5.841164
  X67.148564 Z5.865159
  X67.164173 Z5.886898
  X67.179783 Z5.906891
  X67.195392 Z5.925478
  X67.211001 Z5.942901
  X67.226610 Z5.959337
  X67.242220 Z5.974924
  X67.257829 Z5.989767
  X67.273438 Z6.003953
  X67.289047 Z6.017552
  X67.304656 Z6.030621
  X67.320266 Z6.043209
  X67.335875 Z6.055358
  X67.351484 Z6.067104
  X67.367093 Z6.078477
  X67.382702 Z6.089505
  X67.398312 Z6.100210
  X67.413921 Z6.110615
  X67.429530 Z6.120737
  X67.445139 Z6.130594
  X67.460749 Z6.140200
  X67.476358 Z6.149569
  X67.491967 Z6.158713
  X67.507576 Z6.167644
  X67.523185 Z6.176372
  X67.538795 Z6.184906
  X67.554404 Z6.193255
  X67.570013 Z6.201426
  X67.585622 Z6.209428
  X67.601232 Z6.217266
  X67.616841 Z6.224948
  X67.632450 Z6.232479
  X67.648059 Z6.239864
  X67.663668 Z6.247109
  X67.679278 Z6.254218
  X67.694887 Z6.261197
  X67.710496 Z6.268048
  X67.726105 Z6.274777
  X67.741714 Z6.281387
  X67.757324 Z6.287881
  X67.772933 Z6.294262
  X67.788542 Z6.300535
  X67.804151 Z6.306682
  X67.819761 Z6.312484
  X67.835370 Z6.317895
  X67.850979 Z6.323114
  X67.866588 Z6.328258
  X67.882197 Z6.333328
  X67.897807 Z6.338325
  X67.913416 Z6.343251
  X67.929025 Z6.348108
  X67.944634 Z6.352896
  X67.960243 Z6.357618
  X67.975853 Z6.362274
  X67.991462 Z6.366865
  X68.007071 Z6.371393
  X68.022680 Z6.375859
  X68.038290 Z6.380264
  X68.053899 Z6.384609
  X68.069508 Z6.388895
  X68.085117 Z6.393123
  X68.100726 Z6.397294
  X68.116336 Z6.401409
  X68.131945 Z6.405469
  X68.147554 Z6.409475
  X68.163163 Z6.413426
  X68.178773 Z6.417325
  X68.194382 Z6.421172
  X68.209991 Z6.424968
  X68.225600 Z6.428713
  X68.241209 Z6.432409
  X68.256819 Z6.436055
  X68.272428 Z6.439653
  X68.288037 Z6.443202
  X68.303646 Z6.446705
  X68.319255 Z6.450161
  X68.334865 Z6.453570
  X68.350474 Z6.456935
  X68.366083 Z6.460254
  X68.381692 Z6.463529
  X68.397302 Z6.466760
  X68.412911 Z6.469947
  X68.428520 Z6.473092
  X68.444129 Z6.476194
  X68.459738 Z6.479254
  X68.475348 Z6.482272
  X68.490957 Z6.485249
  X68.506566 Z6.488186
  X68.522175 Z6.491082
  X68.537784 Z6.493938
  X68.553394 Z6.496755
  X68.569003 Z6.499533
  X68.584612 Z6.502272
  X68.600221 Z6.504972
  X68.615831 Z6.507635
  X68.631440 Z6.510259
  X68.647049 Z6.512847
  X68.662658 Z6.515397
  X68.678267 Z6.517910
  X68.693877 Z6.520387
  X68.709486 Z6.522828
  X68.725095 Z6.525233
  X68.740704 Z6.527603
  X68.756314 Z6.529937
  X68.771923 Z6.532236
  X68.787532 Z6.534365
  X68.803141 Z6.536313
  X68.818750 Z6.538233
  X68.834360 Z6.540126
  X68.849969 Z6.541994
  X68.865578 Z6.543837
  X68.881187 Z6.545654
  X68.896796 Z6.547445
  X68.912406 Z6.549212
  X68.928015 Z6.550954
  X68.943624 Z6.552671
  X68.959233 Z6.554363
  X68.974843 Z6.556031
  X68.990452 Z6.557674
  X69.006061 Z6.559293
  X69.021670 Z6.560888
  X69.037279 Z6.562459
  X69.052889 Z6.564006
  X69.068498 Z6.565529
  X69.084107 Z6.567029
  X69.099716 Z6.568505
  X69.115325 Z6.569957
  X69.130935 Z6.571386
  X69.146544 Z6.572792
  X69.162153 Z6.574175
  X69.177762 Z6.575535
  X69.193372 Z6.576872
  X69.208981 Z6.578185
  X69.224590 Z6.579477
  X69.240199 Z6.580745
  X69.255808 Z6.581991
  X69.271418 Z6.583215
  X69.287027 Z6.584416
  X69.302636 Z6.585595
  X69.318245 Z6.586751
  X69.333855 Z6.587886
  X69.349464 Z6.588998
  X69.365073 Z6.590088
  X69.380682 Z6.591157
  X69.396291 Z6.592203
  X69.411901 Z6.593228
  X69.427510 Z6.594231
  X69.443119 Z6.595212
  X69.458728 Z6.596172
  X69.474337 Z6.597110
  X69.489947 Z6.598027
  X69.505556 Z6.598923
  X69.521165 Z6.599797
  X69.536774 Z6.600650
  X69.552384 Z6.601481
  X69.567993 Z6.602292
  X69.583602 Z6.603081
  X69.599211 Z6.603849
  X69.614820 Z6.604596
  X69.630430 Z6.605323
  X69.646039 Z6.606028
  X69.661648 Z6.606712
  X69.677257 Z6.607376
  X69.692866 Z6.608019
  X69.708476 Z6.608641
  X69.724085 Z6.609203
  X69.739694 Z6.609699
  X69.755303 Z6.610179
  X69.770913 Z6.610645
  X69.786522 Z6.611097
  X69.802131 Z6.611533
  X69.817740 Z6.611954
  X69.833349 Z6.612361
  X69.848959 Z6.612753
  X69.864568 Z6.613130
  X69.880177 Z6.613492
  X69.895786 Z6.613840
  X69.911396 Z6.614173
  X69.927005 Z6.614491
  X69.942614 Z6.614795
  X69.958223 Z6.615084
  X69.973832 Z6.615358
  X69.989442 Z6.615617
  X70.005051 Z6.615862
  X70.020660 Z6.616092
  X70.036269 Z6.616308
  X70.051878 Z6.616509
  X70.067488 Z6.616695
  X70.083097 Z6.616867
  X70.098706
  X70.114315 Z6.617167
  X70.129925
  X70.145534 Z6.617409
  X70.161143
  X70.176752 Z6.617592
  X70.192361
  X70.207971
  X70.223580 Z6.617758
  X70.239189
  X70.254798
  X70.270407
  X79.729593
  X79.745202
  X79.760811
  X79.776420
  X79.792029
  X79.807639
  X79.823248 Z6.617592
  X79.838857
  X79.854466 Z6.617409
  X79.870075
  X79.885685 Z6.617167
  X79.901294 Z6.617025
  X79.916903
  X79.932512 Z6.616695
  X79.948122 Z6.616509
  X79.963731 Z6.616308
  X79.979340 Z6.616092
  X79.994949 Z6.615862
  X80.010558 Z6.615617
  X80.026168 Z6.615358
  X80.041777 Z6.615084
  X80.057386 Z6.614795
  X80.072995 Z6.614491
  X80.088604 Z6.614173
  X80.104214 Z6.613840
  X80.119823 Z6.613492
  X80.135432 Z6.613130
  X80.151041 Z6.612753
  X80.166651 Z6.612361
  X80.182260 Z6.611954
  X80.197869 Z6.611533
  X80.213478 Z6.611097
  X80.229087 Z6.610645
  X80.244697 Z6.610179
  X80.260306 Z6.609699
  X80.275915 Z6.609203
  X80.291524 Z6.608641
  X80.307134 Z6.608019
  X80.322743 Z6.607376
  X80.338352 Z6.606712
  X80.353961 Z6.606028
  X80.369570 Z6.605323
  X80.385180 Z6.604596
  X80.400789 Z6.603849
  X80.416398 Z6.603081
  X80.432007 Z6.602292
  X80.447616 Z6.601481
  X80.463226 Z6.600650
  X80.478835 Z6.599797
  X80.494444 Z6.598923
  X80.510053 Z6.598027
  X80.525663 Z6.597110
  X80.541272 Z6.596172
  X80.556881 Z6.595212
  X80.572490 Z6.594231
  X80.588099 Z6.593228
  X80.603709 Z6.592203
  X80.619318 Z6.591157
  X80.634927 Z6.590088
  X80.650536 Z6.588998
  X80.666145 Z6.587886
  X80.681755 Z6.586751
  X80.697364 Z6.585595
  X80.712973 Z6.584416
  X80.728582 Z6.583215
  X80.744192 Z6.581991
  X80.759801 Z6.580745
  X80.775410 Z6.579477
  X80.791019 Z6.578185
F1192.157784	; set feedrate
G1 X80.806628 Z6.576872
F1171.929672	; set feedrate
G1 X80.822238 Z6.575535
F1152.303156	; set feedrate
G1 X80.837847 Z6.574175
F1133.250618	; set feedrate
G1 X80.853456 Z6.572792
F1114.746097	; set feedrate
G1 X80.869065 Z6.571386
F1096.765168	; set feedrate
G1 X80.884675 Z6.569957
F1079.284829	; set feedrate
G1 X80.900284 Z6.568505
F1062.283397	; set feedrate
G1 X80.915893 Z6.567029
F1045.740417	; set feedrate
G1 X80.931502 Z6.565529
F1029.636574	; set feedrate
G1 X80.947111 Z6.564006
F1013.953616	; set feedrate
G1 X80.962721 Z6.562459
F998.674281	; set feedrate
G1 X80.978330 Z6.560888
F983.782232	; set feedrate
G1 X80.993939 Z6.559293
F969.261992	; set feedrate
G1 X81.009548 Z6.557674
F955.098894	; set feedrate
G1 X81.025157 Z6.556031
F941.279021	; set feedrate
G1 X81.040767 Z6.554363
F927.789166	; set feedrate
G1 X81.056376 Z6.552671
F914.616780	; set feedrate
G1 X81.071985 Z6.550954
F901.749939	; set feedrate
G1 X81.087594 Z6.549212
F889.177298	; set feedrate
G1 X81.103204 Z6.547445
F876.888060	; set feedrate
G1 X81.118813 Z6.545654
F864.871945	; set feedrate
G1 X81.134422 Z6.543837
F853.119154	; set feedrate
G1 X81.150031 Z6.541994
F841.620345	; set feedrate
G1 X81.165640 Z6.540126
F830.366605	; set feedrate
G1 X81.181250 Z6.538233
F819.349427	; set feedrate
G1 X81.196859 Z6.536313
F807.482639	; set feedrate
G1 X81.212468 Z6.534365
F739.704817	; set feedrate
G1 X81.228077 Z6.532236
F686.399103	; set feedrate
G1 X81.243686 Z6.529937
F676.159702	; set feedrate
G1 X81.259296 Z6.527603
F666.310349	; set feedrate
G1 X81.274905 Z6.525233
F656.679364	; set feedrate
G1 X81.290514 Z6.522828
F647.258706	; set feedrate
G1 X81.306123 Z6.520387
F638.040712	; set feedrate
G1 X81.321733 Z6.517910
F629.018078	; set feedrate
G1 X81.337342 Z6.515397
F620.183835	; set feedrate
G1 X81.352951 Z6.512847
F611.531331	; set feedrate
G1 X81.368560 Z6.510259
F603.054213	; set feedrate
G1 X81.384169 Z6.507635
F594.746408	; set feedrate
G1 X81.399779 Z6.504972
F586.602112	; set feedrate
G1 X81.415388 Z6.502272
F578.615768	; set feedrate
G1 X81.430997 Z6.499533
F570.782061	; set feedrate
G1 X81.446606 Z6.496755
F563.095898	; set feedrate
G1 X81.462216 Z6.493938
F555.552399	; set feedrate
G1 X81.477825 Z6.491082
F548.146885	; set feedrate
G1 X81.493434 Z6.488186
F540.874869	; set feedrate
G1 X81.509043 Z6.485249
F533.732043	; set feedrate
G1 X81.524652 Z6.482272
F526.714271	; set feedrate
G1 X81.540262 Z6.479254
F519.817579	; set feedrate
G1 X81.555871 Z6.476194
F513.038149	; set feedrate
G1 X81.571480 Z6.473092
F506.372307	; set feedrate
G1 X81.587089 Z6.469947
F499.816520	; set feedrate
G1 X81.602698 Z6.466760
F493.367388	; set feedrate
G1 X81.618308 Z6.463529
F487.021634	; set feedrate
G1 X81.633917 Z6.460254
F480.776102	; set feedrate
G1 X81.649526 Z6.456935
F474.627750	; set feedrate
G1 X81.665135 Z6.453570
F468.573644	; set feedrate
G1 X81.680745 Z6.450161
F462.610954	; set feedrate
G1 X81.696354 Z6.446705
F456.736947	; set feedrate
G1 X81.711963 Z6.443202
F450.948983	; set feedrate
G1 X81.727572 Z6.439653
F445.244513	; set feedrate
G1 X81.743181 Z6.436055
F439.621071	; set feedrate
G1 X81.758791 Z6.432409
F434.076273	; set feedrate
G1 X81.774400 Z6.428713
F428.607812	; set feedrate
G1 X81.790009 Z6.424968
F423.213454	; set feedrate
G1 X81.805618 Z6.421172
F417.891036	; set feedrate
G1 X81.821227 Z6.417325
F412.638462	; set feedrate
G1 X81.836837 Z6.413426
F407.453698	; set feedrate
G1 X81.852446 Z6.409475
F402.334772	; set feedrate
G1 X81.868055 Z6.405469
F397.279771	; set feedrate
G1 X81.883664 Z6.401409
F392.286836	; set feedrate
G1 X81.899274 Z6.397294
F387.354160	; set feedrate
G1 X81.914883 Z6.393123
F382.479988	; set feedrate
G1 X81.930492 Z6.388895
F377.662612	; set feedrate
G1 X81.946101 Z6.384609
F372.900370	; set feedrate
G1 X81.961710 Z6.380264
F368.191641	; set feedrate
G1 X81.977320 Z6.375859
F363.534850	; set feedrate
G1 X81.992929 Z6.371393
F358.928456	; set feedrate
G1 X82.008538 Z6.366865
F354.370960	; set feedrate
G1 X82.024147 Z6.362274
F349.860894	; set feedrate
G1 X82.039757 Z6.357618
F345.396826	; set feedrate
G1 X82.055366 Z6.352896
F340.977357	; set feedrate
G1 X82.070975 Z6.348108
F336.601114	; set feedrate
G1 X82.086584 Z6.343251
F332.266756	; set feedrate
G1 X82.102193 Z6.338325
F327.972968	; set feedrate
G1 X82.117803 Z6.333328
F323.718458	; set feedrate
G1 X82.133412 Z6.328258
F319.501959	; set feedrate
G1 X82.149021 Z6.323114
F315.322227	; set feedrate
G1 X82.164630 Z6.317895
F305.352094	; set feedrate
G1 X82.180239 Z6.312484
F286.981869	; set feedrate
G1 X82.195849 Z6.306682
F272.932490	; set feedrate
G1 X82.211458 Z6.300535
F268.185399	; set feedrate
G1 X82.227067 Z6.294262
F264.242585	; set feedrate
G1 X82.242676 Z6.287881
F260.334012	; set feedrate
G1 X82.258286 Z6.281387
F256.458305	; set feedrate
G1 X82.273895 Z6.274777
F252.614105	; set feedrate
G1 X82.289504 Z6.268048
F248.800069	; set feedrate
G1 X82.305113 Z6.261197
F245.014863	; set feedrate
G1 X82.320722 Z6.254218
F241.257166	; set feedrate
G1 X82.336332 Z6.247109
F237.525662	; set feedrate
G1 X82.351941 Z6.239864
F233.819041	; set feedrate
G1 X82.367550 Z6.232479
F230.135995	; set feedrate
G1 X82.383159 Z6.224948
F226.475218	; set feedrate
G1 X82.398768 Z6.217266
F222.835398	; set feedrate
G1 X82.414378 Z6.209428
F219.215218	; set feedrate
G1 X82.429987 Z6.201426
F215.613353	; set feedrate
G1 X82.445596 Z6.193255
F212.028467	; set feedrate
G1 X82.461205 Z6.184906
F208.459205	; set feedrate
G1 X82.476815 Z6.176372
F204.904195	; set feedrate
G1 X82.492424 Z6.167644
F201.362042	; set feedrate
G1 X82.508033 Z6.158713
F197.831321	; set feedrate
G1 X82.523642 Z6.149569
F194.310578	; set feedrate
G1 X82.539251 Z6.140200
F190.798318	; set feedrate
G1 X82.554861 Z6.130594
F187.293004	; set feedrate
G1 X82.570470 Z6.120737
F183.793047	; set feedrate
G1 X82.586079 Z6.110615
F180.296804	; set feedrate
G1 X82.601688 Z6.100210
F176.802563	; set feedrate
G1 X82.617298 Z6.089505
F173.308541	; set feedrate
G1 X82.632907 Z6.078477
F169.812867	; set feedrate
G1 X82.648516 Z6.067104
F166.313577	; set feedrate
G1 X82.664125 Z6.055358
F162.808593	; set feedrate
G1 X82.679734 Z6.043209
F159.295715	; set feedrate
G1 X82.695344 Z6.030621
F155.772596	; set feedrate
G1 X82.710953 Z6.017552
F152.236728	; set feedrate
G1 X82.726562 Z6.003953
F148.685407	; set feedrate
G1 X82.742171 Z5.989767
F145.115712	; set feedrate
G1 X82.757780 Z5.974924
F141.524461	; set feedrate
G1 X82.773390 Z5.959337
F137.908167	; set feedrate
G1 X82.788999 Z5.942901
F134.262975	; set feedrate
G1 X82.804608 Z5.925478
F130.584582	; set feedrate
G1 X82.820217 Z5.906891
F126.868114	; set feedrate
G1 X82.835827 Z5.886898
F123.107941	; set feedrate
G1 X82.851436 Z5.865159
F119.297332	; set feedrate
G1 X82.867045 Z5.841164
F115.427700	; set feedrate
G1 X82.882654 Z5.814088
F111.486442	; set feedrate
G1 X82.898263 Z5.782418
F107.447843	; set feedrate
G1 X82.913873 Z5.742707
F103.183986	; set feedrate
G1 X82.929482 Z5.681338
F100.000377	; set feedrate
G1 X82.945091 Z-0.002199
F1200	; set feedrate
G1 X99.724998
  Y56.256856
  X83.850426
  X83.834816 Z5.664861
  X83.819207 Z5.740555
  X83.803598 Z5.784653
  X83.787989 Z5.819114
  X83.772380 Z5.848304
  X83.756770 Z5.874028
  X83.741161 Z5.897247
  X83.725552 Z5.918541
  X83.709943 Z5.938294
  X83.694333 Z5.956775
  X83.678724 Z5.974183
  X83.663115 Z5.990667
  X83.647506 Z6.006345
  X83.631897 Z6.021312
  X83.616287 Z6.035643
  X83.600678 Z6.049402
  X83.585069 Z6.062643
  X83.569460 Z6.075409
  X83.553850 Z6.087740
  X83.538241 Z6.099670
  X83.522632 Z6.111226
  X83.507023 Z6.122436
  X83.491414 Z6.133321
  X83.475804 Z6.143901
  X83.460195 Z6.154196
  X83.444586 Z6.164220
  X83.428977 Z6.173988
  X83.413368 Z6.183515
  X83.397758 Z6.192811
  X83.382149 Z6.201888
  X83.366540 Z6.210755
  X83.350931 Z6.219423
  X83.335321 Z6.227900
  X83.319712 Z6.236192
  X83.304103 Z6.244309
  X83.288494 Z6.252256
  X83.272885 Z6.260040
  X83.257275 Z6.267666
  X83.241666 Z6.275141
  X83.226057 Z6.282469
  X83.210448 Z6.289655
  X83.194839 Z6.296703
  X83.179229 Z6.303619
  X83.163620 Z6.310405
  X83.148011 Z6.317066
  X83.132402 Z6.323605
  X83.116792 Z6.330025
  X83.101183 Z6.336330
  X83.085574 Z6.342523
  X83.069965 Z6.348606
  X83.054356 Z6.354582
  X83.038746 Z6.360454
  X83.023137 Z6.366214
  X83.007528 Z6.371678
  X82.991919 Z6.376788
  X82.976309 Z6.381734
  X82.960700 Z6.386605
  X82.945091 Z6.391402
  X82.929482 Z6.396126
  X82.913873 Z6.400778
  X82.898263 Z6.405360
  X82.882654 Z6.409872
  X82.867045 Z6.414317
  X82.851436 Z6.418695
  X82.835827 Z6.423007
  X82.820217 Z6.427255
  X82.804608 Z6.431438
  X82.788999 Z6.435559
  X82.773390 Z6.439619
  X82.757780 Z6.443617
  X82.742171 Z6.447556
  X82.726562 Z6.451435
  X82.710953 Z6.455256
  X82.695344 Z6.459020
  X82.679734 Z6.462727
  X82.664125 Z6.466378
  X82.648516 Z6.469973
  X82.632907 Z6.473514
  X82.617298 Z6.477001
  X82.601688 Z6.480435
  X82.586079 Z6.483817
  X82.570470 Z6.487146
  X82.554861 Z6.490424
  X82.539251 Z6.493651
  X82.523642 Z6.496828
  X82.508033 Z6.499955
  X82.492424 Z6.503033
  X82.476815 Z6.506062
  X82.461205 Z6.509043
  X82.445596 Z6.511976
  X82.429987 Z6.514862
  X82.414378 Z6.517702
  X82.398768 Z6.520495
  X82.383159 Z6.523242
  X82.367550 Z6.525943
  X82.351941 Z6.528600
  X82.336332 Z6.531211
  X82.320722 Z6.533779
  X82.305113 Z6.536302
  X82.289504 Z6.538782
  X82.273895 Z6.541219
  X82.258286 Z6.543613
  X82.242676 Z6.545964
  X82.227067 Z6.548273
  X82.211458 Z6.550540
  X82.195849 Z6.552766
  X82.180239 Z6.554950
  X82.164630 Z6.557093
  X82.149021 Z6.559196
  X82.133412 Z6.561257
  X82.117803 Z6.563279
  X82.102193 Z6.565261
  X82.086584 Z6.567203
  X82.070975 Z6.569106
  X82.055366 Z6.570969
  X82.039757 Z6.572792
  X82.024147 Z6.574448
  X82.008538 Z6.576002
  X81.992929 Z6.577526
  X81.977320 Z6.579020
  X81.961710 Z6.580484
  X81.946101 Z6.581918
  X81.930492 Z6.583323
  X81.914883 Z6.584698
  X81.899274 Z6.586044
  X81.883664 Z6.587360
  X81.868055 Z6.588648
  X81.852446 Z6.589906
  X81.836837 Z6.591135
  X81.821227 Z6.592336
  X81.805618 Z6.593508
  X81.790009 Z6.594651
  X81.774400 Z6.595765
  X81.758791 Z6.596852
  X81.743181 Z6.597910
  X81.727572 Z6.598939
  X81.711963 Z6.599941
  X81.696354 Z6.600914
  X81.680745 Z6.601860
  X81.665135 Z6.602778
  X81.649526 Z6.603667
  X81.633917 Z6.604529
  X81.618308 Z6.605364
  X81.602698 Z6.606171
  X81.587089 Z6.606950
  X81.571480 Z6.607702
  X81.555871 Z6.608426
  X81.540262 Z6.609123
  X81.524652 Z6.609793
  X81.509043 Z6.610436
  X81.493434 Z6.611051
  X81.477825 Z6.611639
  X81.462216 Z6.612201
  X81.446606 Z6.612735
  X81.430997 Z6.613242
  X81.415388 Z6.613722
  X81.399779 Z6.614176
  X81.384169 Z6.614602
  X81.368560 Z6.615002
  X81.352951 Z6.615375
  X81.337342 Z6.615721
  X81.321733 Z6.616040
  X81.306123 Z6.616333
  X81.290514 Z6.616599
  X81.274905 Z6.616838
  X81.259296 Z6.617050
  X81.243686
  X81.228077 Z6.617396
  X81.212468
  X81.196859 Z6.617634
  X81.181250
  X81.165640 Z6.617767
  X81.150031
  X81.134422
  X68.865578
  X68.849969
  X68.834360
  X68.818750
  X68.803141 Z6.617634
  X68.787532
  X68.771923 Z6.617396
  X68.756314 Z6.617236
  X68.740704
  X68.725095 Z6.616838
  X68.709486 Z6.616599
  X68.693877 Z6.616333
  X68.678267 Z6.616040
  X68.662658 Z6.615721
  X68.647049 Z6.615375
  X68.631440 Z6.615002
  X68.615831 Z6.614602
  X68.600221 Z6.614176
  X68.584612 Z6.613722
  X68.569003 Z6.613242
  X68.553394 Z6.612735
  X68.537784 Z6.612201
  X68.522175 Z6.611639
  X68.506566 Z6.611051
  X68.490957 Z6.610436
  X68.475348 Z6.609793
  X68.459738 Z6.609123
  X68.444129 Z6.608426
  X68.428520 Z6.607702
  X68.412911 Z6.606950
  X68.397302 Z6.606171
  X68.381692 Z6.605364
  X68.366083 Z6.604529
  X68.350474 Z6.603667
  X68.334865 Z6.602778
  X68.319255 Z6.601860
  X68.303646 Z6.600914
  X68.288037 Z6.599941
  X68.272428 Z6.598939
  X68.256819 Z6.597910
  X68.241209 Z6.596852
  X68.225600 Z6.595765
  X68.209991 Z6.594651
  X68.194382 Z6.593508
  X68.178773 Z6.592336
  X68.163163 Z6.591135
  X68.147554 Z6.589906
  X68.131945 Z6.588648
  X68.116336 Z6.587360
F1189.903496	; set feedrate
G1 X68.100726 Z6.586044
F1164.199036	; set feedrate
G1 X68.085117 Z6.584698
F1139.492560	; set feedrate
G1 X68.069508 Z6.583323
F1115.725241	; set feedrate
G1 X68.053899 Z6.581918
F1092.842778	; set feedrate
G1 X68.038290 Z6.580484
F1070.794962	; set feedrate
G1 X68.022680 Z6.579020
F1049.535303	; set feedrate
G1 X68.007071 Z6.577526
F1029.020689	; set feedrate
G1 X67.991462 Z6.576002
F1009.211087	; set feedrate
G1 X67.975853 Z6.574448
F948.038077	; set feedrate
G1 X67.960243 Z6.572792
F862.099848	; set feedrate
G1 X67.944634 Z6.570969
F843.643354	; set feedrate
G1 X67.929025 Z6.569106
F826.496507	; set feedrate
G1 X67.913416 Z6.567203
F809.950326	; set feedrate
G1 X67.897807 Z6.565261
F793.972224	; set feedrate
G1 X67.882197 Z6.563279
F778.531918	; set feedrate
G1 X67.866588 Z6.561257
F763.601222	; set feedrate
G1 X67.850979 Z6.559196
F749.153876	; set feedrate
G1 X67.835370 Z6.557093
F735.165377	; set feedrate
G1 X67.819761 Z6.554950
F721.612839	; set feedrate
G1 X67.804151 Z6.552766
F708.474859	; set feedrate
G1 X67.788542 Z6.550540
F695.731400	; set feedrate
G1 X67.772933 Z6.548273
F683.363680	; set feedrate
G1 X67.757324 Z6.545964
F671.354078	; set feedrate
G1 X67.741714 Z6.543613
F659.686046	; set feedrate
G1 X67.726105 Z6.541219
F648.344024	; set feedrate
G1 X67.710496 Z6.538782
F637.313372	; set feedrate
G1 X67.694887 Z6.536302
F626.580297	; set feedrate
G1 X67.679278 Z6.533779
F616.131797	; set feedrate
G1 X67.663668 Z6.531211
F605.955604	; set feedrate
G1 X67.648059 Z6.528600
F596.040130	; set feedrate
G1 X67.632450 Z6.525943
F586.374421	; set feedrate
G1 X67.616841 Z6.523242
F576.948116	; set feedrate
G1 X67.601232 Z6.520495
F567.751404	; set feedrate
G1 X67.585622 Z6.517702
F558.774991	; set feedrate
G1 X67.570013 Z6.514862
F550.010061	; set feedrate
G1 X67.554404 Z6.511976
F541.448250	; set feedrate
G1 X67.538795 Z6.509043
F533.081616	; set feedrate
G1 X67.523185 Z6.506062
F524.902608	; set feedrate
G1 X67.507576 Z6.503033
F516.904049	; set feedrate
G1 X67.491967 Z6.499955
F509.079106	; set feedrate
G1 X67.476358 Z6.496828
F501.421273	; set feedrate
G1 X67.460749 Z6.493651
F493.924352	; set feedrate
G1 X67.445139 Z6.490424
F486.582430	; set feedrate
G1 X67.429530 Z6.487146
F479.389865	; set feedrate
G1 X67.413921 Z6.483817
F472.341274	; set feedrate
G1 X67.398312 Z6.480435
F465.431509	; set feedrate
G1 X67.382702 Z6.477001
F458.655653	; set feedrate
G1 X67.367093 Z6.473514
F452.009000	; set feedrate
G1 X67.351484 Z6.469973
F445.487048	; set feedrate
G1 X67.335875 Z6.466378
F439.085482	; set feedrate
G1 X67.320266 Z6.462727
F432.800170	; set feedrate
G1 X67.304656 Z6.459020
F426.627151	; set feedrate
G1 X67.289047 Z6.455256
F420.562620	; set feedrate
G1 X67.273438 Z6.451435
F414.602930	; set feedrate
G1 X67.257829 Z6.447556
F408.744575	; set feedrate
G1 X67.242220 Z6.443617
F402.984185	; set feedrate
G1 X67.226610 Z6.439619
F397.318521	; set feedrate
G1 X67.211001 Z6.435559
F391.744466	; set feedrate
G1 X67.195392 Z6.431438
F386.259018	; set feedrate
G1 X67.179783 Z6.427255
F380.859285	; set feedrate
G1 X67.164173 Z6.423007
F375.542482	; set feedrate
G1 X67.148564 Z6.418695
F370.305920	; set feedrate
G1 X67.132955 Z6.414317
F365.147005	; set feedrate
G1 X67.117346 Z6.409872
F360.063232	; set feedrate
G1 X67.101737 Z6.405360
F355.052181	; set feedrate
G1 X67.086127 Z6.400778
F350.111511	; set feedrate
G1 X67.070518 Z6.396126
F345.238959	; set feedrate
G1 X67.054909 Z6.391402
F340.432331	; set feedrate
G1 X67.039300 Z6.386605
F335.689504	; set feedrate
G1 X67.023691 Z6.381734
F331.008419	; set feedrate
G1 X67.008081 Z6.376788
F321.436353	; set feedrate
G1 X66.992472 Z6.371678
F302.696951	; set feedrate
G1 X66.976863 Z6.366214
F288.845898	; set feedrate
G1 X66.961254 Z6.360454
F284.004694	; set feedrate
G1 X66.945644 Z6.354582
F279.671781	; set feedrate
G1 X66.930035 Z6.348606
F275.395325	; set feedrate
G1 X66.914426 Z6.342523
F271.173298	; set feedrate
G1 X66.898817 Z6.336330
F267.003730	; set feedrate
G1 X66.883208 Z6.330025
F262.884703	; set feedrate
G1 X66.867598 Z6.323605
F258.814350	; set feedrate
G1 X66.851989 Z6.317066
F254.790850	; set feedrate
G1 X66.836380 Z6.310405
F250.812425	; set feedrate
G1 X66.820771 Z6.303619
F246.877338	; set feedrate
G1 X66.805161 Z6.296703
F242.983890	; set feedrate
G1 X66.789552 Z6.289655
F239.130412	; set feedrate
G1 X66.773943 Z6.282469
F235.315271	; set feedrate
G1 X66.758334 Z6.275141
F231.536857	; set feedrate
G1 X66.742725 Z6.267666
F227.793590	; set feedrate
G1 X66.727115 Z6.260040
F224.083907	; set feedrate
G1 X66.711506 Z6.252256
F220.406267	; set feedrate
G1 X66.695897 Z6.244309
F216.759144	; set feedrate
G1 X66.680288 Z6.236192
F213.141025	; set feedrate
G1 X66.664679 Z6.227900
F209.550405	; set feedrate
G1 X66.649069 Z6.219423
F205.985788	; set feedrate
G1 X66.633460 Z6.210755
F202.445678	; set feedrate
G1 X66.617851 Z6.201888
F198.928579	; set feedrate
G1 X66.602242 Z6.192811
F195.432992	; set feedrate
G1 X66.586632 Z6.183515
F191.957407	; set feedrate
G1 X66.571023 Z6.173988
F188.500302	; set feedrate
G1 X66.555414 Z6.164220
F185.060140	; set feedrate
G1 X66.539805 Z6.154196
F181.635356	; set feedrate
G1 X66.524196 Z6.143901
F178.224363	; set feedrate
G1 X66.508586 Z6.133321
F174.825537	; set feedrate
G1 X66.492977 Z6.122436
F171.437214	; set feedrate
G1 X66.477368 Z6.111226
F168.057684	; set feedrate
G1 X66.461759 Z6.099670
F164.685179	; set feedrate
G1 X66.446150 Z6.087740
F161.317869	; set feedrate
G1 X66.430540 Z6.075409
F157.953848	; set feedrate
G1 X66.414931 Z6.062643
F154.591121	; set feedrate
G1 X66.399322 Z6.049402
F151.227595	; set feedrate
G1 X66.383713 Z6.035643
F147.861060	; set feedrate
G1 X66.368103 Z6.021312
F144.489171	; set feedrate
G1 X66.352494 Z6.006345
F141.109423	; set feedrate
G1 X66.336885 Z5.990667
F137.719125	; set feedrate
G1 X66.321276 Z5.974183
F134.315368	; set feedrate
G1 X66.305667 Z5.956775
F130.894971	; set feedrate
G1 X66.290057 Z5.938294
F127.454422	; set feedrate
G1 X66.274448 Z5.918541
F123.989778	; set feedrate
G1 X66.258839 Z5.897247
F120.496504	; set feedrate
G1 X66.243230 Z5.874028
F116.969147	; set feedrate
G1 X66.227620 Z5.848304
F113.400579	; set feedrate
G1 X66.212011 Z5.819114
F109.779630	; set feedrate
G1 X66.196402 Z5.784653
F106.079926	; set feedrate
G1 X66.180793 Z5.740555
F102.104073	; set feedrate
G1 X66.165184 Z5.664861
F100.000379	; set feedrate
G1 X66.149574 Z-0.002199
F1200	; set feedrate
G1 X50.275002
  Y56.655646
  X65.353504
  X65.369114 Z5.692108
  X65.384723 Z5.757817
  X65.400332 Z5.801068
  X65.415941 Z5.835675
  X65.431550 Z5.865290
  X65.447160 Z5.891539
  X65.462769 Z5.915313
  X65.478378 Z5.937166
  X65.493987 Z5.957469
  X65.509597 Z5.976485
  X65.525206 Z5.994409
  X65.540815 Z6.011390
  X65.556424 Z6.027546
  X65.572033 Z6.042970
  X65.587643 Z6.057740
  X65.603252 Z6.071920
  X65.618861 Z6.085562
  X65.634470 Z6.098714
  X65.650079 Z6.111413
  X65.665689 Z6.123695
  X65.681298 Z6.135588
  X65.696907 Z6.147119
  X65.712516 Z6.158312
  X65.728126 Z6.169186
  X65.743735 Z6.179761
  X65.759344 Z6.190053
  X65.774953 Z6.200076
  X65.790562 Z6.209846
  X65.806172 Z6.219373
  X65.821781 Z6.228669
  X65.837390 Z6.237745
  X65.852999 Z6.246610
  X65.868609 Z6.255273
  X65.884218 Z6.263742
  X65.899827 Z6.272025
  X65.915436 Z6.280128
  X65.931045 Z6.288059
  X65.946655 Z6.295823
  X65.962264 Z6.303425
  X65.977873 Z6.310872
  X65.993482 Z6.318168
  X66.009091 Z6.325318
  X66.024701 Z6.332326
  X66.040310 Z6.339196
  X66.055919 Z6.345932
  X66.071528 Z6.352539
  X66.087138 Z6.359018
  X66.102747 Z6.365375
  X66.118356 Z6.371611
  X66.133965 Z6.377730
  X66.149574 Z6.383734
  X66.165184 Z6.389506
  X66.180793 Z6.394921
  X66.196402 Z6.400105
  X66.212011 Z6.405201
  X66.227620 Z6.410213
  X66.243230 Z6.415140
  X66.258839 Z6.419985
  X66.274448 Z6.424750
  X66.290057 Z6.429435
  X66.305667 Z6.434043
  X66.321276 Z6.438573
  X66.336885 Z6.443029
  X66.352494 Z6.447410
  X66.368103 Z6.451718
  X66.383713 Z6.455954
  X66.399322 Z6.460120
  X66.414931 Z6.464216
  X66.430540 Z6.468243
  X66.446150 Z6.472202
  X66.461759 Z6.476095
  X66.477368 Z6.479921
  X66.492977 Z6.483683
  X66.508586 Z6.487380
  X66.524196 Z6.491014
  X66.539805 Z6.494586
  X66.555414 Z6.498095
  X66.571023 Z6.501544
  X66.586632 Z6.504932
  X66.602242 Z6.508261
  X66.617851 Z6.511530
  X66.633460 Z6.514741
  X66.649069 Z6.517894
  X66.664679 Z6.520991
  X66.680288 Z6.524030
  X66.695897 Z6.527014
  X66.711506 Z6.529942
  X66.727115 Z6.532815
  X66.742725 Z6.535634
  X66.758334 Z6.538399
  X66.773943 Z6.541111
  X66.789552 Z6.543769
  X66.805161 Z6.546376
  X66.820771 Z6.548930
  X66.836380 Z6.551432
  X66.851989 Z6.553883
  X66.867598 Z6.556284
  X66.883208 Z6.558634
  X66.898817 Z6.560934
  X66.914426 Z6.563184
  X66.930035 Z6.565385
  X66.945644 Z6.567537
  X66.961254 Z6.569641
  X66.976863 Z6.571696
  X66.992472 Z6.573703
  X67.008081 Z6.575662
  X67.023691 Z6.577574
  X67.039300 Z6.579439
  X67.054909 Z6.581257
  X67.070518 Z6.583029
  X67.086127 Z6.584754
  X67.101737 Z6.586433
  X67.117346 Z6.588066
  X67.132955 Z6.589653
  X67.148564 Z6.591195
  X67.164173 Z6.592645
  X67.179783 Z6.593956
  X67.195392 Z6.595230
  X67.211001 Z6.596468
  X67.226610 Z6.597670
  X67.242220 Z6.598836
  X67.257829 Z6.599966
  X67.273438 Z6.601060
  X67.289047 Z6.602119
  X67.304656 Z6.603143
  X67.320266 Z6.604131
  X67.335875 Z6.605084
  X67.351484 Z6.606002
  X67.367093 Z6.606885
  X67.382702 Z6.607733
  X67.398312 Z6.608547
  X67.413921 Z6.609325
  X67.429530 Z6.610069
  X67.445139 Z6.610779
  X67.460749 Z6.611454
  X67.476358 Z6.612094
  X67.491967 Z6.612700
  X67.507576 Z6.613272
  X67.523185 Z6.613809
  X67.538795 Z6.614313
  X67.554404 Z6.614782
  X67.570013 Z6.615217
  X67.585622 Z6.615619
  X67.601232 Z6.615986
  X67.616841 Z6.616319
  X67.632450 Z6.616618
  X67.648059 Z6.616884
  X67.663668 Z6.617115
  X67.679278 Z6.617313
  X67.694887 Z6.617477
  X67.710496
  X67.726105 Z6.617703
  X67.741714
  X67.757324
  X67.772933
  X82.227067
  X82.242676
  X82.258286
  X82.273895
  X82.289504
  X82.305113 Z6.617477
  X82.320722 Z6.617313
  X82.336332 Z6.617115
  X82.351941 Z6.616884
  X82.367550 Z6.616618
  X82.383159 Z6.616319
  X82.398768 Z6.615986
  X82.414378 Z6.615619
  X82.429987 Z6.615217
  X82.445596 Z6.614782
  X82.461205 Z6.614313
  X82.476815 Z6.613809
  X82.492424 Z6.613272
  X82.508033 Z6.612700
  X82.523642 Z6.612094
  X82.539251 Z6.611454
  X82.554861 Z6.610779
  X82.570470 Z6.610069
  X82.586079 Z6.609325
  X82.601688 Z6.608547
  X82.617298 Z6.607733
  X82.632907 Z6.606885
  X82.648516 Z6.606002
  X82.664125 Z6.605084
  X82.679734 Z6.604131
  X82.695344 Z6.603143
  X82.710953 Z6.602119
  X82.726562 Z6.601060
  X82.742171 Z6.599966
  X82.757780 Z6.598836
  X82.773390 Z6.597670
  X82.788999 Z6.596468
  X82.804608 Z6.595230
  X82.820217 Z6.593956
F1195.325171	; set feedrate
G1 X82.835827 Z6.592645
F1080.895700	; set feedrate
G1 X82.851436 Z6.591195
F1017.152132	; set feedrate
G1 X82.867045 Z6.589653
F988.349350	; set feedrate
G1 X82.882654 Z6.588066
F961.026162	; set feedrate
G1 X82.898263 Z6.586433
F935.068585	; set feedrate
G1 X82.913873 Z6.584754
F910.374035	; set feedrate
G1 X82.929482 Z6.583029
F886.849929	; set feedrate
G1 X82.945091 Z6.581257
F864.412501	; set feedrate
G1 X82.960700 Z6.579439
F842.985772	; set feedrate
G1 X82.976309 Z6.577574
F822.500669	; set feedrate
G1 X82.991919 Z6.575662
F802.894253	; set feedrate
G1 X83.007528 Z6.573703
F784.109053	; set feedrate
G1 X83.023137 Z6.571696
F766.092489	; set feedrate
G1 X83.038746 Z6.569641
F748.796355	; set feedrate
G1 X83.054356 Z6.567537
F732.176378	; set feedrate
G1 X83.069965 Z6.565385
F716.191822	; set feedrate
G1 X83.085574 Z6.563184
F700.805141	; set feedrate
G1 X83.101183 Z6.560934
F685.981674	; set feedrate
G1 X83.116792 Z6.558634
F671.689372	; set feedrate
G1 X83.132402 Z6.556284
F657.898553	; set feedrate
G1 X83.148011 Z6.553883
F644.581691	; set feedrate
G1 X83.163620 Z6.551432
F631.713221	; set feedrate
G1 X83.179229 Z6.548930
F619.269368	; set feedrate
G1 X83.194839 Z6.546376
F607.227991	; set feedrate
G1 X83.210448 Z6.543769
F595.568446	; set feedrate
G1 X83.226057 Z6.541111
F584.271460	; set feedrate
G1 X83.241666 Z6.538399
F573.319019	; set feedrate
G1 X83.257275 Z6.535634
F562.694265	; set feedrate
G1 X83.272885 Z6.532815
F552.381408	; set feedrate
G1 X83.288494 Z6.529942
F542.365637	; set feedrate
G1 X83.304103 Z6.527014
F532.633048	; set feedrate
G1 X83.319712 Z6.524030
F523.170575	; set feedrate
G1 X83.335321 Z6.520991
F513.965926	; set feedrate
G1 X83.350931 Z6.517894
F505.007527	; set feedrate
G1 X83.366540 Z6.514741
F496.284468	; set feedrate
G1 X83.382149 Z6.511530
F487.786460	; set feedrate
G1 X83.397758 Z6.508261
F479.503783	; set feedrate
G1 X83.413368 Z6.504932
F471.427255	; set feedrate
G1 X83.428977 Z6.501544
F463.548190	; set feedrate
G1 X83.444586 Z6.498095
F455.858364	; set feedrate
G1 X83.460195 Z6.494586
F448.349988	; set feedrate
G1 X83.475804 Z6.491014
F441.015674	; set feedrate
G1 X83.491414 Z6.487380
F433.848412	; set feedrate
G1 X83.507023 Z6.483683
F426.841546	; set feedrate
G1 X83.522632 Z6.479921
F419.988748	; set feedrate
G1 X83.538241 Z6.476095
F413.284001	; set feedrate
G1 X83.553850 Z6.472202
F406.721577	; set feedrate
G1 X83.569460 Z6.468243
F400.296021	; set feedrate
G1 X83.585069 Z6.464216
F394.002133	; set feedrate
G1 X83.600678 Z6.460120
F387.834952	; set feedrate
G1 X83.616287 Z6.455954
F381.789744	; set feedrate
G1 X83.631897 Z6.451718
F375.861986	; set feedrate
G1 X83.647506 Z6.447410
F370.047354	; set feedrate
G1 X83.663115 Z6.443029
F364.341714	; set feedrate
G1 X83.678724 Z6.438573
F358.741107	; set feedrate
G1 X83.694333 Z6.434043
F353.241740	; set feedrate
G1 X83.709943 Z6.429435
F347.839981	; set feedrate
G1 X83.725552 Z6.424750
F342.532342	; set feedrate
G1 X83.741161 Z6.419985
F337.315477	; set feedrate
G1 X83.756770 Z6.415140
F332.186173	; set feedrate
G1 X83.772380 Z6.410213
F327.141339	; set feedrate
G1 X83.787989 Z6.405201
F322.178004	; set feedrate
G1 X83.803598 Z6.400105
F317.278969	; set feedrate
G1 X83.819207 Z6.394921
F305.110456	; set feedrate
G1 X83.834816 Z6.389506
F288.357648	; set feedrate
G1 X83.850426 Z6.383734
F278.528210	; set feedrate
G1 X83.866035 Z6.377730
F273.996147	; set feedrate
G1 X83.881644 Z6.371611
F269.536568	; set feedrate
G1 X83.897253 Z6.365375
F265.146747	; set feedrate
G1 X83.912862 Z6.359018
F260.824057	; set feedrate
G1 X83.928472 Z6.352539
F256.565964	; set feedrate
G1 X83.944081 Z6.345932
F252.370019	; set feedrate
G1 X83.959690 Z6.339196
F248.233854	; set feedrate
G1 X83.975299 Z6.332326
F244.155179	; set feedrate
G1 X83.990909 Z6.325318
F240.131771	; set feedrate
G1 X84.006518 Z6.318168
F236.161477	; set feedrate
G1 X84.022127 Z6.310872
F232.242203	; set feedrate
G1 X84.037736 Z6.303425
F228.371914	; set feedrate
G1 X84.053345 Z6.295823
F224.548626	; set feedrate
G1 X84.068955 Z6.288059
F220.770406	; set feedrate
G1 X84.084564 Z6.280128
F217.035365	; set feedrate
G1 X84.100173 Z6.272025
F213.341655	; set feedrate
G1 X84.115782 Z6.263742
F209.687464	; set feedrate
G1 X84.131391 Z6.255273
F206.071016	; set feedrate
G1 X84.147001 Z6.246610
F202.490562	; set feedrate
G1 X84.162610 Z6.237745
F198.944380	; set feedrate
G1 X84.178219 Z6.228669
F195.430769	; set feedrate
G1 X84.193828 Z6.219373
F191.948045	; set feedrate
G1 X84.209438 Z6.209846
F188.494540	; set feedrate
G1 X84.225047 Z6.200076
F185.068594	; set feedrate
G1 X84.240656 Z6.190053
F181.668552	; set feedrate
G1 X84.256265 Z6.179761
F178.292760	; set feedrate
G1 X84.271874 Z6.169186
F174.939562	; set feedrate
G1 X84.287484 Z6.158312
F171.607290	; set feedrate
G1 X84.303093 Z6.147119
F168.294262	; set feedrate
G1 X84.318702 Z6.135588
F164.998779	; set feedrate
G1 X84.334311 Z6.123695
F161.719109	; set feedrate
G1 X84.349921 Z6.111413
F158.453492	; set feedrate
G1 X84.365530 Z6.098714
F155.200124	; set feedrate
G1 X84.381139 Z6.085562
