; Generated by PyCAM 0.7.0~pre0.588.g4687f2f6: 2021-07-06
G40	; disable tool radius compensation
G49	; disable tool length compensation
G80	; cancel modal motion
G54	; select coordinate system 1
G90	; disable incremental moves
G21	; metric
F1200	; set feedrate
G64 P0.000000	; continuous mode with tolerance
M5	; stop spindle
T2 M6	; select tool
S1000	; set spindle speed
M3	; start spindle
G04 P2.0	; wait for 2.0 seconds
G0 X-4.983422 Y-5.000000 Z25.000000
F100	; set feedrate
G1 Z11.000000
F1200	; set feedrate
G1 Y105.000000
  X-3.209764
  Y-5.000000
  X-1.436105
  Y105.000000
  X0.337554
  Y-5.000000
  X2.111213
  Y105.000000
  X3.884871
  Y-5.000000
  X5.658530
  Y105.000000
  X7.432189
  Y-5.000000
  X9.205848
  Y105.000000
  X10.979506
  Y-5.000000
  X12.753165
  Y105.000000
  X14.526824
  Y-5.000000
  X16.300483
  Y105.000000
  X18.074142
  Y-5.000000
  X19.847800
  Y105.000000
  X21.621459
  Y-5.000000
  X23.395118
  Y105.000000
  X25.168777
  Y-5.000000
  X26.942435
  Y105.000000
  X28.716094
  Y-5.000000
  X30.489753
  Y105.000000
  X32.263412
  Y-5.000000
  X34.037070
  Y105.000000
  X35.810729
  Y-5.000000
  X37.584388
  Y105.000000
  X39.358047
  Y-5.000000
  X41.131706
  Y105.000000
  X42.905364
  Y-5.000000
  X44.679023
  Y105.000000
  X46.452682
  Y-5.000000
  X48.226341
  Y105.000000
  X49.999999
  Y-5.000000
  X51.773658
  Y105.000000
  X53.547317
  Y-5.000000
  X55.320976
  Y105.000000
  X57.094635
  Y-5.000000
  X58.868293
  Y105.000000
  X60.641952
  Y-5.000000
  X62.415611
  Y105.000000
  X64.189270
  Y-5.000000
  X65.962928
  Y105.000000
  X67.736587
  Y-5.000000
  X69.510246
  Y105.000000
  X71.283905
  Y-5.000000
  X73.057563
  Y105.000000
  X74.831222
  Y-5.000000
  X76.604881
  Y105.000000
  X78.378540
  Y-5.000000
  X80.152199
  Y105.000000
  X81.925857
  Y-5.000000
  X83.699516
  Y105.000000
  X85.473175
  Y-5.000000
  X87.246834
  Y105.000000
  X89.020492
  Y-5.000000
  X90.794151
  Y105.000000
  X92.567810
  Y-5.000000
  X94.341469
  Y105.000000
  X96.115127
  Y-5.000000
  X97.888786
  Y105.000000
  X99.662445
  Y-5.000000
  X101.436104
  Y105.000000
  X103.209763
  Y-5.000000
  X104.983421
  Y105.000000
F100	; set feedrate
G1 Z8.250000
F1200	; set feedrate
G1 Y-5.000000
  X103.209763
  Y105.000000
  X101.436104
  Y-5.000000
  X99.662445
  Y38.684555
G0 Z25.000000
  Y61.578998
F100	; set feedrate
G1 Z8.250000
F1200	; set feedrate
G1 Y105.000000
  X97.888786
  Y67.448071
G0 Z25.000000
  Y32.640711
F100	; set feedrate
G1 Z8.250000
F1200	; set feedrate
G1 Y-5.000000
  X96.115127
  Y28.375040
G0 Z25.000000
  Y71.764602
F100	; set feedrate
G1 Z8.250000
F1200	; set feedrate
G1 Y105.000000
  X94.341469
  Y75.095771
G0 Z25.000000
  Y24.904240
F100	; set feedrate
G1 Z8.250000
F1200	; set feedrate
G1 Y-5.000000
  X92.567810
  Y21.950463
G0 Z25.000000
  Y77.973752
F100	; set feedrate
G1 Z8.250000
F1200	; set feedrate
G1 Y105.000000
  X90.794151
  Y80.607787
G0 Z25.000000
  Y19.502657
F100	; set feedrate
G1 Z8.250000
F1200	; set feedrate
G1 Y-5.000000
  X89.020492
  Y17.175015
G0 Z25.000000
  Y82.736270
F100	; set feedrate
G1 Z8.250000
F1200	; set feedrate
G1 Y105.000000
  X87.246834
  Y84.821500
G0 Z25.000000
  Y15.258758
F100	; set feedrate
G1 Z8.250000
F1200	; set feedrate
G1 Y-5.000000
  X85.473175
  Y13.367269
G0 Z25.000000
  Y86.550064
F100	; set feedrate
G1 Z8.250000
F1200	; set feedrate
G1 Y105.000000
  X83.699516
  Y88.278580
G0 Z25.000000
  Y11.808442
F100	; set feedrate
G1 Z8.250000
F1200	; set feedrate
G1 Y-5.000000
  X81.925857
  Y10.249615
G0 Z25.000000
  Y89.688085
F100	; set feedrate
G1 Z8.250000
F1200	; set feedrate
G1 Y105.000000
  X80.152199
  Y91.091887
G0 Z25.000000
  Y8.942671
F100	; set feedrate
G1 Z8.250000
F1200	; set feedrate
G1 Y-5.000000
  X78.378540
  Y7.681739
G0 Z25.000000
  Y36.000000
F100	; set feedrate
G1 Z8.250000
F1200	; set feedrate
G1 Y78.999998
G0 Z25.000000
  Y92.313443
F100	; set feedrate
G1 Z8.250000
F1200	; set feedrate
G1 Y105.000000
  X76.604881
  Y93.441606
G0 Z25.000000
  Y78.999998
F100	; set feedrate
G1 Z8.250000
F1200	; set feedrate
G1 Y36.000000
G0 Z25.000000
  Y29.000000
F100	; set feedrate
G1 Z8.250000
F1200	; set feedrate
G1 Y28.019095
G0 Z25.000000
  Y6.532041
F100	; set feedrate
G1 Z8.250000
F1200	; set feedrate
G1 Y-5.000000
  X74.831222
  Y5.528219
G0 Z25.000000
  Y26.245436
F100	; set feedrate
G1 Z8.250000
F1200	; set feedrate
G1 Y29.000000
G0 Z25.000000
  Y36.000000
F100	; set feedrate
G1 Z8.250000
F1200	; set feedrate
G1 Y78.999998
G0 Z25.000000
  Y94.530346
F100	; set feedrate
G1 Z8.250000
F1200	; set feedrate
G1 Y105.000000
  X73.057563
  Y95.416879
G0 Z25.000000
  Y78.999998
F100	; set feedrate
G1 Z8.250000
F1200	; set feedrate
G1 Y36.000000
G0 Z25.000000
  Y29.000000
F100	; set feedrate
G1 Z8.250000
F1200	; set feedrate
G1 Y24.471777
G0 Z25.000000
  Y4.524399
F100	; set feedrate
G1 Z8.250000
F1200	; set feedrate
G1 Y-5.000000
  X71.283905
  Y3.716362
G0 Z25.000000
  Y22.698118
F100	; set feedrate
G1 Z8.250000
F1200	; set feedrate
G1 Y29.000000
G0 Z25.000000
  Y36.000000
F100	; set feedrate
G1 Z8.250000
F1200	; set feedrate
G1 Y78.999998
G0 Z25.000000
  Y96.303410
F100	; set feedrate
G1 Z8.250000
F1200	; set feedrate
G1 Y105.000000
  X69.510246
  Y97.077730
G0 Z25.000000
  Y78.999998
F100	; set feedrate
G1 Z8.250000
F1200	; set feedrate
G1 Y70.999998
G0 Z25.000000
  Y29.000000
F100	; set feedrate
G1 Z8.250000
F1200	; set feedrate
G1 Y21.000000
G0 Z25.000000
  Y2.941226
F100	; set feedrate
G1 Z8.250000
F1200	; set feedrate
G1 Y-5.000000
  X67.736587
  Y2.196036
G0 Z25.000000
  Y21.000000
F100	; set feedrate
G1 Z8.250000
F1200	; set feedrate
G1 Y29.000000
G0 Z25.000000
  Y70.999998
F100	; set feedrate
G1 Z8.250000
F1200	; set feedrate
G1 Y78.999998
G0 Z25.000000
  Y97.746375
F100	; set feedrate
G1 Z8.250000
F1200	; set feedrate
G1 Y105.000000
  X65.962928
  Y98.415020
G0 Z25.000000
  Y78.999998
F100	; set feedrate
G1 Z8.250000
F1200	; set feedrate
G1 Y70.999998
G0 Z25.000000
  Y29.000000
F100	; set feedrate
G1 Z8.250000
F1200	; set feedrate
G1 Y21.000000
G0 Z25.000000
  Y1.629822
F100	; set feedrate
G1 Z8.250000
F1200	; set feedrate
G1 Y-5.000000
  X64.189270
  Y1.063608
G0 Z25.000000
  Y21.000000
F100	; set feedrate
G1 Z8.250000
F1200	; set feedrate
G1 Y29.000000
G0 Z25.000000
  Y70.999998
F100	; set feedrate
G1 Z8.250000
F1200	; set feedrate
G1 Y78.999998
G0 Z25.000000
  Y98.933559
F100	; set feedrate
G1 Z8.250000
F1200	; set feedrate
G1 Y105.000000
  X62.415611
  Y99.400660
G0 Z25.000000
  Y78.999998
F100	; set feedrate
G1 Z8.250000
F1200	; set feedrate
G1 Y70.999998
G0 Z25.000000
  Y29.000000
F100	; set feedrate
G1 Z8.250000
F1200	; set feedrate
G1 Y21.000000
G0 Z25.000000
  Y0.560570
F100	; set feedrate
G1 Z8.250000
F1200	; set feedrate
G1 Y-5.000000
  X60.641952
  Y0.189927
G0 Z25.000000
  Y21.000000
F100	; set feedrate
G1 Z8.250000
F1200	; set feedrate
G1 Y29.000000
G0 Z25.000000
  Y70.999998
F100	; set feedrate
G1 Z8.250000
F1200	; set feedrate
G1 Y78.999998
G0 Z25.000000
  Y99.867761
F100	; set feedrate
G1 Z8.250000
F1200	; set feedrate
G1 Y105.000000
  X58.868293
  Y100.166548
G0 Z25.000000
  Y78.999998
F100	; set feedrate
G1 Z8.250000
F1200	; set feedrate
G1 Y70.999998
G0 Z25.000000
  Y29.000000
F100	; set feedrate
G1 Z8.250000
F1200	; set feedrate
G1 Y21.000000
G0 Z25.000000
  Y-0.180715
F100	; set feedrate
G1 Z8.250000
F1200	; set feedrate
G1 Y-5.000000
  X57.094635
  Y-0.471735
G0 Z25.000000
  Y21.000000
F100	; set feedrate
G1 Z8.250000
F1200	; set feedrate
G1 Y29.000000
G0 Z25.000000
  Y70.999998
F100	; set feedrate
G1 Z8.250000
F1200	; set feedrate
G1 Y78.999998
G0 Z25.000000
  Y100.442788
F100	; set feedrate
G1 Z8.250000
F1200	; set feedrate
G1 Y105.000000
  X55.320976
  Y100.719027
G0 Z25.000000
  Y78.999998
F100	; set feedrate
G1 Z8.250000
F1200	; set feedrate
G1 Y70.999998
G0 Z25.000000
  Y29.000000
F100	; set feedrate
G1 Z8.250000
F1200	; set feedrate
G1 Y21.000000
G0 Z25.000000
  Y-0.655077
F100	; set feedrate
G1 Z8.250000
F1200	; set feedrate
G1 Y-5.000000
  X53.547317
  Y-0.838419
G0 Z25.000000
  Y21.000000
F100	; set feedrate
G1 Z8.250000
F1200	; set feedrate
G1 Y29.000000
G0 Z25.000000
  Y70.999998
F100	; set feedrate
G1 Z8.250000
F1200	; set feedrate
G1 Y78.999998
G0 Z25.000000
  Y100.818474
F100	; set feedrate
G1 Z8.250000
F1200	; set feedrate
G1 Y105.000000
  X51.773658
  Y100.909901
G0 Z25.000000
  Y78.999998
F100	; set feedrate
G1 Z8.250000
F1200	; set feedrate
G1 Y70.999998
G0 Z25.000000
  Y29.000000
F100	; set feedrate
G1 Z8.250000
F1200	; set feedrate
G1 Y21.000000
G0 Z25.000000
  Y-0.954651
F100	; set feedrate
G1 Z8.250000
F1200	; set feedrate
G1 Y-5.000000
  X49.999999
  Y-1.000000
G0 Z25.000000
  Y21.000000
F100	; set feedrate
G1 Z8.250000
F1200	; set feedrate
G1 Y29.000000
G0 Z25.000000
  Y70.999998
F100	; set feedrate
G1 Z8.250000
F1200	; set feedrate
G1 Y78.999998
G0 Z25.000000
  Y101.000000
F100	; set feedrate
G1 Z8.250000
F1200	; set feedrate
G1 Y105.000000
  X48.226341
  Y100.909901
G0 Z25.000000
  Y78.999998
F100	; set feedrate
G1 Z8.250000
F1200	; set feedrate
G1 Y70.999998
G0 Z25.000000
  Y29.000000
F100	; set feedrate
G1 Z8.250000
F1200	; set feedrate
G1 Y21.000000
G0 Z25.000000
  Y-0.954651
F100	; set feedrate
G1 Z8.250000
F1200	; set feedrate
G1 Y-5.000000
  X46.452682
  Y-0.838419
G0 Z25.000000
  Y21.000000
F100	; set feedrate
G1 Z8.250000
F1200	; set feedrate
G1 Y29.000000
G0 Z25.000000
  Y70.999998
F100	; set feedrate
G1 Z8.250000
F1200	; set feedrate
G1 Y78.999998
G0 Z25.000000
  Y100.818474
F100	; set feedrate
G1 Z8.250000
F1200	; set feedrate
G1 Y105.000000
  X44.679023
  Y100.719027
G0 Z25.000000
  Y78.999998
F100	; set feedrate
G1 Z8.250000
F1200	; set feedrate
G1 Y70.999998
G0 Z25.000000
  Y29.000000
F100	; set feedrate
G1 Z8.250000
F1200	; set feedrate
G1 Y21.000000
G0 Z25.000000
  Y-0.655077
F100	; set feedrate
G1 Z8.250000
F1200	; set feedrate
G1 Y-5.000000
  X42.905364
  Y-0.471735
G0 Z25.000000
  Y21.000000
F100	; set feedrate
G1 Z8.250000
F1200	; set feedrate
G1 Y29.000000
G0 Z25.000000
  Y70.999998
F100	; set feedrate
G1 Z8.250000
F1200	; set feedrate
G1 Y78.999998
G0 Z25.000000
  Y100.442787
F100	; set feedrate
G1 Z8.250000
F1200	; set feedrate
G1 Y105.000000
  X41.131706
  Y100.166547
G0 Z25.000000
  Y78.999998
F100	; set feedrate
G1 Z8.250000
F1200	; set feedrate
G1 Y70.999998
G0 Z25.000000
  Y29.000000
F100	; set feedrate
G1 Z8.250000
F1200	; set feedrate
G1 Y21.000000
G0 Z25.000000
  Y-0.180714
F100	; set feedrate
G1 Z8.250000
F1200	; set feedrate
G1 Y-5.000000
  X39.358047
  Y0.189929
G0 Z25.000000
  Y21.000000
F100	; set feedrate
G1 Z8.250000
F1200	; set feedrate
G1 Y29.000000
G0 Z25.000000
  Y70.999998
F100	; set feedrate
G1 Z8.250000
F1200	; set feedrate
G1 Y78.999998
G0 Z25.000000
  Y99.867761
F100	; set feedrate
G1 Z8.250000
F1200	; set feedrate
G1 Y105.000000
  X37.584388
  Y99.400660
G0 Z25.000000
  Y78.999998
F100	; set feedrate
G1 Z8.250000
F1200	; set feedrate
G1 Y70.999998
G0 Z25.000000
  Y29.000000
F100	; set feedrate
G1 Z8.250000
F1200	; set feedrate
G1 Y21.000000
G0 Z25.000000
  Y0.560571
F100	; set feedrate
G1 Z8.250000
F1200	; set feedrate
G1 Y-5.000000
  X35.810729
  Y1.063609
G0 Z25.000000
  Y21.000000
F100	; set feedrate
G1 Z8.250000
F1200	; set feedrate
G1 Y29.000000
G0 Z25.000000
  Y98.933559
F100	; set feedrate
G1 Z8.250000
F1200	; set feedrate
G1 Y105.000000
  X34.037070
  Y98.415020
G0 Z25.000000
  Y29.000000
F100	; set feedrate
G1 Z8.250000
F1200	; set feedrate
G1 Y21.000000
G0 Z25.000000
  Y1.629822
F100	; set feedrate
G1 Z8.250000
F1200	; set feedrate
G1 Y-5.000000
  X32.263412
  Y2.196036
G0 Z25.000000
  Y21.000000
F100	; set feedrate
G1 Z8.250000
F1200	; set feedrate
G1 Y29.000000
G0 Z25.000000
  Y97.746375
F100	; set feedrate
G1 Z8.250000
F1200	; set feedrate
G1 Y105.000000
  X30.489753
  Y97.077729
G0 Z25.000000
  Y29.000000
F100	; set feedrate
G1 Z8.250000
F1200	; set feedrate
G1 Y21.000000
G0 Z25.000000
  Y2.941226
F100	; set feedrate
G1 Z8.250000
F1200	; set feedrate
G1 Y-5.000000
  X28.716094
  Y3.716362
G0 Z25.000000
  Y21.000000
F100	; set feedrate
G1 Z8.250000
F1200	; set feedrate
G1 Y77.301877
G0 Z25.000000
  Y96.303409
F100	; set feedrate
G1 Z8.250000
F1200	; set feedrate
G1 Y105.000000
  X26.942435
  Y95.416877
G0 Z25.000000
  Y75.528218
F100	; set feedrate
G1 Z8.250000
F1200	; set feedrate
G1 Y21.000000
G0 Z25.000000
  Y4.524399
F100	; set feedrate
G1 Z8.250000
F1200	; set feedrate
G1 Y-5.000000
  X25.168777
  Y5.528221
G0 Z25.000000
  Y21.000000
F100	; set feedrate
G1 Z8.250000
F1200	; set feedrate
G1 Y73.754559
G0 Z25.000000
  Y94.530345
F100	; set feedrate
G1 Z8.250000
F1200	; set feedrate
G1 Y105.000000
  X23.395118
  Y93.441605
G0 Z25.000000
  Y71.980900
F100	; set feedrate
G1 Z8.250000
F1200	; set feedrate
G1 Y21.000000
G0 Z25.000000
  Y6.532040
F100	; set feedrate
G1 Z8.250000
F1200	; set feedrate
G1 Y-5.000000
  X21.621459
  Y7.681738
G0 Z25.000000
  Y21.000000
F100	; set feedrate
G1 Z8.250000
F1200	; set feedrate
G1 Y70.207242
G0 Z25.000000
  Y92.313442
F100	; set feedrate
G1 Z8.250000
F1200	; set feedrate
G1 Y105.000000
  X19.847800
  Y91.091887
G0 Z25.000000
  Y8.942671
F100	; set feedrate
G1 Z8.250000
F1200	; set feedrate
G1 Y-5.000000
  X18.074142
  Y10.249615
G0 Z25.000000
  Y89.688085
F100	; set feedrate
G1 Z8.250000
F1200	; set feedrate
G1 Y105.000000
  X16.300483
  Y88.278579
G0 Z25.000000
  Y11.808443
F100	; set feedrate
G1 Z8.250000
F1200	; set feedrate
G1 Y-5.000000
  X14.526824
  Y13.367271
G0 Z25.000000
  Y86.550064
F100	; set feedrate
G1 Z8.250000
F1200	; set feedrate
G1 Y105.000000
  X12.753165
  Y84.821500
G0 Z25.000000
  Y15.258759
F100	; set feedrate
G1 Z8.250000
F1200	; set feedrate
G1 Y-5.000000
  X10.979506
  Y17.175014
G0 Z25.000000
  Y82.736267
F100	; set feedrate
G1 Z8.250000
F1200	; set feedrate
G1 Y105.000000
  X9.205848
  Y80.607781
G0 Z25.000000
  Y19.502656
F100	; set feedrate
G1 Z8.250000
F1200	; set feedrate
G1 Y-5.000000
  X7.432189
  Y21.950470
G0 Z25.000000
  Y77.973748
F100	; set feedrate
G1 Z8.250000
F1200	; set feedrate
G1 Y105.000000
  X5.658530
  Y75.095769
G0 Z25.000000
  Y24.904246
F100	; set feedrate
G1 Z8.250000
F1200	; set feedrate
G1 Y-5.000000
  X3.884871
  Y28.375048
G0 Z25.000000
  Y71.764603
F100	; set feedrate
G1 Z8.250000
F1200	; set feedrate
G1 Y105.000000
  X2.111213
  Y67.448063
G0 Z25.000000
  Y32.640718
F100	; set feedrate
G1 Z8.250000
F1200	; set feedrate
G1 Y-5.000000
  X0.337554
  Y38.684575
G0 Z25.000000
  Y61.578988
F100	; set feedrate
G1 Z8.250000
F1200	; set feedrate
G1 Y105.000000
  X-1.436105
  Y-5.000000
  X-3.209764
  Y105.000000
  X-4.983422
  Y-5.000000
F100	; set feedrate
G1 Z5.500000
F1200	; set feedrate
G1 Y105.000000
  X-3.209764
  Y-5.000000
  X-1.436105
  Y105.000000
  X0.337554
  Y61.578988
G0 Z25.000000
  Y38.684575
F100	; set feedrate
G1 Z5.500000
F1200	; set feedrate
G1 Y-5.000000
  X2.111213
  Y32.640718
G0 Z25.000000
  Y67.448063
F100	; set feedrate
G1 Z5.500000
F1200	; set feedrate
G1 Y105.000000
  X3.884871
  Y71.764603
G0 Z25.000000
  Y28.375048
F100	; set feedrate
G1 Z5.500000
F1200	; set feedrate
G1 Y-5.000000
  X5.658530
  Y24.904246
G0 Z25.000000
  Y75.095769
F100	; set feedrate
G1 Z5.500000
F1200	; set feedrate
G1 Y105.000000
  X7.432189
  Y77.973748
G0 Z25.000000
  Y21.950470
F100	; set feedrate
G1 Z5.500000
F1200	; set feedrate
G1 Y-5.000000
  X9.205848
  Y19.502656
G0 Z25.000000
  Y80.607781
F100	; set feedrate
G1 Z5.500000
F1200	; set feedrate
G1 Y105.000000
  X10.979506
  Y82.736267
G0 Z25.000000
  Y17.175014
F100	; set feedrate
G1 Z5.500000
F1200	; set feedrate
G1 Y-5.000000
  X12.753165
  Y15.258759
G0 Z25.000000
  Y84.821500
F100	; set feedrate
G1 Z5.500000
F1200	; set feedrate
G1 Y105.000000
  X14.526824
  Y86.550064
G0 Z25.000000
  Y13.367271
F100	; set feedrate
G1 Z5.500000
F1200	; set feedrate
G1 Y-5.000000
  X16.300483
  Y11.808443
G0 Z25.000000
  Y88.278579
F100	; set feedrate
G1 Z5.500000
F1200	; set feedrate
G1 Y105.000000
  X18.074142
  Y89.688085
G0 Z25.000000
  Y10.249615
F100	; set feedrate
G1 Z5.500000
F1200	; set feedrate
G1 Y-5.000000
  X19.847800
  Y8.942671
G0 Z25.000000
  Y91.091887
F100	; set feedrate
G1 Z5.500000
F1200	; set feedrate
G1 Y105.000000
  X21.621459
  Y92.313442
G0 Z25.000000
  Y70.207242
F100	; set feedrate
G1 Z5.500000
F1200	; set feedrate
G1 Y21.000000
G0 Z25.000000
  Y7.681738
F100	; set feedrate
G1 Z5.500000
F1200	; set feedrate
G1 Y-5.000000
  X23.395118
  Y6.532040
G0 Z25.000000
  Y21.000000
F100	; set feedrate
G1 Z5.500000
F1200	; set feedrate
G1 Y71.980900
G0 Z25.000000
  Y93.441605
F100	; set feedrate
G1 Z5.500000
F1200	; set feedrate
G1 Y105.000000
  X25.168777
  Y94.530345
G0 Z25.000000
  Y73.754559
F100	; set feedrate
G1 Z5.500000
F1200	; set feedrate
G1 Y21.000000
G0 Z25.000000
  Y5.528221
F100	; set feedrate
G1 Z5.500000
F1200	; set feedrate
G1 Y-5.000000
  X26.942435
  Y4.524399
G0 Z25.000000
  Y21.000000
F100	; set feedrate
G1 Z5.500000
F1200	; set feedrate
G1 Y75.528218
G0 Z25.000000
  Y95.416877
F100	; set feedrate
G1 Z5.500000
F1200	; set feedrate
G1 Y105.000000
  X28.716094
  Y96.303409
G0 Z25.000000
  Y77.301877
F100	; set feedrate
G1 Z5.500000
F1200	; set feedrate
G1 Y21.000000
G0 Z25.000000
  Y3.716362
F100	; set feedrate
G1 Z5.500000
F1200	; set feedrate
G1 Y-5.000000
  X30.489753
  Y2.941226
G0 Z25.000000
  Y21.000000
F100	; set feedrate
G1 Z5.500000
F1200	; set feedrate
G1 Y29.000000
G0 Z25.000000
  Y97.077729
F100	; set feedrate
G1 Z5.500000
F1200	; set feedrate
G1 Y105.000000
  X32.263412
  Y97.746375
G0 Z25.000000
  Y29.000000
F100	; set feedrate
G1 Z5.500000
F1200	; set feedrate
G1 Y21.000000
G0 Z25.000000
  Y2.196036
F100	; set feedrate
G1 Z5.500000
F1200	; set feedrate
G1 Y-5.000000
  X34.037070
  Y1.629822
G0 Z25.000000
  Y21.000000
F100	; set feedrate
G1 Z5.500000
F1200	; set feedrate
G1 Y29.000000
G0 Z25.000000
  Y98.415020
F100	; set feedrate
G1 Z5.500000
F1200	; set feedrate
G1 Y105.000000
  X35.810729
  Y98.933559
G0 Z25.000000
  Y29.000000
F100	; set feedrate
G1 Z5.500000
F1200	; set feedrate
G1 Y21.000000
G0 Z25.000000
  Y1.063609
F100	; set feedrate
G1 Z5.500000
F1200	; set feedrate
G1 Y-5.000000
  X37.584388
  Y0.560571
G0 Z25.000000
  Y21.000000
F100	; set feedrate
G1 Z5.500000
F1200	; set feedrate
G1 Y29.000000
G0 Z25.000000
  Y70.999998
F100	; set feedrate
G1 Z5.500000
F1200	; set feedrate
G1 Y78.999998
G0 Z25.000000
  Y99.400660
F100	; set feedrate
G1 Z5.500000
F1200	; set feedrate
G1 Y105.000000
  X39.358047
  Y99.867761
G0 Z25.000000
  Y78.999998
F100	; set feedrate
G1 Z5.500000
F1200	; set feedrate
G1 Y70.999998
G0 Z25.000000
  Y29.000000
F100	; set feedrate
G1 Z5.500000
F1200	; set feedrate
G1 Y21.000000
G0 Z25.000000
  Y0.189929
F100	; set feedrate
G1 Z5.500000
F1200	; set feedrate
G1 Y-5.000000
  X41.131706
  Y-0.180714
G0 Z25.000000
  Y21.000000
F100	; set feedrate
G1 Z5.500000
F1200	; set feedrate
G1 Y29.000000
G0 Z25.000000
  Y70.999998
F100	; set feedrate
G1 Z5.500000
F1200	; set feedrate
G1 Y78.999998
G0 Z25.000000
  Y100.166547
F100	; set feedrate
G1 Z5.500000
F1200	; set feedrate
G1 Y105.000000
  X42.905364
  Y100.442787
G0 Z25.000000
  Y78.999998
F100	; set feedrate
G1 Z5.500000
F1200	; set feedrate
G1 Y70.999998
G0 Z25.000000
  Y29.000000
F100	; set feedrate
G1 Z5.500000
F1200	; set feedrate
G1 Y21.000000
G0 Z25.000000
  Y-0.471735
F100	; set feedrate
G1 Z5.500000
F1200	; set feedrate
G1 Y-5.000000
  X44.679023
  Y-0.655077
G0 Z25.000000
  Y21.000000
F100	; set feedrate
G1 Z5.500000
F1200	; set feedrate
G1 Y29.000000
G0 Z25.000000
  Y70.999998
F100	; set feedrate
G1 Z5.500000
F1200	; set feedrate
G1 Y78.999998
G0 Z25.000000
  Y100.719027
F100	; set feedrate
G1 Z5.500000
F1200	; set feedrate
G1 Y105.000000
  X46.452682
  Y100.818474
G0 Z25.000000
  Y78.999998
F100	; set feedrate
G1 Z5.500000
F1200	; set feedrate
G1 Y70.999998
G0 Z25.000000
  Y29.000000
F100	; set feedrate
G1 Z5.500000
F1200	; set feedrate
G1 Y21.000000
G0 Z25.000000
  Y-0.838419
F100	; set feedrate
G1 Z5.500000
F1200	; set feedrate
G1 Y-5.000000
  X48.226341
  Y-0.954651
G0 Z25.000000
  Y21.000000
F100	; set feedrate
G1 Z5.500000
F1200	; set feedrate
G1 Y29.000000
G0 Z25.000000
  Y70.999998
F100	; set feedrate
G1 Z5.500000
F1200	; set feedrate
G1 Y78.999998
G0 Z25.000000
  Y100.909901
F100	; set feedrate
G1 Z5.500000
F1200	; set feedrate
G1 Y105.000000
  X49.999999
  Y101.000000
G0 Z25.000000
  Y78.999998
F100	; set feedrate
G1 Z5.500000
F1200	; set feedrate
G1 Y70.999998
G0 Z25.000000
  Y29.000000
F100	; set feedrate
G1 Z5.500000
F1200	; set feedrate
G1 Y21.000000
G0 Z25.000000
  Y-1.000000
F100	; set feedrate
G1 Z5.500000
F1200	; set feedrate
G1 Y-5.000000
  X51.773658
  Y-0.954651
G0 Z25.000000
  Y21.000000
F100	; set feedrate
G1 Z5.500000
F1200	; set feedrate
G1 Y29.000000
G0 Z25.000000
  Y70.999998
F100	; set feedrate
G1 Z5.500000
F1200	; set feedrate
G1 Y78.999998
G0 Z25.000000
  Y100.909901
F100	; set feedrate
G1 Z5.500000
F1200	; set feedrate
G1 Y105.000000
  X53.547317
  Y100.818474
G0 Z25.000000
  Y78.999998
F100	; set feedrate
G1 Z5.500000
F1200	; set feedrate
G1 Y70.999998
G0 Z25.000000
  Y29.000000
F100	; set feedrate
G1 Z5.500000
F1200	; set feedrate
G1 Y21.000000
G0 Z25.000000
  Y-0.838419
F100	; set feedrate
G1 Z5.500000
F1200	; set feedrate
G1 Y-5.000000
  X55.320976
  Y-0.655077
G0 Z25.000000
  Y21.000000
F100	; set feedrate
G1 Z5.500000
F1200	; set feedrate
G1 Y29.000000
G0 Z25.000000
  Y70.999998
F100	; set feedrate
G1 Z5.500000
F1200	; set feedrate
G1 Y78.999998
G0 Z25.000000
  Y100.719027
F100	; set feedrate
G1 Z5.500000
F1200	; set feedrate
G1 Y105.000000
  X57.094635
  Y100.442788
G0 Z25.000000
  Y78.999998
F100	; set feedrate
G1 Z5.500000
F1200	; set feedrate
G1 Y70.999998
G0 Z25.000000
  Y29.000000
F100	; set feedrate
G1 Z5.500000
F1200	; set feedrate
G1 Y21.000000
G0 Z25.000000
  Y-0.471735
F100	; set feedrate
G1 Z5.500000
F1200	; set feedrate
G1 Y-5.000000
  X58.868293
  Y-0.180715
G0 Z25.000000
  Y21.000000
F100	; set feedrate
G1 Z5.500000
F1200	; set feedrate
G1 Y29.000000
G0 Z25.000000
  Y70.999998
F100	; set feedrate
G1 Z5.500000
F1200	; set feedrate
G1 Y78.999998
G0 Z25.000000
  Y100.166548
F100	; set feedrate
G1 Z5.500000
F1200	; set feedrate
G1 Y105.000000
  X60.641952
  Y99.867761
G0 Z25.000000
  Y78.999998
F100	; set feedrate
G1 Z5.500000
F1200	; set feedrate
G1 Y70.999998
G0 Z25.000000
  Y29.000000
F100	; set feedrate
G1 Z5.500000
F1200	; set feedrate
G1 Y21.000000
G0 Z25.000000
  Y0.189927
F100	; set feedrate
G1 Z5.500000
F1200	; set feedrate
G1 Y-5.000000
  X62.415611
  Y0.560570
G0 Z25.000000
  Y21.000000
F100	; set feedrate
G1 Z5.500000
F1200	; set feedrate
G1 Y29.000000
G0 Z25.000000
  Y70.999998
F100	; set feedrate
G1 Z5.500000
F1200	; set feedrate
G1 Y78.999998
G0 Z25.000000
  Y99.400660
F100	; set feedrate
G1 Z5.500000
F1200	; set feedrate
G1 Y105.000000
  X64.189270
  Y98.933559
G0 Z25.000000
  Y78.999998
F100	; set feedrate
G1 Z5.500000
F1200	; set feedrate
G1 Y70.999998
G0 Z25.000000
  Y29.000000
F100	; set feedrate
G1 Z5.500000
F1200	; set feedrate
G1 Y21.000000
G0 Z25.000000
  Y1.063608
F100	; set feedrate
G1 Z5.500000
F1200	; set feedrate
G1 Y-5.000000
  X65.962928
  Y1.629822
G0 Z25.000000
  Y21.000000
F100	; set feedrate
G1 Z5.500000
F1200	; set feedrate
G1 Y29.000000
G0 Z25.000000
  Y70.999998
F100	; set feedrate
G1 Z5.500000
F1200	; set feedrate
G1 Y78.999998
G0 Z25.000000
  Y98.415020
F100	; set feedrate
G1 Z5.500000
F1200	; set feedrate
G1 Y105.000000
  X67.736587
  Y97.746375
G0 Z25.000000
  Y78.999998
F100	; set feedrate
G1 Z5.500000
F1200	; set feedrate
G1 Y70.999998
G0 Z25.000000
  Y29.000000
F100	; set feedrate
G1 Z5.500000
F1200	; set feedrate
G1 Y21.000000
G0 Z25.000000
  Y2.196036
F100	; set feedrate
G1 Z5.500000
F1200	; set feedrate
G1 Y-5.000000
  X69.510246
  Y2.941226
G0 Z25.000000
  Y21.000000
F100	; set feedrate
G1 Z5.500000
F1200	; set feedrate
G1 Y29.000000
G0 Z25.000000
  Y70.999998
F100	; set feedrate
G1 Z5.500000
F1200	; set feedrate
G1 Y78.999998
G0 Z25.000000
  Y97.077730
F100	; set feedrate
G1 Z5.500000
F1200	; set feedrate
G1 Y105.000000
  X71.283905
  Y96.303410
G0 Z25.000000
  Y78.999998
F100	; set feedrate
G1 Z5.500000
F1200	; set feedrate
G1 Y36.000000
G0 Z25.000000
  Y29.000000
F100	; set feedrate
G1 Z5.500000
F1200	; set feedrate
G1 Y22.698118
G0 Z25.000000
  Y3.716362
F100	; set feedrate
G1 Z5.500000
F1200	; set feedrate
G1 Y-5.000000
  X73.057563
  Y4.524399
G0 Z25.000000
  Y24.471777
F100	; set feedrate
G1 Z5.500000
F1200	; set feedrate
G1 Y29.000000
G0 Z25.000000
  Y36.000000
F100	; set feedrate
G1 Z5.500000
F1200	; set feedrate
G1 Y78.999998
G0 Z25.000000
  Y95.416879
F100	; set feedrate
G1 Z5.500000
F1200	; set feedrate
G1 Y105.000000
  X74.831222
  Y94.530346
G0 Z25.000000
  Y78.999998
F100	; set feedrate
G1 Z5.500000
F1200	; set feedrate
G1 Y36.000000
G0 Z25.000000
  Y29.000000
F100	; set feedrate
G1 Z5.500000
F1200	; set feedrate
G1 Y26.245436
G0 Z25.000000
  Y5.528219
F100	; set feedrate
G1 Z5.500000
F1200	; set feedrate
G1 Y-5.000000
  X76.604881
  Y6.532041
G0 Z25.000000
  Y28.019095
F100	; set feedrate
G1 Z5.500000
F1200	; set feedrate
G1 Y29.000000
G0 Z25.000000
  Y36.000000
F100	; set feedrate
G1 Z5.500000
F1200	; set feedrate
G1 Y78.999998
G0 Z25.000000
  Y93.441606
F100	; set feedrate
G1 Z5.500000
F1200	; set feedrate
G1 Y105.000000
  X78.378540
  Y92.313443
G0 Z25.000000
  Y78.999998
F100	; set feedrate
G1 Z5.500000
F1200	; set feedrate
G1 Y36.000000
G0 Z25.000000
  Y7.681739
F100	; set feedrate
G1 Z5.500000
F1200	; set feedrate
G1 Y-5.000000
  X80.152199
  Y8.942671
G0 Z25.000000
  Y91.091887
F100	; set feedrate
G1 Z5.500000
F1200	; set feedrate
G1 Y105.000000
  X81.925857
  Y89.688085
G0 Z25.000000
  Y10.249615
F100	; set feedrate
G1 Z5.500000
F1200	; set feedrate
G1 Y-5.000000
  X83.699516
  Y11.808442
G0 Z25.000000
  Y88.278580
F100	; set feedrate
G1 Z5.500000
F1200	; set feedrate
G1 Y105.000000
  X85.473175
  Y86.550064
G0 Z25.000000
  Y13.367269
F100	; set feedrate
G1 Z5.500000
F1200	; set feedrate
G1 Y-5.000000
  X87.246834
  Y15.258758
G0 Z25.000000
  Y84.821500
F100	; set feedrate
G1 Z5.500000
F1200	; set feedrate
G1 Y105.000000
  X89.020492
  Y82.736270
G0 Z25.000000
  Y17.175015
F100	; set feedrate
G1 Z5.500000
F1200	; set feedrate
G1 Y-5.000000
  X90.794151
  Y19.502657
G0 Z25.000000
  Y80.607787
F100	; set feedrate
G1 Z5.500000
F1200	; set feedrate
G1 Y105.000000
  X92.567810
  Y77.973752
G0 Z25.000000
  Y21.950466
F100	; set feedrate
G1 Z5.500000
F1200	; set feedrate
G1 Y-5.000000
  X94.341469
  Y24.904240
G0 Z25.000000
  Y75.095771
F100	; set feedrate
G1 Z5.500000
F1200	; set feedrate
G1 Y105.000000
  X96.115127
  Y71.764602
G0 Z25.000000
  Y28.375040
F100	; set feedrate
G1 Z5.500000
F1200	; set feedrate
G1 Y-5.000000
  X97.888786
  Y32.640711
G0 Z25.000000
  Y67.448071
F100	; set feedrate
G1 Z5.500000
F1200	; set feedrate
G1 Y105.000000
  X99.662445
  Y61.578998
G0 Z25.000000
  Y38.684555
F100	; set feedrate
G1 Z5.500000
F1200	; set feedrate
G1 Y-5.000000
  X101.436104
  Y105.000000
  X103.209763
  Y-5.000000
  X104.983421
  Y105.000000
F100	; set feedrate
G1 Z2.750000
F1200	; set feedrate
G1 Y-5.000000
  X103.209763
  Y105.000000
  X101.436104
  Y-5.000000
  X99.662445
  Y38.684557
G0 Z25.000000
  Y61.578998
F100	; set feedrate
G1 Z2.750000
F1200	; set feedrate
G1 Y105.000000
  X97.888786
  Y67.448071
G0 Z25.000000
  Y32.640710
F100	; set feedrate
G1 Z2.750000
F1200	; set feedrate
G1 Y-5.000000
  X96.115127
  Y28.375039
G0 Z25.000000
  Y71.764602
F100	; set feedrate
G1 Z2.750000
F1200	; set feedrate
G1 Y105.000000
  X94.341469
  Y75.095771
G0 Z25.000000
  Y24.904240
F100	; set feedrate
G1 Z2.750000
F1200	; set feedrate
G1 Y-5.000000
  X92.567810
  Y21.950466
G0 Z25.000000
  Y77.973751
F100	; set feedrate
G1 Z2.750000
F1200	; set feedrate
G1 Y105.000000
  X90.794151
  Y80.607787
G0 Z25.000000
  Y19.502657
F100	; set feedrate
G1 Z2.750000
F1200	; set feedrate
G1 Y-5.000000
  X89.020492
  Y17.175015
G0 Z25.000000
  Y82.736271
F100	; set feedrate
G1 Z2.750000
F1200	; set feedrate
G1 Y105.000000
  X87.246834
  Y84.821500
G0 Z25.000000
  Y15.258758
F100	; set feedrate
G1 Z2.750000
F1200	; set feedrate
G1 Y-5.000000
  X85.473175
  Y13.367269
G0 Z25.000000
  Y86.550064
F100	; set feedrate
G1 Z2.750000
F1200	; set feedrate
G1 Y105.000000
  X83.699516
  Y88.278580
G0 Z25.000000
  Y11.808442
F100	; set feedrate
G1 Z2.750000
F1200	; set feedrate
G1 Y-5.000000
  X81.925857
  Y10.249615
G0 Z25.000000
  Y89.688086
F100	; set feedrate
G1 Z2.750000
F1200	; set feedrate
G1 Y105.000000
  X80.152199
  Y91.091887
G0 Z25.000000
  Y8.942671
F100	; set feedrate
G1 Z2.750000
F1200	; set feedrate
G1 Y-5.000000
  X78.378540
  Y7.681739
G0 Z25.000000
  Y36.000000
F100	; set feedrate
G1 Z2.750000
F1200	; set feedrate
G1 Y78.999998
G0 Z25.000000
  Y92.313443
F100	; set feedrate
G1 Z2.750000
F1200	; set feedrate
G1 Y105.000000
  X76.604881
  Y93.441606
G0 Z25.000000
  Y78.999998
F100	; set feedrate
G1 Z2.750000
F1200	; set feedrate
G1 Y36.000000
G0 Z25.000000
  Y29.000000
F100	; set feedrate
G1 Z2.750000
F1200	; set feedrate
G1 Y28.019095
G0 Z25.000000
  Y6.532041
F100	; set feedrate
G1 Z2.750000
F1200	; set feedrate
G1 Y-5.000000
  X74.831222
  Y5.528220
G0 Z25.000000
  Y26.245436
F100	; set feedrate
G1 Z2.750000
F1200	; set feedrate
G1 Y29.000000
G0 Z25.000000
  Y36.000000
F100	; set feedrate
G1 Z2.750000
F1200	; set feedrate
G1 Y78.999998
G0 Z25.000000
  Y94.530346
F100	; set feedrate
G1 Z2.750000
F1200	; set feedrate
G1 Y105.000000
  X73.057563
  Y95.416878
G0 Z25.000000
  Y78.999998
F100	; set feedrate
G1 Z2.750000
F1200	; set feedrate
G1 Y36.000000
G0 Z25.000000
  Y29.000000
F100	; set feedrate
G1 Z2.750000
F1200	; set feedrate
G1 Y24.471777
G0 Z25.000000
  Y4.524399
F100	; set feedrate
G1 Z2.750000
F1200	; set feedrate
G1 Y-5.000000
  X71.283905
  Y3.716362
G0 Z25.000000
  Y22.698118
F100	; set feedrate
G1 Z2.750000
F1200	; set feedrate
G1 Y29.000000
G0 Z25.000000
  Y36.000000
F100	; set feedrate
G1 Z2.750000
F1200	; set feedrate
G1 Y78.999998
G0 Z25.000000
  Y96.303410
F100	; set feedrate
G1 Z2.750000
F1200	; set feedrate
G1 Y105.000000
  X69.510246
  Y97.077730
G0 Z25.000000
  Y78.999998
F100	; set feedrate
G1 Z2.750000
F1200	; set feedrate
G1 Y70.999998
G0 Z25.000000
  Y29.000000
F100	; set feedrate
G1 Z2.750000
F1200	; set feedrate
G1 Y21.000000
G0 Z25.000000
  Y2.941226
F100	; set feedrate
G1 Z2.750000
F1200	; set feedrate
G1 Y-5.000000
  X67.736587
  Y2.196036
G0 Z25.000000
  Y21.000000
F100	; set feedrate
G1 Z2.750000
F1200	; set feedrate
G1 Y29.000000
G0 Z25.000000
  Y70.999998
F100	; set feedrate
G1 Z2.750000
F1200	; set feedrate
G1 Y78.999998
G0 Z25.000000
  Y97.746375
F100	; set feedrate
G1 Z2.750000
F1200	; set feedrate
G1 Y105.000000
  X65.962928
  Y98.415020
G0 Z25.000000
  Y78.999998
F100	; set feedrate
G1 Z2.750000
F1200	; set feedrate
G1 Y70.999998
G0 Z25.000000
  Y29.000000
F100	; set feedrate
G1 Z2.750000
F1200	; set feedrate
G1 Y21.000000
G0 Z25.000000
  Y1.629821
F100	; set feedrate
G1 Z2.750000
F1200	; set feedrate
G1 Y-5.000000
  X64.189270
  Y1.063608
G0 Z25.000000
  Y21.000000
F100	; set feedrate
G1 Z2.750000
F1200	; set feedrate
G1 Y29.000000
G0 Z25.000000
  Y70.999998
F100	; set feedrate
G1 Z2.750000
F1200	; set feedrate
G1 Y78.999998
G0 Z25.000000
  Y98.933559
F100	; set feedrate
G1 Z2.750000
F1200	; set feedrate
G1 Y105.000000
  X62.415611
  Y99.400660
G0 Z25.000000
  Y78.999998
F100	; set feedrate
G1 Z2.750000
F1200	; set feedrate
G1 Y70.999998
G0 Z25.000000
  Y29.000000
F100	; set feedrate
G1 Z2.750000
F1200	; set feedrate
G1 Y21.000000
G0 Z25.000000
  Y0.560570
F100	; set feedrate
G1 Z2.750000
F1200	; set feedrate
G1 Y-5.000000
  X60.641952
  Y0.189928
G0 Z25.000000
  Y21.000000
F100	; set feedrate
G1 Z2.750000
F1200	; set feedrate
G1 Y29.000000
G0 Z25.000000
  Y70.999998
F100	; set feedrate
G1 Z2.750000
F1200	; set feedrate
G1 Y78.999998
G0 Z25.000000
  Y99.867761
F100	; set feedrate
G1 Z2.750000
F1200	; set feedrate
G1 Y105.000000
  X58.868293
  Y100.166548
G0 Z25.000000
  Y78.999998
F100	; set feedrate
G1 Z2.750000
F1200	; set feedrate
G1 Y70.999998
G0 Z25.000000
  Y29.000000
F100	; set feedrate
G1 Z2.750000
F1200	; set feedrate
G1 Y21.000000
G0 Z25.000000
  Y-0.180715
F100	; set feedrate
G1 Z2.750000
F1200	; set feedrate
G1 Y-5.000000
  X57.094635
  Y-0.471735
G0 Z25.000000
  Y21.000000
F100	; set feedrate
G1 Z2.750000
F1200	; set feedrate
G1 Y29.000000
G0 Z25.000000
  Y70.999998
F100	; set feedrate
G1 Z2.750000
F1200	; set feedrate
G1 Y78.999998
G0 Z25.000000
  Y100.442788
F100	; set feedrate
G1 Z2.750000
F1200	; set feedrate
G1 Y105.000000
  X55.320976
  Y100.719027
G0 Z25.000000
  Y78.999998
F100	; set feedrate
G1 Z2.750000
F1200	; set feedrate
G1 Y70.999998
G0 Z25.000000
  Y29.000000
F100	; set feedrate
G1 Z2.750000
F1200	; set feedrate
G1 Y21.000000
G0 Z25.000000
  Y-0.655077
F100	; set feedrate
G1 Z2.750000
F1200	; set feedrate
G1 Y-5.000000
  X53.547317
  Y-0.838419
G0 Z25.000000
  Y21.000000
F100	; set feedrate
G1 Z2.750000
F1200	; set feedrate
G1 Y29.000000
G0 Z25.000000
  Y70.999998
F100	; set feedrate
G1 Z2.750000
F1200	; set feedrate
G1 Y78.999998
G0 Z25.000000
  Y100.818474
F100	; set feedrate
G1 Z2.750000
F1200	; set feedrate
G1 Y105.000000
  X51.773658
  Y100.909901
G0 Z25.000000
  Y78.999998
F100	; set feedrate
G1 Z2.750000
F1200	; set feedrate
G1 Y70.999998
G0 Z25.000000
  Y29.000000
F100	; set feedrate
G1 Z2.750000
F1200	; set feedrate
G1 Y21.000000
G0 Z25.000000
  Y-0.954651
F100	; set feedrate
G1 Z2.750000
F1200	; set feedrate
G1 Y-5.000000
  X49.999999
  Y-1.000000
G0 Z25.000000
  Y21.000000
F100	; set feedrate
G1 Z2.750000
F1200	; set feedrate
G1 Y29.000000
G0 Z25.000000
  Y70.999998
F100	; set feedrate
G1 Z2.750000
F1200	; set feedrate
G1 Y78.999998
G0 Z25.000000
  Y101.000000
F100	; set feedrate
G1 Z2.750000
F1200	; set feedrate
G1 Y105.000000
  X48.226341
  Y100.909901
G0 Z25.000000
  Y78.999998
F100	; set feedrate
G1 Z2.750000
F1200	; set feedrate
G1 Y70.999998
G0 Z25.000000
  Y29.000000
F100	; set feedrate
G1 Z2.750000
F1200	; set feedrate
G1 Y21.000000
G0 Z25.000000
  Y-0.954651
F100	; set feedrate
G1 Z2.750000
F1200	; set feedrate
G1 Y-5.000000
  X46.452682
  Y-0.838419
G0 Z25.000000
  Y21.000000
F100	; set feedrate
G1 Z2.750000
F1200	; set feedrate
G1 Y29.000000
G0 Z25.000000
  Y70.999998
F100	; set feedrate
G1 Z2.750000
F1200	; set feedrate
G1 Y78.999998
G0 Z25.000000
  Y100.818474
F100	; set feedrate
G1 Z2.750000
F1200	; set feedrate
G1 Y105.000000
  X44.679023
  Y100.719027
G0 Z25.000000
  Y78.999998
F100	; set feedrate
G1 Z2.750000
F1200	; set feedrate
G1 Y70.999998
G0 Z25.000000
  Y29.000000
F100	; set feedrate
G1 Z2.750000
F1200	; set feedrate
G1 Y21.000000
G0 Z25.000000
  Y-0.655077
F100	; set feedrate
G1 Z2.750000
F1200	; set feedrate
G1 Y-5.000000
  X42.905364
  Y-0.471735
G0 Z25.000000
  Y21.000000
F100	; set feedrate
G1 Z2.750000
F1200	; set feedrate
G1 Y29.000000
G0 Z25.000000
  Y70.999998
F100	; set feedrate
G1 Z2.750000
F1200	; set feedrate
G1 Y78.999998
G0 Z25.000000
  Y100.442787
F100	; set feedrate
G1 Z2.750000
F1200	; set feedrate
G1 Y105.000000
  X41.131706
  Y100.166547
G0 Z25.000000
  Y78.999998
F100	; set feedrate
G1 Z2.750000
F1200	; set feedrate
G1 Y70.999998
G0 Z25.000000
  Y29.000000
F100	; set feedrate
G1 Z2.750000
F1200	; set feedrate
G1 Y21.000000
G0 Z25.000000
  Y-0.180714
F100	; set feedrate
G1 Z2.750000
F1200	; set feedrate
G1 Y-5.000000
  X39.358047
  Y0.189928
G0 Z25.000000
  Y21.000000
F100	; set feedrate
G1 Z2.750000
F1200	; set feedrate
G1 Y29.000000
G0 Z25.000000
  Y70.999998
F100	; set feedrate
G1 Z2.750000
F1200	; set feedrate
G1 Y78.999998
G0 Z25.000000
  Y99.867761
F100	; set feedrate
G1 Z2.750000
F1200	; set feedrate
G1 Y105.000000
  X37.584388
  Y99.400660
G0 Z25.000000
  Y78.999998
F100	; set feedrate
G1 Z2.750000
F1200	; set feedrate
G1 Y70.999998
G0 Z25.000000
  Y29.000000
F100	; set feedrate
G1 Z2.750000
F1200	; set feedrate
G1 Y21.000000
G0 Z25.000000
  Y0.560571
F100	; set feedrate
G1 Z2.750000
F1200	; set feedrate
G1 Y-5.000000
  X35.810729
  Y1.063609
G0 Z25.000000
  Y21.000000
F100	; set feedrate
G1 Z2.750000
F1200	; set feedrate
G1 Y29.000000
G0 Z25.000000
  Y98.933559
F100	; set feedrate
G1 Z2.750000
F1200	; set feedrate
G1 Y105.000000
  X34.037070
  Y98.415020
G0 Z25.000000
  Y29.000000
F100	; set feedrate
G1 Z2.750000
F1200	; set feedrate
G1 Y21.000000
G0 Z25.000000
  Y1.629823
F100	; set feedrate
G1 Z2.750000
F1200	; set feedrate
G1 Y-5.000000
  X32.263412
  Y2.196036
G0 Z25.000000
  Y21.000000
F100	; set feedrate
G1 Z2.750000
F1200	; set feedrate
G1 Y29.000000
G0 Z25.000000
  Y97.746375
F100	; set feedrate
G1 Z2.750000
F1200	; set feedrate
G1 Y105.000000
  X30.489753
  Y97.077729
G0 Z25.000000
  Y29.000000
F100	; set feedrate
G1 Z2.750000
F1200	; set feedrate
G1 Y21.000000
G0 Z25.000000
  Y2.941226
F100	; set feedrate
G1 Z2.750000
F1200	; set feedrate
G1 Y-5.000000
  X28.716094
  Y3.716362
G0 Z25.000000
  Y21.000000
F100	; set feedrate
G1 Z2.750000
F1200	; set feedrate
G1 Y77.301877
G0 Z25.000000
  Y96.303409
F100	; set feedrate
G1 Z2.750000
F1200	; set feedrate
G1 Y105.000000
  X26.942435
  Y95.416877
G0 Z25.000000
  Y75.528218
F100	; set feedrate
G1 Z2.750000
F1200	; set feedrate
G1 Y21.000000
G0 Z25.000000
  Y4.524399
F100	; set feedrate
G1 Z2.750000
F1200	; set feedrate
G1 Y-5.000000
  X25.168777
  Y5.528219
G0 Z25.000000
  Y21.000000
F100	; set feedrate
G1 Z2.750000
F1200	; set feedrate
G1 Y73.754559
G0 Z25.000000
  Y94.530345
F100	; set feedrate
G1 Z2.750000
F1200	; set feedrate
G1 Y105.000000
  X23.395118
  Y93.441605
G0 Z25.000000
  Y71.980900
F100	; set feedrate
G1 Z2.750000
F1200	; set feedrate
G1 Y21.000000
G0 Z25.000000
  Y6.532040
F100	; set feedrate
G1 Z2.750000
F1200	; set feedrate
G1 Y-5.000000
  X21.621459
  Y7.681738
G0 Z25.000000
  Y21.000000
F100	; set feedrate
G1 Z2.750000
F1200	; set feedrate
G1 Y70.207242
G0 Z25.000000
  Y92.313442
F100	; set feedrate
G1 Z2.750000
F1200	; set feedrate
G1 Y105.000000
  X19.847800
  Y91.091887
G0 Z25.000000
  Y8.942671
F100	; set feedrate
G1 Z2.750000
F1200	; set feedrate
G1 Y-5.000000
  X18.074142
  Y10.249615
G0 Z25.000000
  Y89.688084
F100	; set feedrate
G1 Z2.750000
F1200	; set feedrate
G1 Y105.000000
  X16.300483
  Y88.278579
G0 Z25.000000
  Y11.808443
F100	; set feedrate
G1 Z2.750000
F1200	; set feedrate
G1 Y-5.000000
  X14.526824
  Y13.367271
G0 Z25.000000
  Y86.550064
F100	; set feedrate
G1 Z2.750000
F1200	; set feedrate
G1 Y105.000000
  X12.753165
  Y84.821500
G0 Z25.000000
  Y15.258758
F100	; set feedrate
G1 Z2.750000
F1200	; set feedrate
G1 Y-5.000000
  X10.979506
  Y17.175014
G0 Z25.000000
  Y82.736268
F100	; set feedrate
G1 Z2.750000
F1200	; set feedrate
G1 Y105.000000
  X9.205848
  Y80.607781
G0 Z25.000000
  Y19.502657
F100	; set feedrate
G1 Z2.750000
F1200	; set feedrate
G1 Y-5.000000
  X7.432189
  Y21.950470
G0 Z25.000000
  Y77.973747
F100	; set feedrate
G1 Z2.750000
F1200	; set feedrate
G1 Y105.000000
  X5.658530
  Y75.095769
G0 Z25.000000
  Y24.904246
F100	; set feedrate
G1 Z2.750000
F1200	; set feedrate
G1 Y-5.000000
  X3.884871
  Y28.375048
G0 Z25.000000
  Y71.764603
F100	; set feedrate
G1 Z2.750000
F1200	; set feedrate
G1 Y105.000000
  X2.111213
  Y67.448063
G0 Z25.000000
  Y32.640718
F100	; set feedrate
G1 Z2.750000
F1200	; set feedrate
G1 Y-5.000000
  X0.337554
  Y38.684575
G0 Z25.000000
  Y61.578988
F100	; set feedrate
G1 Z2.750000
F1200	; set feedrate
G1 Y105.000000
  X-1.436105
  Y-5.000000
  X-3.209764
  Y105.000000
  X-4.983422
  Y-5.000000
F100	; set feedrate
G1 Z-0.000000
F1200	; set feedrate
G1 Y105.000000
  X-3.209764
  Y-5.000000
  X-1.436105
  Y105.000000
  X0.337554
  Y61.578988
G0 Z25.000000
  Y38.684575
F100	; set feedrate
G1 Z-0.000000
F1200	; set feedrate
G1 Y-5.000000
  X2.111213
  Y32.640718
G0 Z25.000000
  Y67.448063
F100	; set feedrate
G1 Z-0.000000
F1200	; set feedrate
G1 Y105.000000
  X3.884871
  Y71.764603
G0 Z25.000000
  Y28.375048
F100	; set feedrate
G1 Z-0.000000
F1200	; set feedrate
G1 Y-5.000000
  X5.658530
  Y24.904246
G0 Z25.000000
  Y75.095769
F100	; set feedrate
G1 Z-0.000000
F1200	; set feedrate
G1 Y105.000000
  X7.432189
  Y77.973747
G0 Z25.000000
  Y21.950470
F100	; set feedrate
G1 Z-0.000000
F1200	; set feedrate
G1 Y-5.000000
  X9.205848
  Y19.502657
G0 Z25.000000
  Y80.607781
F100	; set feedrate
G1 Z-0.000000
F1200	; set feedrate
G1 Y105.000000
  X10.979506
  Y82.736268
G0 Z25.000000
  Y17.175014
F100	; set feedrate
G1 Z-0.000000
F1200	; set feedrate
G1 Y-5.000000
  X12.753165
  Y15.258758
G0 Z25.000000
  Y84.821500
F100	; set feedrate
G1 Z-0.000000
F1200	; set feedrate
G1 Y105.000000
  X14.526824
  Y86.550064
G0 Z25.000000
  Y13.367271
F100	; set feedrate
G1 Z-0.000000
F1200	; set feedrate
G1 Y-5.000000
  X16.300483
  Y11.808443
G0 Z25.000000
  Y88.278579
F100	; set feedrate
G1 Z-0.000000
F1200	; set feedrate
G1 Y105.000000
  X18.074142
  Y89.688084
G0 Z25.000000
  Y10.249615
F100	; set feedrate
G1 Z-0.000000
F1200	; set feedrate
G1 Y-5.000000
  X19.847800
  Y8.942671
G0 Z25.000000
  Y91.091887
F100	; set feedrate
G1 Z-0.000000
F1200	; set feedrate
G1 Y105.000000
  X21.621459
  Y92.313442
G0 Z25.000000
  Y70.207242
F100	; set feedrate
G1 Z-0.000000
F1200	; set feedrate
G1 Y21.000000
G0 Z25.000000
  Y7.681738
F100	; set feedrate
G1 Z-0.000000
F1200	; set feedrate
G1 Y-5.000000
  X23.395118
  Y6.532040
G0 Z25.000000
  Y21.000000
F100	; set feedrate
G1 Z-0.000000
F1200	; set feedrate
G1 Y71.980900
G0 Z25.000000
  Y93.441605
F100	; set feedrate
G1 Z-0.000000
F1200	; set feedrate
G1 Y105.000000
  X25.168777
  Y94.530345
G0 Z25.000000
  Y73.754559
F100	; set feedrate
G1 Z-0.000000
F1200	; set feedrate
G1 Y21.000000
G0 Z25.000000
  Y5.528219
F100	; set feedrate
G1 Z-0.000000
F1200	; set feedrate
G1 Y-5.000000
  X26.942435
  Y4.524399
G0 Z25.000000
  Y21.000000
F100	; set feedrate
G1 Z-0.000000
F1200	; set feedrate
G1 Y75.528218
G0 Z25.000000
  Y95.416877
F100	; set feedrate
G1 Z-0.000000
F1200	; set feedrate
G1 Y105.000000
  X28.716094
  Y96.303409
G0 Z25.000000
  Y77.301877
F100	; set feedrate
G1 Z-0.000000
F1200	; set feedrate
G1 Y21.000000
G0 Z25.000000
  Y3.716362
F100	; set feedrate
G1 Z-0.000000
F1200	; set feedrate
G1 Y-5.000000
  X30.489753
  Y2.941226
G0 Z25.000000
  Y21.000000
F100	; set feedrate
G1 Z-0.000000
F1200	; set feedrate
G1 Y29.000000
G0 Z25.000000
  Y97.077729
F100	; set feedrate
G1 Z-0.000000
F1200	; set feedrate
G1 Y105.000000
F100	; set feedrate
G1 Z-0.000000
F1200	; set feedrate
G1 X32.263412
  Y97.746375
G0 Z25.000000
  Y29.000000
F100	; set feedrate
G1 Z-0.000000
F1200	; set feedrate
G1 Y21.000000
G0 Z25.000000
  Y2.196036
F100	; set feedrate
G1 Z-0.000000
F1200	; set feedrate
G1 Y-5.000000
  X34.037070
  Y1.629823
G0 Z25.000000
  Y21.000000
F100	; set feedrate
G1 Z-0.000000
F1200	; set feedrate
G1 Y29.000000
G0 Z25.000000
  Y98.415020
F100	; set feedrate
G1 Z-0.000000
F1200	; set feedrate
G1 Y105.000000
F100	; set feedrate
G1 Z-0.000000
F1200	; set feedrate
G1 X35.810729
  Y98.933559
G0 Z25.000000
  Y29.000000
F100	; set feedrate
G1 Z-0.000000
F1200	; set feedrate
G1 Y21.000000
G0 Z25.000000
  Y1.063609
F100	; set feedrate
G1 Z-0.000000
F1200	; set feedrate
G1 Y-5.000000
  X37.584388
  Y0.560571
G0 Z25.000000
  Y21.000000
F100	; set feedrate
G1 Z-0.000000
F1200	; set feedrate
G1 Y29.000000
G0 Z25.000000
  Y70.999998
F100	; set feedrate
G1 Z-0.000000
F1200	; set feedrate
G1 Y78.999998
G0 Z25.000000
  Y99.400660
F100	; set feedrate
G1 Z-0.000000
F1200	; set feedrate
G1 Y105.000000
F100	; set feedrate
G1 Z-0.000000
F1200	; set feedrate
G1 X39.358047
  Y99.867761
G0 Z25.000000
  Y78.999998
F100	; set feedrate
G1 Z-0.000000
F1200	; set feedrate
G1 Y70.999998
G0 Z25.000000
  Y29.000000
F100	; set feedrate
G1 Z-0.000000
F1200	; set feedrate
G1 Y21.000000
G0 Z25.000000
  Y0.189928
F100	; set feedrate
G1 Z-0.000000
F1200	; set feedrate
G1 Y-5.000000
  X41.131706
  Y-0.180714
G0 Z25.000000
  Y21.000000
F100	; set feedrate
G1 Z-0.000000
F1200	; set feedrate
G1 Y29.000000
G0 Z25.000000
  Y70.999998
F100	; set feedrate
G1 Z-0.000000
F1200	; set feedrate
G1 Y78.999998
G0 Z25.000000
  Y100.166547
F100	; set feedrate
G1 Z-0.000000
F1200	; set feedrate
G1 Y105.000000
  X42.905364
  Y100.442787
G0 Z25.000000
  Y78.999998
F100	; set feedrate
G1 Z-0.000000
F1200	; set feedrate
G1 Y70.999998
G0 Z25.000000
  Y29.000000
F100	; set feedrate
G1 Z-0.000000
F1200	; set feedrate
G1 Y21.000000
G0 Z25.000000
  Y-0.471735
F100	; set feedrate
G1 Z-0.000000
F1200	; set feedrate
G1 Y-5.000000
  X44.679023
  Y-0.655077
G0 Z25.000000
  Y21.000000
F100	; set feedrate
G1 Z-0.000000
F1200	; set feedrate
G1 Y29.000000
G0 Z25.000000
  Y70.999998
F100	; set feedrate
G1 Z-0.000000
F1200	; set feedrate
G1 Y78.999998
G0 Z25.000000
  Y100.719027
F100	; set feedrate
G1 Z-0.000000
F1200	; set feedrate
G1 Y105.000000
F100	; set feedrate
G1 Z-0.000000
F1200	; set feedrate
G1 X46.452682
  Y100.818474
G0 Z25.000000
  Y78.999998
F100	; set feedrate
G1 Z-0.000000
F1200	; set feedrate
G1 Y70.999998
G0 Z25.000000
  Y29.000000
F100	; set feedrate
G1 Z-0.000000
F1200	; set feedrate
G1 Y21.000000
G0 Z25.000000
  Y-0.838419
F100	; set feedrate
G1 Z-0.000000
F1200	; set feedrate
G1 Y-5.000000
  X48.226341
  Y-0.954651
G0 Z25.000000
  Y21.000000
F100	; set feedrate
G1 Z-0.000000
F1200	; set feedrate
G1 Y29.000000
G0 Z25.000000
  Y70.999998
F100	; set feedrate
G1 Z-0.000000
F1200	; set feedrate
G1 Y78.999998
G0 Z25.000000
  Y100.909901
F100	; set feedrate
G1 Z-0.000000
F1200	; set feedrate
G1 Y105.000000
F100	; set feedrate
G1 Z-0.000000
F1200	; set feedrate
G1 X49.999999
  Y101.000000
G0 Z25.000000
  Y78.999998
F100	; set feedrate
G1 Z-0.000000
F1200	; set feedrate
G1 Y70.999998
G0 Z25.000000
  Y29.000000
F100	; set feedrate
G1 Z-0.000000
F1200	; set feedrate
G1 Y21.000000
G0 Z25.000000
  Y-1.000000
F100	; set feedrate
G1 Z-0.000000
F1200	; set feedrate
G1 Y-5.000000
  X51.773658
  Y-0.954651
G0 Z25.000000
  Y21.000000
F100	; set feedrate
G1 Z-0.000000
F1200	; set feedrate
G1 Y29.000000
G0 Z25.000000
  Y70.999998
F100	; set feedrate
G1 Z-0.000000
F1200	; set feedrate
G1 Y78.999998
G0 Z25.000000
  Y100.909901
F100	; set feedrate
G1 Z-0.000000
F1200	; set feedrate
G1 Y105.000000
F100	; set feedrate
G1 Z-0.000000
F1200	; set feedrate
G1 X53.547317
  Y100.818474
G0 Z25.000000
  Y78.999998
F100	; set feedrate
G1 Z-0.000000
F1200	; set feedrate
G1 Y70.999998
G0 Z25.000000
  Y29.000000
F100	; set feedrate
G1 Z-0.000000
F1200	; set feedrate
G1 Y21.000000
G0 Z25.000000
  Y-0.838419
F100	; set feedrate
G1 Z-0.000000
F1200	; set feedrate
G1 Y-5.000000
  X55.320976
  Y-0.655077
G0 Z25.000000
  Y21.000000
F100	; set feedrate
G1 Z-0.000000
F1200	; set feedrate
G1 Y29.000000
G0 Z25.000000
  Y70.999998
F100	; set feedrate
G1 Z-0.000000
F1200	; set feedrate
G1 Y78.999998
G0 Z25.000000
  Y100.719027
F100	; set feedrate
G1 Z-0.000000
F1200	; set feedrate
G1 Y105.000000
  X57.094635
  Y100.442788
G0 Z25.000000
  Y78.999998
F100	; set feedrate
G1 Z-0.000000
F1200	; set feedrate
G1 Y70.999998
G0 Z25.000000
  Y29.000000
F100	; set feedrate
G1 Z-0.000000
F1200	; set feedrate
G1 Y21.000000
G0 Z25.000000
  Y-0.471736
F100	; set feedrate
G1 Z-0.000000
F1200	; set feedrate
G1 Y-5.000000
  X58.868293
  Y-0.180715
G0 Z25.000000
  Y21.000000
F100	; set feedrate
G1 Z-0.000000
F1200	; set feedrate
G1 Y29.000000
G0 Z25.000000
  Y70.999998
F100	; set feedrate
G1 Z-0.000000
F1200	; set feedrate
G1 Y78.999998
G0 Z25.000000
  Y100.166548
F100	; set feedrate
G1 Z-0.000000
F1200	; set feedrate
G1 Y105.000000
  X60.641952
  Y99.867761
G0 Z25.000000
  Y78.999998
F100	; set feedrate
G1 Z-0.000000
F1200	; set feedrate
G1 Y70.999998
G0 Z25.000000
  Y29.000000
F100	; set feedrate
G1 Z-0.000000
F1200	; set feedrate
G1 Y21.000000
G0 Z25.000000
  Y0.189928
F100	; set feedrate
G1 Z-0.000000
F1200	; set feedrate
G1 Y-5.000000
  X62.415611
  Y0.560570
G0 Z25.000000
  Y21.000000
F100	; set feedrate
G1 Z-0.000000
F1200	; set feedrate
G1 Y29.000000
G0 Z25.000000
  Y70.999998
F100	; set feedrate
G1 Z-0.000000
F1200	; set feedrate
G1 Y78.999998
G0 Z25.000000
  Y99.400660
F100	; set feedrate
G1 Z-0.000000
F1200	; set feedrate
G1 Y105.000000
  X64.189270
  Y98.933559
G0 Z25.000000
  Y78.999998
F100	; set feedrate
G1 Z-0.000000
F1200	; set feedrate
G1 Y70.999998
G0 Z25.000000
  Y29.000000
F100	; set feedrate
G1 Z-0.000000
F1200	; set feedrate
G1 Y21.000000
G0 Z25.000000
  Y1.063608
F100	; set feedrate
G1 Z-0.000000
F1200	; set feedrate
G1 Y-5.000000
  X65.962928
  Y1.629821
G0 Z25.000000
  Y21.000000
F100	; set feedrate
G1 Z-0.000000
F1200	; set feedrate
G1 Y29.000000
G0 Z25.000000
  Y70.999998
F100	; set feedrate
G1 Z-0.000000
F1200	; set feedrate
G1 Y78.999998
G0 Z25.000000
  Y98.415020
F100	; set feedrate
G1 Z-0.000000
F1200	; set feedrate
G1 Y105.000000
F100	; set feedrate
G1 Z-0.000000
F1200	; set feedrate
G1 X67.736587
  Y97.746375
G0 Z25.000000
  Y78.999998
F100	; set feedrate
G1 Z-0.000000
F1200	; set feedrate
G1 Y70.999998
G0 Z25.000000
  Y29.000000
F100	; set feedrate
G1 Z-0.000000
F1200	; set feedrate
G1 Y21.000000
G0 Z25.000000
  Y2.196036
F100	; set feedrate
G1 Z-0.000000
F1200	; set feedrate
G1 Y-5.000000
  X69.510246
  Y2.941226
G0 Z25.000000
  Y21.000000
F100	; set feedrate
G1 Z-0.000000
F1200	; set feedrate
G1 Y29.000000
G0 Z25.000000
  Y70.999998
F100	; set feedrate
G1 Z-0.000000
F1200	; set feedrate
G1 Y78.999998
G0 Z25.000000
  Y97.077730
F100	; set feedrate
G1 Z-0.000000
F1200	; set feedrate
G1 Y105.000000
  X71.283905
  Y96.303410
G0 Z25.000000
  Y78.999998
F100	; set feedrate
G1 Z-0.000000
F1200	; set feedrate
G1 Y36.000000
G0 Z25.000000
  Y29.000000
F100	; set feedrate
G1 Z-0.000000
F1200	; set feedrate
G1 Y22.698118
G0 Z25.000000
  Y3.716361
F100	; set feedrate
G1 Z-0.000000
F1200	; set feedrate
G1 Y-5.000000
  X73.057563
  Y4.524399
G0 Z25.000000
  Y24.471777
F100	; set feedrate
G1 Z-0.000000
F1200	; set feedrate
G1 Y29.000000
G0 Z25.000000
  Y36.000000
F100	; set feedrate
G1 Z-0.000000
F1200	; set feedrate
G1 Y78.999998
G0 Z25.000000
  Y95.416878
F100	; set feedrate
G1 Z-0.000000
F1200	; set feedrate
G1 Y105.000000
  X74.831222
  Y94.530346
G0 Z25.000000
  Y78.999998
F100	; set feedrate
G1 Z-0.000000
F1200	; set feedrate
G1 Y36.000000
G0 Z25.000000
  Y29.000000
F100	; set feedrate
G1 Z-0.000000
F1200	; set feedrate
G1 Y26.245436
G0 Z25.000000
  Y5.528220
F100	; set feedrate
G1 Z-0.000000
F1200	; set feedrate
G1 Y-5.000000
  X76.604881
  Y6.532041
G0 Z25.000000
  Y28.019095
F100	; set feedrate
G1 Z-0.000000
F1200	; set feedrate
G1 Y29.000000
G0 Z25.000000
  Y36.000000
F100	; set feedrate
G1 Z-0.000000
F1200	; set feedrate
G1 Y78.999998
G0 Z25.000000
  Y93.441606
F100	; set feedrate
G1 Z-0.000000
F1200	; set feedrate
G1 Y105.000000
  X78.378540
  Y92.313443
G0 Z25.000000
  Y78.999998
F100	; set feedrate
G1 Z-0.000000
F1200	; set feedrate
G1 Y36.000000
G0 Z25.000000
  Y7.681739
F100	; set feedrate
G1 Z-0.000000
F1200	; set feedrate
G1 Y-5.000000
  X80.152199
  Y8.942671
G0 Z25.000000
  Y91.091888
F100	; set feedrate
G1 Z-0.000000
F1200	; set feedrate
G1 Y105.000000
  X81.925857
  Y89.688086
G0 Z25.000000
  Y10.249615
F100	; set feedrate
G1 Z-0.000000
F1200	; set feedrate
G1 Y-5.000000
  X83.699516
  Y11.808442
G0 Z25.000000
  Y88.278580
F100	; set feedrate
G1 Z-0.000000
F1200	; set feedrate
G1 Y105.000000
  X85.473175
  Y86.550064
G0 Z25.000000
  Y13.367269
F100	; set feedrate
G1 Z-0.000000
F1200	; set feedrate
G1 Y-5.000000
  X87.246834
  Y15.258758
G0 Z25.000000
  Y84.821500
F100	; set feedrate
G1 Z-0.000000
F1200	; set feedrate
G1 Y105.000000
  X89.020492
  Y82.736271
G0 Z25.000000
  Y17.175015
F100	; set feedrate
G1 Z-0.000000
F1200	; set feedrate
G1 Y-5.000000
  X90.794151
  Y19.502657
G0 Z25.000000
  Y80.607787
F100	; set feedrate
G1 Z-0.000000
F1200	; set feedrate
G1 Y105.000000
  X92.567810
  Y77.973751
G0 Z25.000000
  Y21.950466
F100	; set feedrate
G1 Z-0.000000
F1200	; set feedrate
G1 Y-5.000000
  X94.341469
  Y24.904240
G0 Z25.000000
  Y75.095771
F100	; set feedrate
G1 Z-0.000000
F1200	; set feedrate
G1 Y105.000000
  X96.115127
  Y71.764602
G0 Z25.000000
  Y28.375039
F100	; set feedrate
G1 Z-0.000000
F1200	; set feedrate
G1 Y-5.000000
  X97.888786
  Y32.640710
G0 Z25.000000
  Y67.448071
F100	; set feedrate
G1 Z-0.000000
F1200	; set feedrate
G1 Y105.000000
  X99.662445
  Y61.578998
G0 Z25.000000
  Y38.684557
F100	; set feedrate
G1 Z-0.000000
F1200	; set feedrate
G1 Y-5.000000
  X101.436104
  Y105.000000
  X103.209763
  Y-5.000000
  X104.983421
  Y105.000000
M5	; stop spindle
G0 Z25.000000
M2	; end program
