; Generated by PyCAM 0.7.0~pre0.588.g4687f2f6: 2021-07-08
G40	; disable tool radius compensation
G49	; disable tool length compensation
G80	; cancel modal motion
G54	; select coordinate system 1
G90	; disable incremental moves
G21	; metric
F1200	; set feedrate
G64 P0.000000	; continuous mode with tolerance
M5	; stop spindle
T2 M6	; select tool
S1000	; set spindle speed
M3	; start spindle
G04 P2.0	; wait for 2.0 seconds
G0 X-5.000000 Y-5.000000 Z25.000000
G1 Z26.000000
  X25.000000
  Y-3.235294
  X-5.000000
  Y-1.470588
  X25.000000
  Y0.294118
  X-5.000000
  Y2.058824
  X25.000000
  Y3.823529
  X-5.000000
  Y5.588235
  X25.000000
  Y7.352941
  X-5.000000
  Y9.117647
  X25.000000
  Y10.882353
  X-5.000000
  Y12.647059
  X25.000000
  Y14.411765
  X-5.000000
  Y16.176471
  X25.000000
  Y17.941176
  X-5.000000
  Y19.705882
  X25.000000
  Y21.470588
  X-5.000000
  Y23.235294
  X25.000000
  Y25.000000
  X-5.000000
  Y-5.000000
  X-3.235294
  Y25.000000
  X-1.470588
  Y-5.000000
  X0.294118
  Y25.000000
  X2.058824
  Y-5.000000
  X3.823529
  Y25.000000
  X5.588235
  Y-5.000000
  X7.352941
  Y25.000000
  X9.117647
  Y-5.000000
  X10.882353
  Y25.000000
  X12.647059
  Y-5.000000
  X14.411765
  Y25.000000
  X16.176471
  Y-5.000000
  X17.941176
  Y25.000000
  X19.705882
  Y-5.000000
  X21.470588
  Y25.000000
  X23.235294
  Y-5.000000
  X25.000000
  Y25.000000
F100	; set feedrate
G1 Z25.000000
F1200	; set feedrate
G1 X-5.000000
  Y23.235294
  X25.000000
  Y21.470588
  X-5.000000
  Y19.705882
  X25.000000
  Y17.941176
  X-5.000000
  Y16.176471
  X25.000000
  Y14.411765
  X-5.000000
  Y12.647059
  X25.000000
  Y10.882353
  X-5.000000
  Y9.117647
  X25.000000
  Y7.352941
  X-5.000000
  Y5.588235
  X25.000000
  Y3.823529
  X-5.000000
  Y2.058824
  X25.000000
  Y0.294118
  X-5.000000
  Y-1.470588
  X25.000000
  Y-3.235294
  X-5.000000
  Y-5.000000
  X25.000000
  Y25.000000
  X23.235294
  Y-5.000000
  X21.470588
  Y25.000000
  X19.705882
  Y-5.000000
  X17.941176
  Y25.000000
  X16.176471
  Y-5.000000
  X14.411765
  Y25.000000
  X12.647059
  Y-5.000000
  X10.882353
  Y25.000000
  X9.117647
  Y-5.000000
  X7.352941
  Y25.000000
  X5.588235
  Y-5.000000
  X3.823529
  Y25.000000
  X2.058824
  Y-5.000000
  X0.294118
  Y25.000000
  X-1.470588
  Y-5.000000
  X-3.235294
  Y25.000000
  X-5.000000
  Y-5.000000
F100	; set feedrate
G1 Z24.000000
F1200	; set feedrate
G1 X25.000000
  Y-3.235294
  X-5.000000
  Y-1.470588
  X25.000000
  Y0.294118
  X-5.000000
  Y2.058824
  X25.000000
  Y3.823529
  X-5.000000
  Y5.588235
  X5.947547
G0 Z25.000000
  X14.052453
F100	; set feedrate
G1 Z24.000000
F1200	; set feedrate
G1 X25.000000
  Y7.352941
  X15.374586
G0 Z25.000000
  X4.625414
F100	; set feedrate
G1 Z24.000000
F1200	; set feedrate
G1 X-5.000000
  Y9.117647
  X4.070169
G0 Z25.000000
  X15.929830
F100	; set feedrate
G1 Z24.000000
F1200	; set feedrate
G1 X25.000000
  Y10.882353
  X15.929830
G0 Z25.000000
  X4.070169
F100	; set feedrate
G1 Z24.000000
F1200	; set feedrate
G1 X-5.000000
  Y12.647059
  X4.625414
G0 Z25.000000
  X15.374586
F100	; set feedrate
G1 Z24.000000
F1200	; set feedrate
G1 X25.000000
  Y14.411765
  X14.052454
G0 Z25.000000
  X5.947546
F100	; set feedrate
G1 Z24.000000
F1200	; set feedrate
G1 X-5.000000
  Y16.176471
  X25.000000
  Y17.941176
  X-5.000000
  Y19.705882
  X25.000000
  Y21.470588
  X-5.000000
  Y23.235294
  X25.000000
  Y25.000000
  X-5.000000
  Y-5.000000
  X-3.235294
  Y25.000000
  X-1.470588
  Y-5.000000
  X0.294118
  Y25.000000
  X2.058824
  Y-5.000000
  X3.823529
  Y25.000000
  X5.588235
  Y14.064476
G0 Z25.000000
  Y5.935524
F100	; set feedrate
G1 Z24.000000
F1200	; set feedrate
G1 Y-5.000000
  X7.352941
  Y4.619574
G0 Z25.000000
  Y15.380426
F100	; set feedrate
G1 Z24.000000
F1200	; set feedrate
G1 Y25.000000
  X9.117647
  Y15.926276
G0 Z25.000000
  Y4.073724
F100	; set feedrate
G1 Z24.000000
F1200	; set feedrate
G1 Y-5.000000
  X10.882353
  Y4.073724
G0 Z25.000000
  Y15.926276
F100	; set feedrate
G1 Z24.000000
F1200	; set feedrate
G1 Y25.000000
  X12.647059
  Y15.380426
G0 Z25.000000
  Y4.619573
F100	; set feedrate
G1 Z24.000000
F1200	; set feedrate
G1 Y-5.000000
  X14.411765
  Y5.935524
G0 Z25.000000
  Y14.064476
F100	; set feedrate
G1 Z24.000000
F1200	; set feedrate
G1 Y25.000000
  X16.176471
  Y-5.000000
  X17.941176
  Y25.000000
  X19.705882
  Y-5.000000
  X21.470588
  Y25.000000
  X23.235294
  Y-5.000000
  X25.000000
  Y25.000000
F100	; set feedrate
G1 Z23.000000
F1200	; set feedrate
G1 X-5.000000
  Y23.235294
  X25.000000
  Y21.470588
  X-5.000000
  Y19.705882
  X25.000000
  Y17.941176
  X-5.000000
  Y16.176471
  X25.000000
  Y14.411765
  X14.052454
G0 Z25.000000
  X5.947546
F100	; set feedrate
G1 Z23.000000
F1200	; set feedrate
G1 X-5.000000
  Y12.647059
  X4.625414
G0 Z25.000000
  X15.374586
F100	; set feedrate
G1 Z23.000000
F1200	; set feedrate
G1 X25.000000
  Y10.882353
  X15.929830
G0 Z25.000000
  X4.070169
F100	; set feedrate
G1 Z23.000000
F1200	; set feedrate
G1 X-5.000000
  Y9.117647
  X4.070169
G0 Z25.000000
  X15.929830
F100	; set feedrate
G1 Z23.000000
F1200	; set feedrate
G1 X25.000000
  Y7.352941
  X15.374586
G0 Z25.000000
  X4.625414
F100	; set feedrate
G1 Z23.000000
F1200	; set feedrate
G1 X-5.000000
  Y5.588235
  X5.947547
G0 Z25.000000
  X14.052453
F100	; set feedrate
G1 Z23.000000
F1200	; set feedrate
G1 X25.000000
  Y3.823529
  X-5.000000
  Y2.058824
  X25.000000
  Y0.294118
  X-5.000000
  Y-1.470588
  X25.000000
  Y-3.235294
  X-5.000000
  Y-5.000000
  X25.000000
  Y25.000000
  X23.235294
  Y-5.000000
  X21.470588
  Y25.000000
  X19.705882
  Y-5.000000
  X17.941176
  Y25.000000
  X16.176471
  Y-5.000000
  X14.411765
  Y5.935524
G0 Z25.000000
  Y14.064476
F100	; set feedrate
G1 Z23.000000
F1200	; set feedrate
G1 Y25.000000
  X12.647059
  Y15.380426
G0 Z25.000000
  Y4.619573
F100	; set feedrate
G1 Z23.000000
F1200	; set feedrate
G1 Y-5.000000
  X10.882353
  Y4.073724
G0 Z25.000000
  Y15.926276
F100	; set feedrate
G1 Z23.000000
F1200	; set feedrate
G1 Y25.000000
  X9.117647
  Y15.926276
G0 Z25.000000
  Y4.073724
F100	; set feedrate
G1 Z23.000000
F1200	; set feedrate
G1 Y-5.000000
  X7.352941
  Y4.619574
G0 Z25.000000
  Y15.380426
F100	; set feedrate
G1 Z23.000000
F1200	; set feedrate
G1 Y25.000000
  X5.588235
  Y14.064476
G0 Z25.000000
  Y5.935524
F100	; set feedrate
G1 Z23.000000
F1200	; set feedrate
G1 Y-5.000000
  X3.823529
  Y25.000000
  X2.058824
  Y-5.000000
  X0.294118
  Y25.000000
  X-1.470588
  Y-5.000000
  X-3.235294
  Y25.000000
  X-5.000000
  Y-5.000000
F100	; set feedrate
G1 Z22.000000
F1200	; set feedrate
G1 X25.000000
  Y-3.235294
  X-5.000000
  Y-1.470588
  X25.000000
  Y0.294118
  X-5.000000
  Y2.058824
  X25.000000
  Y3.823529
  X-5.000000
  Y5.588235
  X5.947547
G0 Z25.000000
  X14.052453
F100	; set feedrate
G1 Z22.000000
F1200	; set feedrate
G1 X25.000000
  Y7.352941
  X15.374586
G0 Z25.000000
  X4.625414
F100	; set feedrate
G1 Z22.000000
F1200	; set feedrate
G1 X-5.000000
  Y9.117647
  X4.070169
G0 Z25.000000
  X15.929830
F100	; set feedrate
G1 Z22.000000
F1200	; set feedrate
G1 X25.000000
  Y10.882353
  X15.929830
G0 Z25.000000
  X4.070169
F100	; set feedrate
G1 Z22.000000
F1200	; set feedrate
G1 X-5.000000
  Y12.647059
  X4.625414
G0 Z25.000000
  X15.374586
F100	; set feedrate
G1 Z22.000000
F1200	; set feedrate
G1 X25.000000
  Y14.411765
  X14.052454
G0 Z25.000000
  X5.947546
F100	; set feedrate
G1 Z22.000000
F1200	; set feedrate
G1 X-5.000000
  Y16.176471
  X25.000000
  Y17.941176
  X-5.000000
  Y19.705882
  X25.000000
  Y21.470588
  X-5.000000
  Y23.235294
  X25.000000
  Y25.000000
  X-5.000000
  Y-5.000000
  X-3.235294
  Y25.000000
  X-1.470588
  Y-5.000000
  X0.294118
  Y25.000000
  X2.058824
  Y-5.000000
  X3.823529
  Y25.000000
  X5.588235
  Y14.064476
G0 Z25.000000
  Y5.935524
F100	; set feedrate
G1 Z22.000000
F1200	; set feedrate
G1 Y-5.000000
  X7.352941
  Y4.619574
G0 Z25.000000
  Y15.380426
F100	; set feedrate
G1 Z22.000000
F1200	; set feedrate
G1 Y25.000000
  X9.117647
  Y15.926276
G0 Z25.000000
  Y4.073724
F100	; set feedrate
G1 Z22.000000
F1200	; set feedrate
G1 Y-5.000000
  X10.882353
  Y4.073724
G0 Z25.000000
  Y15.926276
F100	; set feedrate
G1 Z22.000000
F1200	; set feedrate
G1 Y25.000000
  X12.647059
  Y15.380426
G0 Z25.000000
  Y4.619573
F100	; set feedrate
G1 Z22.000000
F1200	; set feedrate
G1 Y-5.000000
  X14.411765
  Y5.935524
G0 Z25.000000
  Y14.064476
F100	; set feedrate
G1 Z22.000000
F1200	; set feedrate
G1 Y25.000000
  X16.176471
  Y-5.000000
  X17.941176
  Y25.000000
  X19.705882
  Y-5.000000
  X21.470588
  Y25.000000
  X23.235294
  Y-5.000000
  X25.000000
  Y25.000000
F100	; set feedrate
G1 Z21.000000
F1200	; set feedrate
G1 X-5.000000
  Y23.235294
  X25.000000
  Y21.470588
  X-5.000000
  Y19.705882
  X25.000000
  Y17.941176
  X-5.000000
  Y16.176471
  X25.000000
  Y14.411765
  X14.052454
G0 Z25.000000
  X5.947546
F100	; set feedrate
G1 Z21.000000
F1200	; set feedrate
G1 X-5.000000
  Y12.647059
  X4.625414
G0 Z25.000000
  X15.374586
F100	; set feedrate
G1 Z21.000000
F1200	; set feedrate
G1 X25.000000
  Y10.882353
  X15.929830
G0 Z25.000000
  X4.070169
F100	; set feedrate
G1 Z21.000000
F1200	; set feedrate
G1 X-5.000000
  Y9.117647
  X4.070169
G0 Z25.000000
  X15.929830
F100	; set feedrate
G1 Z21.000000
F1200	; set feedrate
G1 X25.000000
  Y7.352941
  X15.374586
G0 Z25.000000
  X4.625414
F100	; set feedrate
G1 Z21.000000
F1200	; set feedrate
G1 X-5.000000
  Y5.588235
  X5.947547
G0 Z25.000000
  X14.052453
F100	; set feedrate
G1 Z21.000000
F1200	; set feedrate
G1 X25.000000
  Y3.823529
  X-5.000000
  Y2.058824
  X25.000000
  Y0.294118
  X-5.000000
  Y-1.470588
  X25.000000
  Y-3.235294
  X-5.000000
  Y-5.000000
  X25.000000
  Y25.000000
  X23.235294
  Y-5.000000
  X21.470588
  Y25.000000
  X19.705882
  Y-5.000000
  X17.941176
  Y25.000000
  X16.176471
  Y-5.000000
  X14.411765
  Y5.935524
G0 Z25.000000
  Y14.064476
F100	; set feedrate
G1 Z21.000000
F1200	; set feedrate
G1 Y25.000000
  X12.647059
  Y15.380426
G0 Z25.000000
  Y4.619573
F100	; set feedrate
G1 Z21.000000
F1200	; set feedrate
G1 Y-5.000000
  X10.882353
  Y4.073724
G0 Z25.000000
  Y15.926276
F100	; set feedrate
G1 Z21.000000
F1200	; set feedrate
G1 Y25.000000
  X9.117647
  Y15.926276
G0 Z25.000000
  Y4.073724
F100	; set feedrate
G1 Z21.000000
F1200	; set feedrate
G1 Y-5.000000
  X7.352941
  Y4.619574
G0 Z25.000000
  Y15.380426
F100	; set feedrate
G1 Z21.000000
F1200	; set feedrate
G1 Y25.000000
  X5.588235
  Y14.064476
G0 Z25.000000
  Y5.935524
F100	; set feedrate
G1 Z21.000000
F1200	; set feedrate
G1 Y-5.000000
  X3.823529
  Y25.000000
  X2.058824
  Y-5.000000
  X0.294118
  Y25.000000
  X-1.470588
  Y-5.000000
  X-3.235294
  Y25.000000
  X-5.000000
  Y-5.000000
F100	; set feedrate
G1 Z20.000000
F1200	; set feedrate
G1 X25.000000
  Y-3.235294
  X-5.000000
  Y-1.470588
  X25.000000
  Y0.294118
  X-5.000000
  Y2.058824
  X25.000000
  Y3.823529
  X-5.000000
  Y5.588235
  X5.947547
G0 Z25.000000
  X14.052453
F100	; set feedrate
G1 Z20.000000
F1200	; set feedrate
G1 X25.000000
  Y7.352941
  X15.374586
G0 Z25.000000
  X4.625414
F100	; set feedrate
G1 Z20.000000
F1200	; set feedrate
G1 X-5.000000
  Y9.117647
  X4.070169
G0 Z25.000000
  X15.929830
F100	; set feedrate
G1 Z20.000000
F1200	; set feedrate
G1 X25.000000
  Y10.882353
  X15.929830
G0 Z25.000000
  X4.070169
F100	; set feedrate
G1 Z20.000000
F1200	; set feedrate
G1 X-5.000000
  Y12.647059
  X4.625414
G0 Z25.000000
  X15.374586
F100	; set feedrate
G1 Z20.000000
F1200	; set feedrate
G1 X25.000000
  Y14.411765
  X14.052454
G0 Z25.000000
  X5.947546
F100	; set feedrate
G1 Z20.000000
F1200	; set feedrate
G1 X-5.000000
  Y16.176471
  X25.000000
  Y17.941176
  X-5.000000
  Y19.705882
  X25.000000
  Y21.470588
  X-5.000000
  Y23.235294
  X25.000000
  Y25.000000
  X-5.000000
  Y-5.000000
  X-3.235294
  Y25.000000
  X-1.470588
  Y-5.000000
  X0.294118
  Y25.000000
  X2.058824
  Y-5.000000
  X3.823529
  Y25.000000
  X5.588235
  Y14.064476
G0 Z25.000000
  Y5.935524
F100	; set feedrate
G1 Z20.000000
F1200	; set feedrate
G1 Y-5.000000
  X7.352941
  Y4.619574
G0 Z25.000000
  Y15.380426
F100	; set feedrate
G1 Z20.000000
F1200	; set feedrate
G1 Y25.000000
  X9.117647
  Y15.926276
G0 Z25.000000
  Y4.073724
F100	; set feedrate
G1 Z20.000000
F1200	; set feedrate
G1 Y-5.000000
  X10.882353
  Y4.073724
G0 Z25.000000
  Y15.926276
F100	; set feedrate
G1 Z20.000000
F1200	; set feedrate
G1 Y25.000000
  X12.647059
  Y15.380426
G0 Z25.000000
  Y4.619573
F100	; set feedrate
G1 Z20.000000
F1200	; set feedrate
G1 Y-5.000000
  X14.411765
  Y5.935524
G0 Z25.000000
  Y14.064476
F100	; set feedrate
G1 Z20.000000
F1200	; set feedrate
G1 Y25.000000
  X16.176471
  Y-5.000000
  X17.941176
  Y25.000000
  X19.705882
  Y-5.000000
  X21.470588
  Y25.000000
  X23.235294
  Y-5.000000
  X25.000000
  Y25.000000
F100	; set feedrate
G1 Z19.000000
F1200	; set feedrate
G1 X-5.000000
  Y23.235294
  X25.000000
  Y21.470588
  X-5.000000
  Y19.705882
  X-1.000000
G0 Z25.000000
  X21.000000
F100	; set feedrate
G1 Z19.000000
F1200	; set feedrate
G1 X25.000000
  Y17.941176
  X21.000000
G0 Z25.000000
  X-1.000000
F100	; set feedrate
G1 Z19.000000
F1200	; set feedrate
G1 X-5.000000
  Y16.176471
  X-1.000000
G0 Z25.000000
  X21.000000
F100	; set feedrate
G1 Z19.000000
F1200	; set feedrate
G1 X25.000000
  Y14.411765
  X21.000000
G0 Z25.000000
  X-1.000000
F100	; set feedrate
G1 Z19.000000
F1200	; set feedrate
G1 X-5.000000
  Y12.647059
  X-1.000000
G0 Z25.000000
  X21.000000
F100	; set feedrate
G1 Z19.000000
F1200	; set feedrate
G1 X25.000000
  Y10.882353
  X21.000000
G0 Z25.000000
  X-1.000000
F100	; set feedrate
G1 Z19.000000
F1200	; set feedrate
G1 X-5.000000
  Y9.117647
  X-1.000000
G0 Z25.000000
  X21.000000
F100	; set feedrate
G1 Z19.000000
F1200	; set feedrate
G1 X25.000000
  Y7.352941
  X21.000000
G0 Z25.000000
  X-1.000000
F100	; set feedrate
G1 Z19.000000
F1200	; set feedrate
G1 X-5.000000
  Y5.588235
  X-1.000000
G0 Z25.000000
  X21.000000
F100	; set feedrate
G1 Z19.000000
F1200	; set feedrate
G1 X25.000000
  Y3.823529
  X21.000000
G0 Z25.000000
  X-1.000000
F100	; set feedrate
G1 Z19.000000
F1200	; set feedrate
G1 X-5.000000
  Y2.058824
  X-1.000000
G0 Z25.000000
  X21.000000
F100	; set feedrate
G1 Z19.000000
F1200	; set feedrate
G1 X25.000000
  Y0.294118
  X21.000000
G0 Z25.000000
  X-1.000000
F100	; set feedrate
G1 Z19.000000
F1200	; set feedrate
G1 X-5.000000
  Y-1.470588
  X25.000000
  Y-3.235294
  X-5.000000
  Y-5.000000
  X25.000000
  Y25.000000
  X23.235294
  Y-5.000000
  X21.470588
  Y25.000000
  X19.705882
  Y21.000000
G0 Z25.000000
  Y-1.000000
F100	; set feedrate
G1 Z19.000000
F1200	; set feedrate
G1 Y-5.000000
  X17.941176
  Y-1.000000
G0 Z25.000000
  Y21.000000
F100	; set feedrate
G1 Z19.000000
F1200	; set feedrate
G1 Y25.000000
  X16.176471
  Y21.000000
G0 Z25.000000
  Y-1.000000
F100	; set feedrate
G1 Z19.000000
F1200	; set feedrate
G1 Y-5.000000
  X14.411765
  Y-1.000000
G0 Z25.000000
  Y21.000000
F100	; set feedrate
G1 Z19.000000
F1200	; set feedrate
G1 Y25.000000
  X12.647059
  Y21.000000
G0 Z25.000000
  Y-1.000000
F100	; set feedrate
G1 Z19.000000
F1200	; set feedrate
G1 Y-5.000000
  X10.882353
  Y-1.000000
G0 Z25.000000
  Y21.000000
F100	; set feedrate
G1 Z19.000000
F1200	; set feedrate
G1 Y25.000000
  X9.117647
  Y21.000000
G0 Z25.000000
  Y-1.000000
F100	; set feedrate
G1 Z19.000000
F1200	; set feedrate
G1 Y-5.000000
  X7.352941
  Y-1.000000
G0 Z25.000000
  Y21.000000
F100	; set feedrate
G1 Z19.000000
F1200	; set feedrate
G1 Y25.000000
  X5.588235
  Y21.000000
G0 Z25.000000
  Y-1.000000
F100	; set feedrate
G1 Z19.000000
F1200	; set feedrate
G1 Y-5.000000
  X3.823529
  Y-1.000000
G0 Z25.000000
  Y21.000000
F100	; set feedrate
G1 Z19.000000
F1200	; set feedrate
G1 Y25.000000
  X2.058824
  Y21.000000
G0 Z25.000000
  Y-1.000000
F100	; set feedrate
G1 Z19.000000
F1200	; set feedrate
G1 Y-5.000000
  X0.294118
  Y-1.000000
G0 Z25.000000
  Y21.000000
F100	; set feedrate
G1 Z19.000000
F1200	; set feedrate
G1 Y25.000000
  X-1.470588
  Y-5.000000
  X-3.235294
  Y25.000000
  X-5.000000
  Y-5.000000
F100	; set feedrate
G1 Z18.000000
F1200	; set feedrate
G1 X25.000000
  Y-3.235294
  X-5.000000
  Y-1.470588
  X25.000000
  Y0.294118
  X21.000000
G0 Z25.000000
  X-1.000000
F100	; set feedrate
G1 Z18.000000
F1200	; set feedrate
G1 X-5.000000
  Y2.058824
  X-1.000000
G0 Z25.000000
  X21.000000
F100	; set feedrate
G1 Z18.000000
F1200	; set feedrate
G1 X25.000000
  Y3.823529
  X21.000000
G0 Z25.000000
  X-1.000000
F100	; set feedrate
G1 Z18.000000
F1200	; set feedrate
G1 X-5.000000
  Y5.588235
  X-1.000000
G0 Z25.000000
  X21.000000
F100	; set feedrate
G1 Z18.000000
F1200	; set feedrate
G1 X25.000000
  Y7.352941
  X21.000000
G0 Z25.000000
  X-1.000000
F100	; set feedrate
G1 Z18.000000
F1200	; set feedrate
G1 X-5.000000
  Y9.117647
  X-1.000000
G0 Z25.000000
  X21.000000
F100	; set feedrate
G1 Z18.000000
F1200	; set feedrate
G1 X25.000000
  Y10.882353
  X21.000000
G0 Z25.000000
  X-1.000000
F100	; set feedrate
G1 Z18.000000
F1200	; set feedrate
G1 X-5.000000
  Y12.647059
  X-1.000000
G0 Z25.000000
  X21.000000
F100	; set feedrate
G1 Z18.000000
F1200	; set feedrate
G1 X25.000000
  Y14.411765
  X21.000000
G0 Z25.000000
  X-1.000000
F100	; set feedrate
G1 Z18.000000
F1200	; set feedrate
G1 X-5.000000
  Y16.176471
  X-1.000000
G0 Z25.000000
  X21.000000
F100	; set feedrate
G1 Z18.000000
F1200	; set feedrate
G1 X25.000000
  Y17.941176
  X21.000000
G0 Z25.000000
  X-1.000000
F100	; set feedrate
G1 Z18.000000
F1200	; set feedrate
G1 X-5.000000
  Y19.705882
  X-1.000000
G0 Z25.000000
  X21.000000
F100	; set feedrate
G1 Z18.000000
F1200	; set feedrate
G1 X25.000000
  Y21.470588
  X-5.000000
  Y23.235294
  X25.000000
  Y25.000000
  X-5.000000
  Y-5.000000
  X-3.235294
  Y25.000000
  X-1.470588
  Y-5.000000
  X0.294118
  Y-1.000000
G0 Z25.000000
  Y21.000000
F100	; set feedrate
G1 Z18.000000
F1200	; set feedrate
G1 Y25.000000
  X2.058824
  Y21.000000
G0 Z25.000000
  Y-1.000000
F100	; set feedrate
G1 Z18.000000
F1200	; set feedrate
G1 Y-5.000000
  X3.823529
  Y-1.000000
G0 Z25.000000
  Y21.000000
F100	; set feedrate
G1 Z18.000000
F1200	; set feedrate
G1 Y25.000000
  X5.588235
  Y21.000000
G0 Z25.000000
  Y-1.000000
F100	; set feedrate
G1 Z18.000000
F1200	; set feedrate
G1 Y-5.000000
  X7.352941
  Y-1.000000
G0 Z25.000000
  Y21.000000
F100	; set feedrate
G1 Z18.000000
F1200	; set feedrate
G1 Y25.000000
  X9.117647
  Y21.000000
G0 Z25.000000
  Y-1.000000
F100	; set feedrate
G1 Z18.000000
F1200	; set feedrate
G1 Y-5.000000
  X10.882353
  Y-1.000000
G0 Z25.000000
  Y21.000000
F100	; set feedrate
G1 Z18.000000
F1200	; set feedrate
G1 Y25.000000
  X12.647059
  Y21.000000
G0 Z25.000000
  Y-1.000000
F100	; set feedrate
G1 Z18.000000
F1200	; set feedrate
G1 Y-5.000000
  X14.411765
  Y-1.000000
G0 Z25.000000
  Y21.000000
F100	; set feedrate
G1 Z18.000000
F1200	; set feedrate
G1 Y25.000000
  X16.176471
  Y21.000000
G0 Z25.000000
  Y-1.000000
F100	; set feedrate
G1 Z18.000000
F1200	; set feedrate
G1 Y-5.000000
  X17.941176
  Y-1.000000
G0 Z25.000000
  Y21.000000
F100	; set feedrate
G1 Z18.000000
F1200	; set feedrate
G1 Y25.000000
  X19.705882
  Y21.000000
G0 Z25.000000
  Y-1.000000
F100	; set feedrate
G1 Z18.000000
F1200	; set feedrate
G1 Y-5.000000
  X21.470588
  Y25.000000
  X23.235294
  Y-5.000000
  X25.000000
  Y25.000000
F100	; set feedrate
G1 Z17.000000
F1200	; set feedrate
G1 X-5.000000
  Y23.235294
  X25.000000
  Y21.470588
  X-5.000000
  Y19.705882
  X-1.000000
G0 Z25.000000
  X21.000000
F100	; set feedrate
G1 Z17.000000
F1200	; set feedrate
G1 X25.000000
  Y17.941176
  X21.000000
G0 Z25.000000
  X-1.000000
F100	; set feedrate
G1 Z17.000000
F1200	; set feedrate
G1 X-5.000000
  Y16.176471
  X-1.000000
G0 Z25.000000
  X21.000000
F100	; set feedrate
G1 Z17.000000
F1200	; set feedrate
G1 X25.000000
  Y14.411765
  X21.000000
G0 Z25.000000
  X-1.000000
F100	; set feedrate
G1 Z17.000000
F1200	; set feedrate
G1 X-5.000000
  Y12.647059
  X-1.000000
G0 Z25.000000
  X21.000000
F100	; set feedrate
G1 Z17.000000
F1200	; set feedrate
G1 X25.000000
  Y10.882353
  X21.000000
G0 Z25.000000
  X-1.000000
F100	; set feedrate
G1 Z17.000000
F1200	; set feedrate
G1 X-5.000000
  Y9.117647
  X-1.000000
G0 Z25.000000
  X21.000000
F100	; set feedrate
G1 Z17.000000
F1200	; set feedrate
G1 X25.000000
  Y7.352941
  X21.000000
G0 Z25.000000
  X-1.000000
F100	; set feedrate
G1 Z17.000000
F1200	; set feedrate
G1 X-5.000000
  Y5.588235
  X-1.000000
G0 Z25.000000
  X21.000000
F100	; set feedrate
G1 Z17.000000
F1200	; set feedrate
G1 X25.000000
  Y3.823529
  X21.000000
G0 Z25.000000
  X-1.000000
F100	; set feedrate
G1 Z17.000000
F1200	; set feedrate
G1 X-5.000000
  Y2.058824
  X-1.000000
G0 Z25.000000
  X21.000000
F100	; set feedrate
G1 Z17.000000
F1200	; set feedrate
G1 X25.000000
  Y0.294118
  X21.000000
G0 Z25.000000
  X-1.000000
F100	; set feedrate
G1 Z17.000000
F1200	; set feedrate
G1 X-5.000000
  Y-1.470588
  X25.000000
  Y-3.235294
  X-5.000000
  Y-5.000000
  X25.000000
  Y25.000000
  X23.235294
  Y-5.000000
  X21.470588
  Y25.000000
  X19.705882
  Y21.000000
G0 Z25.000000
  Y-1.000000
F100	; set feedrate
G1 Z17.000000
F1200	; set feedrate
G1 Y-5.000000
  X17.941176
  Y-1.000000
G0 Z25.000000
  Y21.000000
F100	; set feedrate
G1 Z17.000000
F1200	; set feedrate
G1 Y25.000000
  X16.176471
  Y21.000000
G0 Z25.000000
  Y-1.000000
F100	; set feedrate
G1 Z17.000000
F1200	; set feedrate
G1 Y-5.000000
  X14.411765
  Y-1.000000
G0 Z25.000000
  Y21.000000
F100	; set feedrate
G1 Z17.000000
F1200	; set feedrate
G1 Y25.000000
  X12.647059
  Y21.000000
G0 Z25.000000
  Y-1.000000
F100	; set feedrate
G1 Z17.000000
F1200	; set feedrate
G1 Y-5.000000
  X10.882353
  Y-1.000000
G0 Z25.000000
  Y21.000000
F100	; set feedrate
G1 Z17.000000
F1200	; set feedrate
G1 Y25.000000
  X9.117647
  Y21.000000
G0 Z25.000000
  Y-1.000000
F100	; set feedrate
G1 Z17.000000
F1200	; set feedrate
G1 Y-5.000000
  X7.352941
  Y-1.000000
G0 Z25.000000
  Y21.000000
F100	; set feedrate
G1 Z17.000000
F1200	; set feedrate
G1 Y25.000000
  X5.588235
  Y21.000000
G0 Z25.000000
  Y-1.000000
F100	; set feedrate
G1 Z17.000000
F1200	; set feedrate
G1 Y-5.000000
  X3.823529
  Y-1.000000
G0 Z25.000000
  Y21.000000
F100	; set feedrate
G1 Z17.000000
F1200	; set feedrate
G1 Y25.000000
  X2.058824
  Y21.000000
G0 Z25.000000
  Y-1.000000
F100	; set feedrate
G1 Z17.000000
F1200	; set feedrate
G1 Y-5.000000
  X0.294118
  Y-1.000000
G0 Z25.000000
  Y21.000000
F100	; set feedrate
G1 Z17.000000
F1200	; set feedrate
G1 Y25.000000
  X-1.470588
  Y-5.000000
  X-3.235294
  Y25.000000
  X-5.000000
  Y-5.000000
F100	; set feedrate
G1 Z16.000000
F1200	; set feedrate
G1 X25.000000
  Y-3.235294
  X-5.000000
  Y-1.470588
  X25.000000
  Y0.294118
  X21.000000
G0 Z25.000000
  X-1.000000
F100	; set feedrate
G1 Z16.000000
F1200	; set feedrate
G1 X-5.000000
  Y2.058824
  X-1.000000
G0 Z25.000000
  X21.000000
F100	; set feedrate
G1 Z16.000000
F1200	; set feedrate
G1 X25.000000
  Y3.823529
  X21.000000
G0 Z25.000000
  X-1.000000
F100	; set feedrate
G1 Z16.000000
F1200	; set feedrate
G1 X-5.000000
  Y5.588235
  X-1.000000
G0 Z25.000000
  X21.000000
F100	; set feedrate
G1 Z16.000000
F1200	; set feedrate
G1 X25.000000
  Y7.352941
  X21.000000
G0 Z25.000000
  X-1.000000
F100	; set feedrate
G1 Z16.000000
F1200	; set feedrate
G1 X-5.000000
  Y9.117647
  X-1.000000
G0 Z25.000000
  X21.000000
F100	; set feedrate
G1 Z16.000000
F1200	; set feedrate
G1 X25.000000
  Y10.882353
  X21.000000
G0 Z25.000000
  X-1.000000
F100	; set feedrate
G1 Z16.000000
F1200	; set feedrate
G1 X-5.000000
  Y12.647059
  X-1.000000
G0 Z25.000000
  X21.000000
F100	; set feedrate
G1 Z16.000000
F1200	; set feedrate
G1 X25.000000
  Y14.411765
  X21.000000
G0 Z25.000000
  X-1.000000
F100	; set feedrate
G1 Z16.000000
F1200	; set feedrate
G1 X-5.000000
  Y16.176471
  X-1.000000
G0 Z25.000000
  X21.000000
F100	; set feedrate
G1 Z16.000000
F1200	; set feedrate
G1 X25.000000
  Y17.941176
  X21.000000
G0 Z25.000000
  X-1.000000
F100	; set feedrate
G1 Z16.000000
F1200	; set feedrate
G1 X-5.000000
  Y19.705882
  X-1.000000
G0 Z25.000000
  X21.000000
F100	; set feedrate
G1 Z16.000000
F1200	; set feedrate
G1 X25.000000
  Y21.470588
  X-5.000000
  Y23.235294
  X25.000000
  Y25.000000
  X-5.000000
  Y-5.000000
  X-3.235294
  Y25.000000
  X-1.470588
  Y-5.000000
  X0.294118
  Y-1.000000
G0 Z25.000000
  Y21.000000
F100	; set feedrate
G1 Z16.000000
F1200	; set feedrate
G1 Y25.000000
  X2.058824
  Y21.000000
G0 Z25.000000
  Y-1.000000
F100	; set feedrate
G1 Z16.000000
F1200	; set feedrate
G1 Y-5.000000
  X3.823529
  Y-1.000000
G0 Z25.000000
  Y21.000000
F100	; set feedrate
G1 Z16.000000
F1200	; set feedrate
G1 Y25.000000
  X5.588235
  Y21.000000
G0 Z25.000000
  Y-1.000000
F100	; set feedrate
G1 Z16.000000
F1200	; set feedrate
G1 Y-5.000000
  X7.352941
  Y-1.000000
G0 Z25.000000
  Y21.000000
F100	; set feedrate
G1 Z16.000000
F1200	; set feedrate
G1 Y25.000000
  X9.117647
  Y21.000000
G0 Z25.000000
  Y-1.000000
F100	; set feedrate
G1 Z16.000000
F1200	; set feedrate
G1 Y-5.000000
  X10.882353
  Y-1.000000
G0 Z25.000000
  Y21.000000
F100	; set feedrate
G1 Z16.000000
F1200	; set feedrate
G1 Y25.000000
  X12.647059
  Y21.000000
G0 Z25.000000
  Y-1.000000
F100	; set feedrate
G1 Z16.000000
F1200	; set feedrate
G1 Y-5.000000
  X14.411765
  Y-1.000000
G0 Z25.000000
  Y21.000000
F100	; set feedrate
G1 Z16.000000
F1200	; set feedrate
G1 Y25.000000
  X16.176471
  Y21.000000
G0 Z25.000000
  Y-1.000000
F100	; set feedrate
G1 Z16.000000
F1200	; set feedrate
G1 Y-5.000000
  X17.941176
  Y-1.000000
G0 Z25.000000
  Y21.000000
F100	; set feedrate
G1 Z16.000000
F1200	; set feedrate
G1 Y25.000000
  X19.705882
  Y21.000000
G0 Z25.000000
  Y-1.000000
F100	; set feedrate
G1 Z16.000000
F1200	; set feedrate
G1 Y-5.000000
  X21.470588
  Y25.000000
  X23.235294
  Y-5.000000
  X25.000000
  Y25.000000
F100	; set feedrate
G1 Z15.000000
F1200	; set feedrate
G1 X-5.000000
  Y23.235294
  X25.000000
  Y21.470588
  X-5.000000
  Y19.705882
  X-1.000000
G0 Z25.000000
  X21.000000
F100	; set feedrate
G1 Z15.000000
F1200	; set feedrate
G1 X25.000000
  Y17.941176
  X21.000000
G0 Z25.000000
  X-1.000000
F100	; set feedrate
G1 Z15.000000
F1200	; set feedrate
G1 X-5.000000
  Y16.176471
  X-1.000000
G0 Z25.000000
  X21.000000
F100	; set feedrate
G1 Z15.000000
F1200	; set feedrate
G1 X25.000000
  Y14.411765
  X21.000000
G0 Z25.000000
  X-1.000000
F100	; set feedrate
G1 Z15.000000
F1200	; set feedrate
G1 X-5.000000
  Y12.647059
  X-1.000000
G0 Z25.000000
  X21.000000
F100	; set feedrate
G1 Z15.000000
F1200	; set feedrate
G1 X25.000000
  Y10.882353
  X21.000000
G0 Z25.000000
  X-1.000000
F100	; set feedrate
G1 Z15.000000
F1200	; set feedrate
G1 X-5.000000
  Y9.117647
  X-1.000000
G0 Z25.000000
  X21.000000
F100	; set feedrate
G1 Z15.000000
F1200	; set feedrate
G1 X25.000000
  Y7.352941
  X21.000000
G0 Z25.000000
  X-1.000000
F100	; set feedrate
G1 Z15.000000
F1200	; set feedrate
G1 X-5.000000
  Y5.588235
  X-1.000000
G0 Z25.000000
  X21.000000
F100	; set feedrate
G1 Z15.000000
F1200	; set feedrate
G1 X25.000000
  Y3.823529
  X21.000000
G0 Z25.000000
  X-1.000000
F100	; set feedrate
G1 Z15.000000
F1200	; set feedrate
G1 X-5.000000
  Y2.058824
  X-1.000000
G0 Z25.000000
  X21.000000
F100	; set feedrate
G1 Z15.000000
F1200	; set feedrate
G1 X25.000000
  Y0.294118
  X21.000000
G0 Z25.000000
  X-1.000000
F100	; set feedrate
G1 Z15.000000
F1200	; set feedrate
G1 X-5.000000
  Y-1.470588
  X25.000000
  Y-3.235294
  X-5.000000
  Y-5.000000
  X25.000000
  Y25.000000
  X23.235294
  Y-5.000000
  X21.470588
  Y25.000000
  X19.705882
  Y21.000000
G0 Z25.000000
  Y-1.000000
F100	; set feedrate
G1 Z15.000000
F1200	; set feedrate
G1 Y-5.000000
  X17.941176
  Y-1.000000
G0 Z25.000000
  Y21.000000
F100	; set feedrate
G1 Z15.000000
F1200	; set feedrate
G1 Y25.000000
  X16.176471
  Y21.000000
G0 Z25.000000
  Y-1.000000
F100	; set feedrate
G1 Z15.000000
F1200	; set feedrate
G1 Y-5.000000
  X14.411765
  Y-1.000000
G0 Z25.000000
  Y21.000000
F100	; set feedrate
G1 Z15.000000
F1200	; set feedrate
G1 Y25.000000
  X12.647059
  Y21.000000
G0 Z25.000000
  Y-1.000000
F100	; set feedrate
G1 Z15.000000
F1200	; set feedrate
G1 Y-5.000000
  X10.882353
  Y-1.000000
G0 Z25.000000
  Y21.000000
F100	; set feedrate
G1 Z15.000000
F1200	; set feedrate
G1 Y25.000000
  X9.117647
  Y21.000000
G0 Z25.000000
  Y-1.000000
F100	; set feedrate
G1 Z15.000000
F1200	; set feedrate
G1 Y-5.000000
  X7.352941
  Y-1.000000
G0 Z25.000000
  Y21.000000
F100	; set feedrate
G1 Z15.000000
F1200	; set feedrate
G1 Y25.000000
  X5.588235
  Y21.000000
G0 Z25.000000
  Y-1.000000
F100	; set feedrate
G1 Z15.000000
F1200	; set feedrate
G1 Y-5.000000
  X3.823529
  Y-1.000000
G0 Z25.000000
  Y21.000000
F100	; set feedrate
G1 Z15.000000
F1200	; set feedrate
G1 Y25.000000
  X2.058824
  Y21.000000
G0 Z25.000000
  Y-1.000000
F100	; set feedrate
G1 Z15.000000
F1200	; set feedrate
G1 Y-5.000000
  X0.294118
  Y-1.000000
G0 Z25.000000
  Y21.000000
F100	; set feedrate
G1 Z15.000000
F1200	; set feedrate
G1 Y25.000000
  X-1.470588
  Y-5.000000
  X-3.235294
  Y25.000000
  X-5.000000
  Y-5.000000
F100	; set feedrate
G1 Z14.000000
F1200	; set feedrate
G1 X25.000000
  Y-3.235294
  X-5.000000
  Y-1.470588
  X25.000000
  Y0.294118
  X21.000000
G0 Z25.000000
  X-1.000000
F100	; set feedrate
G1 Z14.000000
F1200	; set feedrate
G1 X-5.000000
  Y2.058824
  X-1.000000
G0 Z25.000000
  X21.000000
F100	; set feedrate
G1 Z14.000000
F1200	; set feedrate
G1 X25.000000
  Y3.823529
  X21.000000
G0 Z25.000000
  X-1.000000
F100	; set feedrate
G1 Z14.000000
F1200	; set feedrate
G1 X-5.000000
  Y5.588235
  X-1.000000
G0 Z25.000000
  X21.000000
F100	; set feedrate
G1 Z14.000000
F1200	; set feedrate
G1 X25.000000
  Y7.352941
  X21.000000
G0 Z25.000000
  X-1.000000
F100	; set feedrate
G1 Z14.000000
F1200	; set feedrate
G1 X-5.000000
  Y9.117647
  X-1.000000
G0 Z25.000000
  X21.000000
F100	; set feedrate
G1 Z14.000000
F1200	; set feedrate
G1 X25.000000
  Y10.882353
  X21.000000
G0 Z25.000000
  X-1.000000
F100	; set feedrate
G1 Z14.000000
F1200	; set feedrate
G1 X-5.000000
  Y12.647059
  X-1.000000
G0 Z25.000000
  X21.000000
F100	; set feedrate
G1 Z14.000000
F1200	; set feedrate
G1 X25.000000
  Y14.411765
  X21.000000
G0 Z25.000000
  X-1.000000
F100	; set feedrate
G1 Z14.000000
F1200	; set feedrate
G1 X-5.000000
  Y16.176471
  X-1.000000
G0 Z25.000000
  X21.000000
F100	; set feedrate
G1 Z14.000000
F1200	; set feedrate
G1 X25.000000
  Y17.941176
  X21.000000
G0 Z25.000000
  X-1.000000
F100	; set feedrate
G1 Z14.000000
F1200	; set feedrate
G1 X-5.000000
  Y19.705882
  X-1.000000
G0 Z25.000000
  X21.000000
F100	; set feedrate
G1 Z14.000000
F1200	; set feedrate
G1 X25.000000
  Y21.470588
  X-5.000000
  Y23.235294
  X25.000000
  Y25.000000
  X-5.000000
  Y-5.000000
  X-3.235294
  Y25.000000
  X-1.470588
  Y-5.000000
  X0.294118
  Y-1.000000
G0 Z25.000000
  Y21.000000
F100	; set feedrate
G1 Z14.000000
F1200	; set feedrate
G1 Y25.000000
  X2.058824
  Y21.000000
G0 Z25.000000
  Y-1.000000
F100	; set feedrate
G1 Z14.000000
F1200	; set feedrate
G1 Y-5.000000
  X3.823529
  Y-1.000000
G0 Z25.000000
  Y21.000000
F100	; set feedrate
G1 Z14.000000
F1200	; set feedrate
G1 Y25.000000
  X5.588235
  Y21.000000
G0 Z25.000000
  Y-1.000000
F100	; set feedrate
G1 Z14.000000
F1200	; set feedrate
G1 Y-5.000000
  X7.352941
  Y-1.000000
G0 Z25.000000
  Y21.000000
F100	; set feedrate
G1 Z14.000000
F1200	; set feedrate
G1 Y25.000000
  X9.117647
  Y21.000000
G0 Z25.000000
  Y-1.000000
F100	; set feedrate
G1 Z14.000000
F1200	; set feedrate
G1 Y-5.000000
  X10.882353
  Y-1.000000
G0 Z25.000000
  Y21.000000
F100	; set feedrate
G1 Z14.000000
F1200	; set feedrate
G1 Y25.000000
  X12.647059
  Y21.000000
G0 Z25.000000
  Y-1.000000
F100	; set feedrate
G1 Z14.000000
F1200	; set feedrate
G1 Y-5.000000
  X14.411765
  Y-1.000000
G0 Z25.000000
  Y21.000000
F100	; set feedrate
G1 Z14.000000
F1200	; set feedrate
G1 Y25.000000
  X16.176471
  Y21.000000
G0 Z25.000000
  Y-1.000000
F100	; set feedrate
G1 Z14.000000
F1200	; set feedrate
G1 Y-5.000000
  X17.941176
  Y-1.000000
G0 Z25.000000
  Y21.000000
F100	; set feedrate
G1 Z14.000000
F1200	; set feedrate
G1 Y25.000000
  X19.705882
  Y21.000000
G0 Z25.000000
  Y-1.000000
F100	; set feedrate
G1 Z14.000000
F1200	; set feedrate
G1 Y-5.000000
  X21.470588
  Y25.000000
  X23.235294
  Y-5.000000
  X25.000000
  Y25.000000
F100	; set feedrate
G1 Z13.000000
F1200	; set feedrate
G1 X-5.000000
  Y23.235294
  X25.000000
  Y21.470588
  X-5.000000
  Y19.705882
  X-1.000000
G0 Z25.000000
  X21.000000
F100	; set feedrate
G1 Z13.000000
F1200	; set feedrate
G1 X25.000000
  Y17.941176
  X21.000000
G0 Z25.000000
  X-1.000000
F100	; set feedrate
G1 Z13.000000
F1200	; set feedrate
G1 X-5.000000
  Y16.176471
  X-1.000000
G0 Z25.000000
  X21.000000
F100	; set feedrate
G1 Z13.000000
F1200	; set feedrate
G1 X25.000000
  Y14.411765
  X21.000000
G0 Z25.000000
  X-1.000000
F100	; set feedrate
G1 Z13.000000
F1200	; set feedrate
G1 X-5.000000
  Y12.647059
  X-1.000000
G0 Z25.000000
  X21.000000
F100	; set feedrate
G1 Z13.000000
F1200	; set feedrate
G1 X25.000000
  Y10.882353
  X21.000000
G0 Z25.000000
  X-1.000000
F100	; set feedrate
G1 Z13.000000
F1200	; set feedrate
G1 X-5.000000
  Y9.117647
  X-1.000000
G0 Z25.000000
  X21.000000
F100	; set feedrate
G1 Z13.000000
F1200	; set feedrate
G1 X25.000000
  Y7.352941
  X21.000000
G0 Z25.000000
  X-1.000000
F100	; set feedrate
G1 Z13.000000
F1200	; set feedrate
G1 X-5.000000
  Y5.588235
  X-1.000000
G0 Z25.000000
  X21.000000
F100	; set feedrate
G1 Z13.000000
F1200	; set feedrate
G1 X25.000000
  Y3.823529
  X21.000000
G0 Z25.000000
  X-1.000000
F100	; set feedrate
G1 Z13.000000
F1200	; set feedrate
G1 X-5.000000
  Y2.058824
  X-1.000000
G0 Z25.000000
  X21.000000
F100	; set feedrate
G1 Z13.000000
F1200	; set feedrate
G1 X25.000000
  Y0.294118
  X21.000000
G0 Z25.000000
  X-1.000000
F100	; set feedrate
G1 Z13.000000
F1200	; set feedrate
G1 X-5.000000
  Y-1.470588
  X25.000000
  Y-3.235294
  X-5.000000
  Y-5.000000
  X25.000000
  Y25.000000
  X23.235294
  Y-5.000000
  X21.470588
  Y25.000000
  X19.705882
  Y21.000000
G0 Z25.000000
  Y-1.000000
F100	; set feedrate
G1 Z13.000000
F1200	; set feedrate
G1 Y-5.000000
  X17.941176
  Y-1.000000
G0 Z25.000000
  Y21.000000
F100	; set feedrate
G1 Z13.000000
F1200	; set feedrate
G1 Y25.000000
  X16.176471
  Y21.000000
G0 Z25.000000
  Y-1.000000
F100	; set feedrate
G1 Z13.000000
F1200	; set feedrate
G1 Y-5.000000
  X14.411765
  Y-1.000000
G0 Z25.000000
  Y21.000000
F100	; set feedrate
G1 Z13.000000
F1200	; set feedrate
G1 Y25.000000
  X12.647059
  Y21.000000
G0 Z25.000000
  Y-1.000000
F100	; set feedrate
G1 Z13.000000
F1200	; set feedrate
G1 Y-5.000000
  X10.882353
  Y-1.000000
G0 Z25.000000
  Y21.000000
F100	; set feedrate
G1 Z13.000000
F1200	; set feedrate
G1 Y25.000000
  X9.117647
  Y21.000000
G0 Z25.000000
  Y-1.000000
F100	; set feedrate
G1 Z13.000000
F1200	; set feedrate
G1 Y-5.000000
  X7.352941
  Y-1.000000
G0 Z25.000000
  Y21.000000
F100	; set feedrate
G1 Z13.000000
F1200	; set feedrate
G1 Y25.000000
  X5.588235
  Y21.000000
G0 Z25.000000
  Y-1.000000
F100	; set feedrate
G1 Z13.000000
F1200	; set feedrate
G1 Y-5.000000
  X3.823529
  Y-1.000000
G0 Z25.000000
  Y21.000000
F100	; set feedrate
G1 Z13.000000
F1200	; set feedrate
G1 Y25.000000
  X2.058824
  Y21.000000
G0 Z25.000000
  Y-1.000000
F100	; set feedrate
G1 Z13.000000
F1200	; set feedrate
G1 Y-5.000000
  X0.294118
  Y-1.000000
G0 Z25.000000
  Y21.000000
F100	; set feedrate
G1 Z13.000000
F1200	; set feedrate
G1 Y25.000000
  X-1.470588
  Y-5.000000
  X-3.235294
  Y25.000000
  X-5.000000
  Y-5.000000
F100	; set feedrate
G1 Z12.000000
F1200	; set feedrate
G1 X25.000000
  Y-3.235294
  X-5.000000
  Y-1.470588
  X25.000000
  Y0.294118
  X21.000000
G0 Z25.000000
  X-1.000000
F100	; set feedrate
G1 Z12.000000
F1200	; set feedrate
G1 X-5.000000
  Y2.058824
  X-1.000000
G0 Z25.000000
  X21.000000
F100	; set feedrate
G1 Z12.000000
F1200	; set feedrate
G1 X25.000000
  Y3.823529
  X21.000000
G0 Z25.000000
  X-1.000000
F100	; set feedrate
G1 Z12.000000
F1200	; set feedrate
G1 X-5.000000
  Y5.588235
  X-1.000000
G0 Z25.000000
  X21.000000
F100	; set feedrate
G1 Z12.000000
F1200	; set feedrate
G1 X25.000000
  Y7.352941
  X21.000000
G0 Z25.000000
  X-1.000000
F100	; set feedrate
G1 Z12.000000
F1200	; set feedrate
G1 X-5.000000
  Y9.117647
  X-1.000000
G0 Z25.000000
  X21.000000
F100	; set feedrate
G1 Z12.000000
F1200	; set feedrate
G1 X25.000000
  Y10.882353
  X21.000000
G0 Z25.000000
  X-1.000000
F100	; set feedrate
G1 Z12.000000
F1200	; set feedrate
G1 X-5.000000
  Y12.647059
  X-1.000000
G0 Z25.000000
  X21.000000
F100	; set feedrate
G1 Z12.000000
F1200	; set feedrate
G1 X25.000000
  Y14.411765
  X21.000000
G0 Z25.000000
  X-1.000000
F100	; set feedrate
G1 Z12.000000
F1200	; set feedrate
G1 X-5.000000
  Y16.176471
  X-1.000000
G0 Z25.000000
  X21.000000
F100	; set feedrate
G1 Z12.000000
F1200	; set feedrate
G1 X25.000000
  Y17.941176
  X21.000000
G0 Z25.000000
  X-1.000000
F100	; set feedrate
G1 Z12.000000
F1200	; set feedrate
G1 X-5.000000
  Y19.705882
  X-1.000000
G0 Z25.000000
  X21.000000
F100	; set feedrate
G1 Z12.000000
F1200	; set feedrate
G1 X25.000000
  Y21.470588
  X-5.000000
  Y23.235294
  X25.000000
  Y25.000000
  X-5.000000
  Y-5.000000
  X-3.235294
  Y25.000000
  X-1.470588
  Y-5.000000
  X0.294118
  Y-1.000000
G0 Z25.000000
  Y21.000000
F100	; set feedrate
G1 Z12.000000
F1200	; set feedrate
G1 Y25.000000
  X2.058824
  Y21.000000
G0 Z25.000000
  Y-1.000000
F100	; set feedrate
G1 Z12.000000
F1200	; set feedrate
G1 Y-5.000000
  X3.823529
  Y-1.000000
G0 Z25.000000
  Y21.000000
F100	; set feedrate
G1 Z12.000000
F1200	; set feedrate
G1 Y25.000000
  X5.588235
  Y21.000000
G0 Z25.000000
  Y-1.000000
F100	; set feedrate
G1 Z12.000000
F1200	; set feedrate
G1 Y-5.000000
  X7.352941
  Y-1.000000
G0 Z25.000000
  Y21.000000
F100	; set feedrate
G1 Z12.000000
F1200	; set feedrate
G1 Y25.000000
  X9.117647
  Y21.000000
G0 Z25.000000
  Y-1.000000
F100	; set feedrate
G1 Z12.000000
F1200	; set feedrate
G1 Y-5.000000
  X10.882353
  Y-1.000000
G0 Z25.000000
  Y21.000000
F100	; set feedrate
G1 Z12.000000
F1200	; set feedrate
G1 Y25.000000
  X12.647059
  Y21.000000
G0 Z25.000000
  Y-1.000000
F100	; set feedrate
G1 Z12.000000
F1200	; set feedrate
G1 Y-5.000000
  X14.411765
  Y-1.000000
G0 Z25.000000
  Y21.000000
F100	; set feedrate
G1 Z12.000000
F1200	; set feedrate
G1 Y25.000000
  X16.176471
  Y21.000000
G0 Z25.000000
  Y-1.000000
F100	; set feedrate
G1 Z12.000000
F1200	; set feedrate
G1 Y-5.000000
  X17.941176
  Y-1.000000
G0 Z25.000000
  Y21.000000
F100	; set feedrate
G1 Z12.000000
F1200	; set feedrate
G1 Y25.000000
  X19.705882
  Y21.000000
G0 Z25.000000
  Y-1.000000
F100	; set feedrate
G1 Z12.000000
F1200	; set feedrate
G1 Y-5.000000
  X21.470588
  Y25.000000
  X23.235294
  Y-5.000000
  X25.000000
  Y25.000000
F100	; set feedrate
G1 Z11.000000
F1200	; set feedrate
G1 X-5.000000
  Y23.235294
  X25.000000
  Y21.470588
  X-5.000000
  Y19.705882
  X-1.000000
G0 Z25.000000
  X21.000000
F100	; set feedrate
G1 Z11.000000
F1200	; set feedrate
G1 X25.000000
  Y17.941176
  X21.000000
G0 Z25.000000
  X-1.000000
F100	; set feedrate
G1 Z11.000000
F1200	; set feedrate
G1 X-5.000000
  Y16.176471
  X-1.000000
G0 Z25.000000
  X21.000000
F100	; set feedrate
G1 Z11.000000
F1200	; set feedrate
G1 X25.000000
  Y14.411765
  X21.000000
G0 Z25.000000
  X-1.000000
F100	; set feedrate
G1 Z11.000000
F1200	; set feedrate
G1 X-5.000000
  Y12.647059
  X-1.000000
G0 Z25.000000
  X21.000000
F100	; set feedrate
G1 Z11.000000
F1200	; set feedrate
G1 X25.000000
  Y10.882353
  X21.000000
G0 Z25.000000
  X-1.000000
F100	; set feedrate
G1 Z11.000000
F1200	; set feedrate
G1 X-5.000000
  Y9.117647
  X-1.000000
G0 Z25.000000
  X21.000000
F100	; set feedrate
G1 Z11.000000
F1200	; set feedrate
G1 X25.000000
  Y7.352941
  X21.000000
G0 Z25.000000
  X-1.000000
F100	; set feedrate
G1 Z11.000000
F1200	; set feedrate
G1 X-5.000000
  Y5.588235
  X-1.000000
G0 Z25.000000
  X21.000000
F100	; set feedrate
G1 Z11.000000
F1200	; set feedrate
G1 X25.000000
  Y3.823529
  X21.000000
G0 Z25.000000
  X-1.000000
F100	; set feedrate
G1 Z11.000000
F1200	; set feedrate
G1 X-5.000000
  Y2.058824
  X-1.000000
G0 Z25.000000
  X21.000000
F100	; set feedrate
G1 Z11.000000
F1200	; set feedrate
G1 X25.000000
  Y0.294118
  X21.000000
G0 Z25.000000
  X-1.000000
F100	; set feedrate
G1 Z11.000000
F1200	; set feedrate
G1 X-5.000000
  Y-1.470588
  X25.000000
  Y-3.235294
  X-5.000000
  Y-5.000000
  X25.000000
  Y25.000000
  X23.235294
  Y-5.000000
  X21.470588
  Y25.000000
  X19.705882
  Y21.000000
G0 Z25.000000
  Y-1.000000
F100	; set feedrate
G1 Z11.000000
F1200	; set feedrate
G1 Y-5.000000
  X17.941176
  Y-1.000000
G0 Z25.000000
  Y21.000000
F100	; set feedrate
G1 Z11.000000
F1200	; set feedrate
G1 Y25.000000
  X16.176471
  Y21.000000
G0 Z25.000000
  Y-1.000000
F100	; set feedrate
G1 Z11.000000
F1200	; set feedrate
G1 Y-5.000000
  X14.411765
  Y-1.000000
G0 Z25.000000
  Y21.000000
F100	; set feedrate
G1 Z11.000000
F1200	; set feedrate
G1 Y25.000000
  X12.647059
  Y21.000000
G0 Z25.000000
  Y-1.000000
F100	; set feedrate
G1 Z11.000000
F1200	; set feedrate
G1 Y-5.000000
  X10.882353
  Y-1.000000
G0 Z25.000000
  Y21.000000
F100	; set feedrate
G1 Z11.000000
F1200	; set feedrate
G1 Y25.000000
  X9.117647
  Y21.000000
G0 Z25.000000
  Y-1.000000
F100	; set feedrate
G1 Z11.000000
F1200	; set feedrate
G1 Y-5.000000
  X7.352941
  Y-1.000000
G0 Z25.000000
  Y21.000000
F100	; set feedrate
G1 Z11.000000
F1200	; set feedrate
G1 Y25.000000
  X5.588235
  Y21.000000
G0 Z25.000000
  Y-1.000000
F100	; set feedrate
G1 Z11.000000
F1200	; set feedrate
G1 Y-5.000000
  X3.823529
  Y-1.000000
G0 Z25.000000
  Y21.000000
F100	; set feedrate
G1 Z11.000000
F1200	; set feedrate
G1 Y25.000000
  X2.058824
  Y21.000000
G0 Z25.000000
  Y-1.000000
F100	; set feedrate
G1 Z11.000000
F1200	; set feedrate
G1 Y-5.000000
  X0.294118
  Y-1.000000
G0 Z25.000000
  Y21.000000
F100	; set feedrate
G1 Z11.000000
F1200	; set feedrate
G1 Y25.000000
  X-1.470588
  Y-5.000000
  X-3.235294
  Y25.000000
  X-5.000000
  Y-5.000000
F100	; set feedrate
G1 Z10.000000
F1200	; set feedrate
G1 X25.000000
  Y-3.235294
  X-5.000000
  Y-1.470588
  X25.000000
  Y0.294118
  X21.000000
G0 Z25.000000
  X-1.000000
F100	; set feedrate
G1 Z10.000000
F1200	; set feedrate
G1 X-5.000000
  Y2.058824
  X-1.000000
G0 Z25.000000
  X21.000000
F100	; set feedrate
G1 Z10.000000
F1200	; set feedrate
G1 X25.000000
  Y3.823529
  X21.000000
G0 Z25.000000
  X-1.000000
F100	; set feedrate
G1 Z10.000000
F1200	; set feedrate
G1 X-5.000000
  Y5.588235
  X-1.000000
G0 Z25.000000
  X21.000000
F100	; set feedrate
G1 Z10.000000
F1200	; set feedrate
G1 X25.000000
  Y7.352941
  X21.000000
G0 Z25.000000
  X-1.000000
F100	; set feedrate
G1 Z10.000000
F1200	; set feedrate
G1 X-5.000000
  Y9.117647
  X-1.000000
G0 Z25.000000
  X21.000000
F100	; set feedrate
G1 Z10.000000
F1200	; set feedrate
G1 X25.000000
  Y10.882353
  X21.000000
G0 Z25.000000
  X-1.000000
F100	; set feedrate
G1 Z10.000000
F1200	; set feedrate
G1 X-5.000000
  Y12.647059
  X-1.000000
G0 Z25.000000
  X21.000000
F100	; set feedrate
G1 Z10.000000
F1200	; set feedrate
G1 X25.000000
  Y14.411765
  X21.000000
G0 Z25.000000
  X-1.000000
F100	; set feedrate
G1 Z10.000000
F1200	; set feedrate
G1 X-5.000000
  Y16.176471
  X-1.000000
G0 Z25.000000
  X21.000000
F100	; set feedrate
G1 Z10.000000
F1200	; set feedrate
G1 X25.000000
  Y17.941176
  X21.000000
G0 Z25.000000
  X-1.000000
F100	; set feedrate
G1 Z10.000000
F1200	; set feedrate
G1 X-5.000000
  Y19.705882
  X-1.000000
G0 Z25.000000
  X21.000000
F100	; set feedrate
G1 Z10.000000
F1200	; set feedrate
G1 X25.000000
  Y21.470588
  X-5.000000
  Y23.235294
  X25.000000
  Y25.000000
  X-5.000000
  Y-5.000000
  X-3.235294
  Y25.000000
  X-1.470588
  Y-5.000000
  X0.294118
  Y-1.000000
G0 Z25.000000
  Y21.000000
F100	; set feedrate
G1 Z10.000000
F1200	; set feedrate
G1 Y25.000000
  X2.058824
  Y21.000000
G0 Z25.000000
  Y-1.000000
F100	; set feedrate
G1 Z10.000000
F1200	; set feedrate
G1 Y-5.000000
  X3.823529
  Y-1.000000
G0 Z25.000000
  Y21.000000
F100	; set feedrate
G1 Z10.000000
F1200	; set feedrate
G1 Y25.000000
  X5.588235
  Y21.000000
G0 Z25.000000
  Y-1.000000
F100	; set feedrate
G1 Z10.000000
F1200	; set feedrate
G1 Y-5.000000
  X7.352941
  Y-1.000000
G0 Z25.000000
  Y21.000000
F100	; set feedrate
G1 Z10.000000
F1200	; set feedrate
G1 Y25.000000
  X9.117647
  Y21.000000
G0 Z25.000000
  Y-1.000000
F100	; set feedrate
G1 Z10.000000
F1200	; set feedrate
G1 Y-5.000000
  X10.882353
  Y-1.000000
G0 Z25.000000
  Y21.000000
F100	; set feedrate
G1 Z10.000000
F1200	; set feedrate
G1 Y25.000000
  X12.647059
  Y21.000000
G0 Z25.000000
  Y-1.000000
F100	; set feedrate
G1 Z10.000000
F1200	; set feedrate
G1 Y-5.000000
  X14.411765
  Y-1.000000
G0 Z25.000000
  Y21.000000
F100	; set feedrate
G1 Z10.000000
F1200	; set feedrate
G1 Y25.000000
  X16.176471
  Y21.000000
G0 Z25.000000
  Y-1.000000
F100	; set feedrate
G1 Z10.000000
F1200	; set feedrate
G1 Y-5.000000
  X17.941176
  Y-1.000000
G0 Z25.000000
  Y21.000000
F100	; set feedrate
G1 Z10.000000
F1200	; set feedrate
G1 Y25.000000
  X19.705882
  Y21.000000
G0 Z25.000000
  Y-1.000000
F100	; set feedrate
G1 Z10.000000
F1200	; set feedrate
G1 Y-5.000000
  X21.470588
  Y25.000000
  X23.235294
  Y-5.000000
  X25.000000
  Y25.000000
F100	; set feedrate
G1 Z9.000000
F1200	; set feedrate
G1 X-5.000000
  Y23.235294
  X25.000000
  Y21.470588
  X-5.000000
  Y19.705882
  X-1.000000
G0 Z25.000000
  X21.000000
F100	; set feedrate
G1 Z9.000000
F1200	; set feedrate
G1 X25.000000
  Y17.941176
  X21.000000
G0 Z25.000000
  X-1.000000
F100	; set feedrate
G1 Z9.000000
F1200	; set feedrate
G1 X-5.000000
  Y16.176471
  X-1.000000
G0 Z25.000000
  X21.000000
F100	; set feedrate
G1 Z9.000000
F1200	; set feedrate
G1 X25.000000
  Y14.411765
  X21.000000
G0 Z25.000000
  X-1.000000
F100	; set feedrate
G1 Z9.000000
F1200	; set feedrate
G1 X-5.000000
  Y12.647059
  X-1.000000
G0 Z25.000000
  X21.000000
F100	; set feedrate
G1 Z9.000000
F1200	; set feedrate
G1 X25.000000
  Y10.882353
  X21.000000
G0 Z25.000000
  X-1.000000
F100	; set feedrate
G1 Z9.000000
F1200	; set feedrate
G1 X-5.000000
  Y9.117647
  X-1.000000
G0 Z25.000000
  X21.000000
F100	; set feedrate
G1 Z9.000000
F1200	; set feedrate
G1 X25.000000
  Y7.352941
  X21.000000
G0 Z25.000000
  X-1.000000
F100	; set feedrate
G1 Z9.000000
F1200	; set feedrate
G1 X-5.000000
  Y5.588235
  X-1.000000
G0 Z25.000000
  X21.000000
F100	; set feedrate
G1 Z9.000000
F1200	; set feedrate
G1 X25.000000
  Y3.823529
  X21.000000
G0 Z25.000000
  X-1.000000
F100	; set feedrate
G1 Z9.000000
F1200	; set feedrate
G1 X-5.000000
  Y2.058824
  X-1.000000
G0 Z25.000000
  X21.000000
F100	; set feedrate
G1 Z9.000000
F1200	; set feedrate
G1 X25.000000
  Y0.294118
  X21.000000
G0 Z25.000000
  X-1.000000
F100	; set feedrate
G1 Z9.000000
F1200	; set feedrate
G1 X-5.000000
  Y-1.470588
  X25.000000
  Y-3.235294
  X-5.000000
  Y-5.000000
  X25.000000
  Y25.000000
  X23.235294
  Y-5.000000
  X21.470588
  Y25.000000
  X19.705882
  Y21.000000
G0 Z25.000000
  Y-1.000000
F100	; set feedrate
G1 Z9.000000
F1200	; set feedrate
G1 Y-5.000000
  X17.941176
  Y-1.000000
G0 Z25.000000
  Y21.000000
F100	; set feedrate
G1 Z9.000000
F1200	; set feedrate
G1 Y25.000000
  X16.176471
  Y21.000000
G0 Z25.000000
  Y-1.000000
F100	; set feedrate
G1 Z9.000000
F1200	; set feedrate
G1 Y-5.000000
  X14.411765
  Y-1.000000
G0 Z25.000000
  Y21.000000
F100	; set feedrate
G1 Z9.000000
F1200	; set feedrate
G1 Y25.000000
  X12.647059
  Y21.000000
G0 Z25.000000
  Y-1.000000
F100	; set feedrate
G1 Z9.000000
F1200	; set feedrate
G1 Y-5.000000
  X10.882353
  Y-1.000000
G0 Z25.000000
  Y21.000000
F100	; set feedrate
G1 Z9.000000
F1200	; set feedrate
G1 Y25.000000
  X9.117647
  Y21.000000
G0 Z25.000000
  Y-1.000000
F100	; set feedrate
G1 Z9.000000
F1200	; set feedrate
G1 Y-5.000000
  X7.352941
  Y-1.000000
G0 Z25.000000
  Y21.000000
F100	; set feedrate
G1 Z9.000000
F1200	; set feedrate
G1 Y25.000000
  X5.588235
  Y21.000000
G0 Z25.000000
  Y-1.000000
F100	; set feedrate
G1 Z9.000000
F1200	; set feedrate
G1 Y-5.000000
  X3.823529
  Y-1.000000
G0 Z25.000000
  Y21.000000
F100	; set feedrate
G1 Z9.000000
F1200	; set feedrate
G1 Y25.000000
  X2.058824
  Y21.000000
G0 Z25.000000
  Y-1.000000
F100	; set feedrate
G1 Z9.000000
F1200	; set feedrate
G1 Y-5.000000
  X0.294118
  Y-1.000000
G0 Z25.000000
  Y21.000000
F100	; set feedrate
G1 Z9.000000
F1200	; set feedrate
G1 Y25.000000
  X-1.470588
  Y-5.000000
  X-3.235294
  Y25.000000
  X-5.000000
  Y-5.000000
F100	; set feedrate
G1 Z8.000000
F1200	; set feedrate
G1 X25.000000
  Y-3.235294
  X-5.000000
  Y-1.470588
  X25.000000
  Y0.294118
  X21.000000
G0 Z25.000000
  X-1.000000
F100	; set feedrate
G1 Z8.000000
F1200	; set feedrate
G1 X-5.000000
  Y2.058824
  X-1.000000
G0 Z25.000000
  X21.000000
F100	; set feedrate
G1 Z8.000000
F1200	; set feedrate
G1 X25.000000
  Y3.823529
  X21.000000
G0 Z25.000000
  X-1.000000
F100	; set feedrate
G1 Z8.000000
F1200	; set feedrate
G1 X-5.000000
  Y5.588235
  X-1.000000
G0 Z25.000000
  X21.000000
F100	; set feedrate
G1 Z8.000000
F1200	; set feedrate
G1 X25.000000
  Y7.352941
  X21.000000
G0 Z25.000000
  X-1.000000
F100	; set feedrate
G1 Z8.000000
F1200	; set feedrate
G1 X-5.000000
  Y9.117647
  X-1.000000
G0 Z25.000000
  X21.000000
F100	; set feedrate
G1 Z8.000000
F1200	; set feedrate
G1 X25.000000
  Y10.882353
  X21.000000
G0 Z25.000000
  X-1.000000
F100	; set feedrate
G1 Z8.000000
F1200	; set feedrate
G1 X-5.000000
  Y12.647059
  X-1.000000
G0 Z25.000000
  X21.000000
F100	; set feedrate
G1 Z8.000000
F1200	; set feedrate
G1 X25.000000
  Y14.411765
  X21.000000
G0 Z25.000000
  X-1.000000
F100	; set feedrate
G1 Z8.000000
F1200	; set feedrate
G1 X-5.000000
  Y16.176471
  X-1.000000
G0 Z25.000000
  X21.000000
F100	; set feedrate
G1 Z8.000000
F1200	; set feedrate
G1 X25.000000
  Y17.941176
  X21.000000
G0 Z25.000000
  X-1.000000
F100	; set feedrate
G1 Z8.000000
F1200	; set feedrate
G1 X-5.000000
  Y19.705882
  X-1.000000
G0 Z25.000000
  X21.000000
F100	; set feedrate
G1 Z8.000000
F1200	; set feedrate
G1 X25.000000
  Y21.470588
  X-5.000000
  Y23.235294
  X25.000000
  Y25.000000
  X-5.000000
  Y-5.000000
  X-3.235294
  Y25.000000
  X-1.470588
  Y-5.000000
  X0.294118
  Y-1.000000
G0 Z25.000000
  Y21.000000
F100	; set feedrate
G1 Z8.000000
F1200	; set feedrate
G1 Y25.000000
  X2.058824
  Y21.000000
G0 Z25.000000
  Y-1.000000
F100	; set feedrate
G1 Z8.000000
F1200	; set feedrate
G1 Y-5.000000
  X3.823529
  Y-1.000000
G0 Z25.000000
  Y21.000000
F100	; set feedrate
G1 Z8.000000
F1200	; set feedrate
G1 Y25.000000
  X5.588235
  Y21.000000
G0 Z25.000000
  Y-1.000000
F100	; set feedrate
G1 Z8.000000
F1200	; set feedrate
G1 Y-5.000000
  X7.352941
  Y-1.000000
G0 Z25.000000
  Y21.000000
F100	; set feedrate
G1 Z8.000000
F1200	; set feedrate
G1 Y25.000000
  X9.117647
  Y21.000000
G0 Z25.000000
  Y-1.000000
F100	; set feedrate
G1 Z8.000000
F1200	; set feedrate
G1 Y-5.000000
  X10.882353
  Y-1.000000
G0 Z25.000000
  Y21.000000
F100	; set feedrate
G1 Z8.000000
F1200	; set feedrate
G1 Y25.000000
  X12.647059
  Y21.000000
G0 Z25.000000
  Y-1.000000
F100	; set feedrate
G1 Z8.000000
F1200	; set feedrate
G1 Y-5.000000
  X14.411765
  Y-1.000000
G0 Z25.000000
  Y21.000000
F100	; set feedrate
G1 Z8.000000
F1200	; set feedrate
G1 Y25.000000
  X16.176471
  Y21.000000
G0 Z25.000000
  Y-1.000000
F100	; set feedrate
G1 Z8.000000
F1200	; set feedrate
G1 Y-5.000000
  X17.941176
  Y-1.000000
G0 Z25.000000
  Y21.000000
F100	; set feedrate
G1 Z8.000000
F1200	; set feedrate
G1 Y25.000000
  X19.705882
  Y21.000000
G0 Z25.000000
  Y-1.000000
F100	; set feedrate
G1 Z8.000000
F1200	; set feedrate
G1 Y-5.000000
  X21.470588
  Y25.000000
  X23.235294
  Y-5.000000
  X25.000000
  Y25.000000
F100	; set feedrate
G1 Z7.000000
F1200	; set feedrate
G1 X-5.000000
  Y23.235294
  X25.000000
  Y21.470588
  X-5.000000
  Y19.705882
  X-1.000000
G0 Z25.000000
  X21.000000
F100	; set feedrate
G1 Z7.000000
F1200	; set feedrate
G1 X25.000000
  Y17.941176
  X21.000000
G0 Z25.000000
  X-1.000000
F100	; set feedrate
G1 Z7.000000
F1200	; set feedrate
G1 X-5.000000
  Y16.176471
  X-1.000000
G0 Z25.000000
  X21.000000
F100	; set feedrate
G1 Z7.000000
F1200	; set feedrate
G1 X25.000000
  Y14.411765
  X21.000000
G0 Z25.000000
  X-1.000000
F100	; set feedrate
G1 Z7.000000
F1200	; set feedrate
G1 X-5.000000
  Y12.647059
  X-1.000000
G0 Z25.000000
  X21.000000
F100	; set feedrate
G1 Z7.000000
F1200	; set feedrate
G1 X25.000000
  Y10.882353
  X21.000000
G0 Z25.000000
  X-1.000000
F100	; set feedrate
G1 Z7.000000
F1200	; set feedrate
G1 X-5.000000
  Y9.117647
  X-1.000000
G0 Z25.000000
  X21.000000
F100	; set feedrate
G1 Z7.000000
F1200	; set feedrate
G1 X25.000000
  Y7.352941
  X21.000000
G0 Z25.000000
  X-1.000000
F100	; set feedrate
G1 Z7.000000
F1200	; set feedrate
G1 X-5.000000
  Y5.588235
  X-1.000000
G0 Z25.000000
  X21.000000
F100	; set feedrate
G1 Z7.000000
F1200	; set feedrate
G1 X25.000000
  Y3.823529
  X21.000000
G0 Z25.000000
  X-1.000000
F100	; set feedrate
G1 Z7.000000
F1200	; set feedrate
G1 X-5.000000
  Y2.058824
  X-1.000000
G0 Z25.000000
  X21.000000
F100	; set feedrate
G1 Z7.000000
F1200	; set feedrate
G1 X25.000000
  Y0.294118
  X21.000000
G0 Z25.000000
  X-1.000000
F100	; set feedrate
G1 Z7.000000
F1200	; set feedrate
G1 X-5.000000
  Y-1.470588
  X25.000000
  Y-3.235294
  X-5.000000
  Y-5.000000
  X25.000000
  Y25.000000
  X23.235294
  Y-5.000000
  X21.470588
  Y25.000000
  X19.705882
  Y21.000000
G0 Z25.000000
  Y-1.000000
F100	; set feedrate
G1 Z7.000000
F1200	; set feedrate
G1 Y-5.000000
  X17.941176
  Y-1.000000
G0 Z25.000000
  Y21.000000
F100	; set feedrate
G1 Z7.000000
F1200	; set feedrate
G1 Y25.000000
  X16.176471
  Y21.000000
G0 Z25.000000
  Y-1.000000
F100	; set feedrate
G1 Z7.000000
F1200	; set feedrate
G1 Y-5.000000
  X14.411765
  Y-1.000000
G0 Z25.000000
  Y21.000000
F100	; set feedrate
G1 Z7.000000
F1200	; set feedrate
G1 Y25.000000
  X12.647059
  Y21.000000
G0 Z25.000000
  Y-1.000000
F100	; set feedrate
G1 Z7.000000
F1200	; set feedrate
G1 Y-5.000000
  X10.882353
  Y-1.000000
G0 Z25.000000
  Y21.000000
F100	; set feedrate
G1 Z7.000000
F1200	; set feedrate
G1 Y25.000000
  X9.117647
  Y21.000000
G0 Z25.000000
  Y-1.000000
F100	; set feedrate
G1 Z7.000000
F1200	; set feedrate
G1 Y-5.000000
  X7.352941
  Y-1.000000
G0 Z25.000000
  Y21.000000
F100	; set feedrate
G1 Z7.000000
F1200	; set feedrate
G1 Y25.000000
  X5.588235
  Y21.000000
G0 Z25.000000
  Y-1.000000
F100	; set feedrate
G1 Z7.000000
F1200	; set feedrate
G1 Y-5.000000
  X3.823529
  Y-1.000000
G0 Z25.000000
  Y21.000000
F100	; set feedrate
G1 Z7.000000
F1200	; set feedrate
G1 Y25.000000
  X2.058824
  Y21.000000
G0 Z25.000000
  Y-1.000000
F100	; set feedrate
G1 Z7.000000
F1200	; set feedrate
G1 Y-5.000000
  X0.294118
  Y-1.000000
G0 Z25.000000
  Y21.000000
F100	; set feedrate
G1 Z7.000000
F1200	; set feedrate
G1 Y25.000000
  X-1.470588
  Y-5.000000
  X-3.235294
  Y25.000000
  X-5.000000
  Y-5.000000
F100	; set feedrate
G1 Z6.000000
F1200	; set feedrate
G1 X25.000000
  Y-3.235294
  X-5.000000
  Y-1.470588
  X25.000000
  Y0.294118
  X21.000000
G0 Z25.000000
  X-1.000000
F100	; set feedrate
G1 Z6.000000
F1200	; set feedrate
G1 X-5.000000
  Y2.058824
  X-1.000000
G0 Z25.000000
  X21.000000
F100	; set feedrate
G1 Z6.000000
F1200	; set feedrate
G1 X25.000000
  Y3.823529
  X21.000000
G0 Z25.000000
  X-1.000000
F100	; set feedrate
G1 Z6.000000
F1200	; set feedrate
G1 X-5.000000
  Y5.588235
  X-1.000000
G0 Z25.000000
  X21.000000
F100	; set feedrate
G1 Z6.000000
F1200	; set feedrate
G1 X25.000000
  Y7.352941
  X21.000000
G0 Z25.000000
  X-1.000000
F100	; set feedrate
G1 Z6.000000
F1200	; set feedrate
G1 X-5.000000
  Y9.117647
  X-1.000000
G0 Z25.000000
  X21.000000
F100	; set feedrate
G1 Z6.000000
F1200	; set feedrate
G1 X25.000000
  Y10.882353
  X21.000000
G0 Z25.000000
  X-1.000000
F100	; set feedrate
G1 Z6.000000
F1200	; set feedrate
G1 X-5.000000
  Y12.647059
  X-1.000000
G0 Z25.000000
  X21.000000
F100	; set feedrate
G1 Z6.000000
F1200	; set feedrate
G1 X25.000000
  Y14.411765
  X21.000000
G0 Z25.000000
  X-1.000000
F100	; set feedrate
G1 Z6.000000
F1200	; set feedrate
G1 X-5.000000
  Y16.176471
  X-1.000000
G0 Z25.000000
  X21.000000
F100	; set feedrate
G1 Z6.000000
F1200	; set feedrate
G1 X25.000000
  Y17.941176
  X21.000000
G0 Z25.000000
  X-1.000000
F100	; set feedrate
G1 Z6.000000
F1200	; set feedrate
G1 X-5.000000
  Y19.705882
  X-1.000000
G0 Z25.000000
  X21.000000
F100	; set feedrate
G1 Z6.000000
F1200	; set feedrate
G1 X25.000000
  Y21.470588
  X-5.000000
  Y23.235294
  X25.000000
  Y25.000000
  X-5.000000
  Y-5.000000
  X-3.235294
  Y25.000000
  X-1.470588
  Y-5.000000
  X0.294118
  Y-1.000000
G0 Z25.000000
  Y21.000000
F100	; set feedrate
G1 Z6.000000
F1200	; set feedrate
G1 Y25.000000
  X2.058824
  Y21.000000
G0 Z25.000000
  Y-1.000000
F100	; set feedrate
G1 Z6.000000
F1200	; set feedrate
G1 Y-5.000000
  X3.823529
  Y-1.000000
G0 Z25.000000
  Y21.000000
F100	; set feedrate
G1 Z6.000000
F1200	; set feedrate
G1 Y25.000000
  X5.588235
  Y21.000000
G0 Z25.000000
  Y-1.000000
F100	; set feedrate
G1 Z6.000000
F1200	; set feedrate
G1 Y-5.000000
  X7.352941
  Y-1.000000
G0 Z25.000000
  Y21.000000
F100	; set feedrate
G1 Z6.000000
F1200	; set feedrate
G1 Y25.000000
  X9.117647
  Y21.000000
G0 Z25.000000
  Y-1.000000
F100	; set feedrate
G1 Z6.000000
F1200	; set feedrate
G1 Y-5.000000
  X10.882353
  Y-1.000000
G0 Z25.000000
  Y21.000000
F100	; set feedrate
G1 Z6.000000
F1200	; set feedrate
G1 Y25.000000
  X12.647059
  Y21.000000
G0 Z25.000000
  Y-1.000000
F100	; set feedrate
G1 Z6.000000
F1200	; set feedrate
G1 Y-5.000000
  X14.411765
  Y-1.000000
G0 Z25.000000
  Y21.000000
F100	; set feedrate
G1 Z6.000000
F1200	; set feedrate
G1 Y25.000000
  X16.176471
  Y21.000000
G0 Z25.000000
  Y-1.000000
F100	; set feedrate
G1 Z6.000000
F1200	; set feedrate
G1 Y-5.000000
  X17.941176
  Y-1.000000
G0 Z25.000000
  Y21.000000
F100	; set feedrate
G1 Z6.000000
F1200	; set feedrate
G1 Y25.000000
  X19.705882
  Y21.000000
G0 Z25.000000
  Y-1.000000
F100	; set feedrate
G1 Z6.000000
F1200	; set feedrate
G1 Y-5.000000
  X21.470588
  Y25.000000
  X23.235294
  Y-5.000000
  X25.000000
  Y25.000000
F100	; set feedrate
G1 Z5.000000
F1200	; set feedrate
G1 X-5.000000
  Y23.235294
  X25.000000
  Y21.470588
  X-5.000000
  Y19.705882
  X-1.000000
G0 Z25.000000
  X21.000000
F100	; set feedrate
G1 Z5.000000
F1200	; set feedrate
G1 X25.000000
  Y17.941176
  X21.000000
G0 Z25.000000
  X-1.000000
F100	; set feedrate
G1 Z5.000000
F1200	; set feedrate
G1 X-5.000000
  Y16.176471
  X-1.000000
G0 Z25.000000
  X21.000000
F100	; set feedrate
G1 Z5.000000
F1200	; set feedrate
G1 X25.000000
  Y14.411765
  X21.000000
G0 Z25.000000
  X-1.000000
F100	; set feedrate
G1 Z5.000000
F1200	; set feedrate
G1 X-5.000000
  Y12.647059
  X-1.000000
G0 Z25.000000
  X21.000000
F100	; set feedrate
G1 Z5.000000
F1200	; set feedrate
G1 X25.000000
  Y10.882353
  X21.000000
G0 Z25.000000
  X-1.000000
F100	; set feedrate
G1 Z5.000000
F1200	; set feedrate
G1 X-5.000000
  Y9.117647
  X-1.000000
G0 Z25.000000
  X21.000000
F100	; set feedrate
G1 Z5.000000
F1200	; set feedrate
G1 X25.000000
  Y7.352941
  X21.000000
G0 Z25.000000
  X-1.000000
F100	; set feedrate
G1 Z5.000000
F1200	; set feedrate
G1 X-5.000000
  Y5.588235
  X-1.000000
G0 Z25.000000
  X21.000000
F100	; set feedrate
G1 Z5.000000
F1200	; set feedrate
G1 X25.000000
  Y3.823529
  X21.000000
G0 Z25.000000
  X-1.000000
F100	; set feedrate
G1 Z5.000000
F1200	; set feedrate
G1 X-5.000000
  Y2.058824
  X-1.000000
G0 Z25.000000
  X21.000000
F100	; set feedrate
G1 Z5.000000
F1200	; set feedrate
G1 X25.000000
  Y0.294118
  X21.000000
G0 Z25.000000
  X-1.000000
F100	; set feedrate
G1 Z5.000000
F1200	; set feedrate
G1 X-5.000000
  Y-1.470588
  X25.000000
  Y-3.235294
  X-5.000000
  Y-5.000000
  X25.000000
  Y25.000000
  X23.235294
  Y-5.000000
  X21.470588
  Y25.000000
  X19.705882
  Y21.000000
G0 Z25.000000
  Y-1.000000
F100	; set feedrate
G1 Z5.000000
F1200	; set feedrate
G1 Y-5.000000
  X17.941176
  Y-1.000000
G0 Z25.000000
  Y21.000000
F100	; set feedrate
G1 Z5.000000
F1200	; set feedrate
G1 Y25.000000
  X16.176471
  Y21.000000
G0 Z25.000000
  Y-1.000000
F100	; set feedrate
G1 Z5.000000
F1200	; set feedrate
G1 Y-5.000000
  X14.411765
  Y-1.000000
G0 Z25.000000
  Y21.000000
F100	; set feedrate
G1 Z5.000000
F1200	; set feedrate
G1 Y25.000000
  X12.647059
  Y21.000000
G0 Z25.000000
  Y-1.000000
F100	; set feedrate
G1 Z5.000000
F1200	; set feedrate
G1 Y-5.000000
  X10.882353
  Y-1.000000
G0 Z25.000000
  Y21.000000
F100	; set feedrate
G1 Z5.000000
F1200	; set feedrate
G1 Y25.000000
  X9.117647
  Y21.000000
G0 Z25.000000
  Y-1.000000
F100	; set feedrate
G1 Z5.000000
F1200	; set feedrate
G1 Y-5.000000
  X7.352941
  Y-1.000000
G0 Z25.000000
  Y21.000000
F100	; set feedrate
G1 Z5.000000
F1200	; set feedrate
G1 Y25.000000
  X5.588235
  Y21.000000
G0 Z25.000000
  Y-1.000000
F100	; set feedrate
G1 Z5.000000
F1200	; set feedrate
G1 Y-5.000000
  X3.823529
  Y-1.000000
G0 Z25.000000
  Y21.000000
F100	; set feedrate
G1 Z5.000000
F1200	; set feedrate
G1 Y25.000000
  X2.058824
  Y21.000000
G0 Z25.000000
  Y-1.000000
F100	; set feedrate
G1 Z5.000000
F1200	; set feedrate
G1 Y-5.000000
  X0.294118
  Y-1.000000
G0 Z25.000000
  Y21.000000
F100	; set feedrate
G1 Z5.000000
F1200	; set feedrate
G1 Y25.000000
  X-1.470588
  Y-5.000000
  X-3.235294
  Y25.000000
  X-5.000000
  Y-5.000000
F100	; set feedrate
G1 Z4.000000
F1200	; set feedrate
G1 X25.000000
  Y-3.235294
  X-5.000000
  Y-1.470588
  X25.000000
  Y0.294118
  X21.000000
G0 Z25.000000
  X-1.000000
F100	; set feedrate
G1 Z4.000000
F1200	; set feedrate
G1 X-5.000000
  Y2.058824
  X-1.000000
G0 Z25.000000
  X21.000000
F100	; set feedrate
G1 Z4.000000
F1200	; set feedrate
G1 X25.000000
  Y3.823529
  X21.000000
G0 Z25.000000
  X-1.000000
F100	; set feedrate
G1 Z4.000000
F1200	; set feedrate
G1 X-5.000000
  Y5.588235
  X-1.000000
G0 Z25.000000
  X21.000000
F100	; set feedrate
G1 Z4.000000
F1200	; set feedrate
G1 X25.000000
  Y7.352941
  X21.000000
G0 Z25.000000
  X-1.000000
F100	; set feedrate
G1 Z4.000000
F1200	; set feedrate
G1 X-5.000000
  Y9.117647
  X-1.000000
G0 Z25.000000
  X21.000000
F100	; set feedrate
G1 Z4.000000
F1200	; set feedrate
G1 X25.000000
  Y10.882353
  X21.000000
G0 Z25.000000
  X-1.000000
F100	; set feedrate
G1 Z4.000000
F1200	; set feedrate
G1 X-5.000000
  Y12.647059
  X-1.000000
G0 Z25.000000
  X21.000000
F100	; set feedrate
G1 Z4.000000
F1200	; set feedrate
G1 X25.000000
  Y14.411765
  X21.000000
G0 Z25.000000
  X-1.000000
F100	; set feedrate
G1 Z4.000000
F1200	; set feedrate
G1 X-5.000000
  Y16.176471
  X-1.000000
G0 Z25.000000
  X21.000000
F100	; set feedrate
G1 Z4.000000
F1200	; set feedrate
G1 X25.000000
  Y17.941176
  X21.000000
G0 Z25.000000
  X-1.000000
F100	; set feedrate
G1 Z4.000000
F1200	; set feedrate
G1 X-5.000000
  Y19.705882
  X-1.000000
G0 Z25.000000
  X21.000000
F100	; set feedrate
G1 Z4.000000
F1200	; set feedrate
G1 X25.000000
  Y21.470588
  X-5.000000
  Y23.235294
  X25.000000
  Y25.000000
  X-5.000000
  Y-5.000000
  X-3.235294
  Y25.000000
  X-1.470588
  Y-5.000000
  X0.294118
  Y-1.000000
G0 Z25.000000
  Y21.000000
F100	; set feedrate
G1 Z4.000000
F1200	; set feedrate
G1 Y25.000000
  X2.058824
  Y21.000000
G0 Z25.000000
  Y-1.000000
F100	; set feedrate
G1 Z4.000000
F1200	; set feedrate
G1 Y-5.000000
  X3.823529
  Y-1.000000
G0 Z25.000000
  Y21.000000
F100	; set feedrate
G1 Z4.000000
F1200	; set feedrate
G1 Y25.000000
  X5.588235
  Y21.000000
G0 Z25.000000
  Y-1.000000
F100	; set feedrate
G1 Z4.000000
F1200	; set feedrate
G1 Y-5.000000
  X7.352941
  Y-1.000000
G0 Z25.000000
  Y21.000000
F100	; set feedrate
G1 Z4.000000
F1200	; set feedrate
G1 Y25.000000
  X9.117647
  Y21.000000
G0 Z25.000000
  Y-1.000000
F100	; set feedrate
G1 Z4.000000
F1200	; set feedrate
G1 Y-5.000000
  X10.882353
  Y-1.000000
G0 Z25.000000
  Y21.000000
F100	; set feedrate
G1 Z4.000000
F1200	; set feedrate
G1 Y25.000000
  X12.647059
  Y21.000000
G0 Z25.000000
  Y-1.000000
F100	; set feedrate
G1 Z4.000000
F1200	; set feedrate
G1 Y-5.000000
  X14.411765
  Y-1.000000
G0 Z25.000000
  Y21.000000
F100	; set feedrate
G1 Z4.000000
F1200	; set feedrate
G1 Y25.000000
  X16.176471
  Y21.000000
G0 Z25.000000
  Y-1.000000
F100	; set feedrate
G1 Z4.000000
F1200	; set feedrate
G1 Y-5.000000
  X17.941176
  Y-1.000000
G0 Z25.000000
  Y21.000000
F100	; set feedrate
G1 Z4.000000
F1200	; set feedrate
G1 Y25.000000
  X19.705882
  Y21.000000
G0 Z25.000000
  Y-1.000000
F100	; set feedrate
G1 Z4.000000
F1200	; set feedrate
G1 Y-5.000000
  X21.470588
  Y25.000000
  X23.235294
  Y-5.000000
  X25.000000
  Y25.000000
F100	; set feedrate
G1 Z3.000000
F1200	; set feedrate
G1 X-5.000000
  Y23.235294
  X25.000000
  Y21.470588
  X-5.000000
  Y19.705882
  X-1.000000
G0 Z25.000000
  X21.000000
F100	; set feedrate
G1 Z3.000000
F1200	; set feedrate
G1 X25.000000
  Y17.941176
  X21.000000
G0 Z25.000000
  X-1.000000
F100	; set feedrate
G1 Z3.000000
F1200	; set feedrate
G1 X-5.000000
  Y16.176471
  X-1.000000
G0 Z25.000000
  X21.000000
F100	; set feedrate
G1 Z3.000000
F1200	; set feedrate
G1 X25.000000
  Y14.411765
  X21.000000
G0 Z25.000000
  X-1.000000
F100	; set feedrate
G1 Z3.000000
F1200	; set feedrate
G1 X-5.000000
  Y12.647059
  X-1.000000
G0 Z25.000000
  X21.000000
F100	; set feedrate
G1 Z3.000000
F1200	; set feedrate
G1 X25.000000
  Y10.882353
  X21.000000
G0 Z25.000000
  X-1.000000
F100	; set feedrate
G1 Z3.000000
F1200	; set feedrate
G1 X-5.000000
  Y9.117647
  X-1.000000
G0 Z25.000000
  X21.000000
F100	; set feedrate
G1 Z3.000000
F1200	; set feedrate
G1 X25.000000
  Y7.352941
  X21.000000
G0 Z25.000000
  X-1.000000
F100	; set feedrate
G1 Z3.000000
F1200	; set feedrate
G1 X-5.000000
  Y5.588235
  X-1.000000
G0 Z25.000000
  X21.000000
F100	; set feedrate
G1 Z3.000000
F1200	; set feedrate
G1 X25.000000
  Y3.823529
  X21.000000
G0 Z25.000000
  X-1.000000
F100	; set feedrate
G1 Z3.000000
F1200	; set feedrate
G1 X-5.000000
  Y2.058824
  X-1.000000
G0 Z25.000000
  X21.000000
F100	; set feedrate
G1 Z3.000000
F1200	; set feedrate
G1 X25.000000
  Y0.294118
  X21.000000
G0 Z25.000000
  X-1.000000
F100	; set feedrate
G1 Z3.000000
F1200	; set feedrate
G1 X-5.000000
  Y-1.470588
  X25.000000
  Y-3.235294
  X-5.000000
  Y-5.000000
  X25.000000
  Y25.000000
  X23.235294
  Y-5.000000
  X21.470588
  Y25.000000
  X19.705882
  Y21.000000
G0 Z25.000000
  Y-1.000000
F100	; set feedrate
G1 Z3.000000
F1200	; set feedrate
G1 Y-5.000000
  X17.941176
  Y-1.000000
G0 Z25.000000
  Y21.000000
F100	; set feedrate
G1 Z3.000000
F1200	; set feedrate
G1 Y25.000000
  X16.176471
  Y21.000000
G0 Z25.000000
  Y-1.000000
F100	; set feedrate
G1 Z3.000000
F1200	; set feedrate
G1 Y-5.000000
  X14.411765
  Y-1.000000
G0 Z25.000000
  Y21.000000
F100	; set feedrate
G1 Z3.000000
F1200	; set feedrate
G1 Y25.000000
  X12.647059
  Y21.000000
G0 Z25.000000
  Y-1.000000
F100	; set feedrate
G1 Z3.000000
F1200	; set feedrate
G1 Y-5.000000
  X10.882353
  Y-1.000000
G0 Z25.000000
  Y21.000000
F100	; set feedrate
G1 Z3.000000
F1200	; set feedrate
G1 Y25.000000
  X9.117647
  Y21.000000
G0 Z25.000000
  Y-1.000000
F100	; set feedrate
G1 Z3.000000
F1200	; set feedrate
G1 Y-5.000000
  X7.352941
  Y-1.000000
G0 Z25.000000
  Y21.000000
F100	; set feedrate
G1 Z3.000000
F1200	; set feedrate
G1 Y25.000000
  X5.588235
  Y21.000000
G0 Z25.000000
  Y-1.000000
F100	; set feedrate
G1 Z3.000000
F1200	; set feedrate
G1 Y-5.000000
  X3.823529
  Y-1.000000
G0 Z25.000000
  Y21.000000
F100	; set feedrate
G1 Z3.000000
F1200	; set feedrate
G1 Y25.000000
  X2.058824
  Y21.000000
G0 Z25.000000
  Y-1.000000
F100	; set feedrate
G1 Z3.000000
F1200	; set feedrate
G1 Y-5.000000
  X0.294118
  Y-1.000000
G0 Z25.000000
  Y21.000000
F100	; set feedrate
G1 Z3.000000
F1200	; set feedrate
G1 Y25.000000
  X-1.470588
  Y-5.000000
  X-3.235294
  Y25.000000
  X-5.000000
  Y-5.000000
F100	; set feedrate
G1 Z2.000000
F1200	; set feedrate
G1 X25.000000
  Y-3.235294
  X-5.000000
  Y-1.470588
  X25.000000
  Y0.294118
  X21.000000
G0 Z25.000000
  X-1.000000
F100	; set feedrate
G1 Z2.000000
F1200	; set feedrate
G1 X-5.000000
  Y2.058824
  X-1.000000
G0 Z25.000000
  X21.000000
F100	; set feedrate
G1 Z2.000000
F1200	; set feedrate
G1 X25.000000
  Y3.823529
  X21.000000
G0 Z25.000000
  X-1.000000
F100	; set feedrate
G1 Z2.000000
F1200	; set feedrate
G1 X-5.000000
  Y5.588235
  X-1.000000
G0 Z25.000000
  X21.000000
F100	; set feedrate
G1 Z2.000000
F1200	; set feedrate
G1 X25.000000
  Y7.352941
  X21.000000
G0 Z25.000000
  X-1.000000
F100	; set feedrate
G1 Z2.000000
F1200	; set feedrate
G1 X-5.000000
  Y9.117647
  X-1.000000
G0 Z25.000000
  X21.000000
F100	; set feedrate
G1 Z2.000000
F1200	; set feedrate
G1 X25.000000
  Y10.882353
  X21.000000
G0 Z25.000000
  X-1.000000
F100	; set feedrate
G1 Z2.000000
F1200	; set feedrate
G1 X-5.000000
  Y12.647059
  X-1.000000
G0 Z25.000000
  X21.000000
F100	; set feedrate
G1 Z2.000000
F1200	; set feedrate
G1 X25.000000
  Y14.411765
  X21.000000
G0 Z25.000000
  X-1.000000
F100	; set feedrate
G1 Z2.000000
F1200	; set feedrate
G1 X-5.000000
  Y16.176471
  X-1.000000
G0 Z25.000000
  X21.000000
F100	; set feedrate
G1 Z2.000000
F1200	; set feedrate
G1 X25.000000
  Y17.941176
  X21.000000
G0 Z25.000000
  X-1.000000
F100	; set feedrate
G1 Z2.000000
F1200	; set feedrate
G1 X-5.000000
  Y19.705882
  X-1.000000
G0 Z25.000000
  X21.000000
F100	; set feedrate
G1 Z2.000000
F1200	; set feedrate
G1 X25.000000
  Y21.470588
  X-5.000000
  Y23.235294
  X25.000000
  Y25.000000
  X-5.000000
  Y-5.000000
  X-3.235294
  Y25.000000
  X-1.470588
  Y-5.000000
  X0.294118
  Y-1.000000
G0 Z25.000000
  Y21.000000
F100	; set feedrate
G1 Z2.000000
F1200	; set feedrate
G1 Y25.000000
  X2.058824
  Y21.000000
G0 Z25.000000
  Y-1.000000
F100	; set feedrate
G1 Z2.000000
F1200	; set feedrate
G1 Y-5.000000
  X3.823529
  Y-1.000000
G0 Z25.000000
  Y21.000000
F100	; set feedrate
G1 Z2.000000
F1200	; set feedrate
G1 Y25.000000
  X5.588235
  Y21.000000
G0 Z25.000000
  Y-1.000000
F100	; set feedrate
G1 Z2.000000
F1200	; set feedrate
G1 Y-5.000000
  X7.352941
  Y-1.000000
G0 Z25.000000
  Y21.000000
F100	; set feedrate
G1 Z2.000000
F1200	; set feedrate
G1 Y25.000000
  X9.117647
  Y21.000000
G0 Z25.000000
  Y-1.000000
F100	; set feedrate
G1 Z2.000000
F1200	; set feedrate
G1 Y-5.000000
  X10.882353
  Y-1.000000
G0 Z25.000000
  Y21.000000
F100	; set feedrate
G1 Z2.000000
F1200	; set feedrate
G1 Y25.000000
  X12.647059
  Y21.000000
G0 Z25.000000
  Y-1.000000
F100	; set feedrate
G1 Z2.000000
F1200	; set feedrate
G1 Y-5.000000
  X14.411765
  Y-1.000000
G0 Z25.000000
  Y21.000000
F100	; set feedrate
G1 Z2.000000
F1200	; set feedrate
G1 Y25.000000
  X16.176471
  Y21.000000
G0 Z25.000000
  Y-1.000000
F100	; set feedrate
G1 Z2.000000
F1200	; set feedrate
G1 Y-5.000000
  X17.941176
  Y-1.000000
G0 Z25.000000
  Y21.000000
F100	; set feedrate
G1 Z2.000000
F1200	; set feedrate
G1 Y25.000000
  X19.705882
  Y21.000000
G0 Z25.000000
  Y-1.000000
F100	; set feedrate
G1 Z2.000000
F1200	; set feedrate
G1 Y-5.000000
  X21.470588
  Y25.000000
  X23.235294
  Y-5.000000
  X25.000000
  Y25.000000
F100	; set feedrate
G1 Z1.000000
F1200	; set feedrate
G1 X-5.000000
  Y23.235294
  X25.000000
  Y21.470588
  X-5.000000
  Y19.705882
  X-1.000000
G0 Z25.000000
  X21.000000
F100	; set feedrate
G1 Z1.000000
F1200	; set feedrate
G1 X25.000000
  Y17.941176
  X21.000000
G0 Z25.000000
  X-1.000000
F100	; set feedrate
G1 Z1.000000
F1200	; set feedrate
G1 X-5.000000
  Y16.176471
  X-1.000000
G0 Z25.000000
  X21.000000
F100	; set feedrate
G1 Z1.000000
F1200	; set feedrate
G1 X25.000000
  Y14.411765
  X21.000000
G0 Z25.000000
  X-1.000000
F100	; set feedrate
G1 Z1.000000
F1200	; set feedrate
G1 X-5.000000
  Y12.647059
  X-1.000000
G0 Z25.000000
  X21.000000
F100	; set feedrate
G1 Z1.000000
F1200	; set feedrate
G1 X25.000000
  Y10.882353
  X21.000000
G0 Z25.000000
  X-1.000000
F100	; set feedrate
G1 Z1.000000
F1200	; set feedrate
G1 X-5.000000
  Y9.117647
  X-1.000000
G0 Z25.000000
  X21.000000
F100	; set feedrate
G1 Z1.000000
F1200	; set feedrate
G1 X25.000000
  Y7.352941
  X21.000000
G0 Z25.000000
  X-1.000000
F100	; set feedrate
G1 Z1.000000
F1200	; set feedrate
G1 X-5.000000
  Y5.588235
  X-1.000000
G0 Z25.000000
  X21.000000
F100	; set feedrate
G1 Z1.000000
F1200	; set feedrate
G1 X25.000000
  Y3.823529
  X21.000000
G0 Z25.000000
  X-1.000000
F100	; set feedrate
G1 Z1.000000
F1200	; set feedrate
G1 X-5.000000
  Y2.058824
  X-1.000000
G0 Z25.000000
  X21.000000
F100	; set feedrate
G1 Z1.000000
F1200	; set feedrate
G1 X25.000000
  Y0.294118
  X21.000000
G0 Z25.000000
  X-1.000000
F100	; set feedrate
G1 Z1.000000
F1200	; set feedrate
G1 X-5.000000
  Y-1.470588
  X25.000000
  Y-3.235294
  X-5.000000
  Y-5.000000
  X25.000000
  Y25.000000
  X23.235294
  Y-5.000000
  X21.470588
  Y25.000000
  X19.705882
  Y21.000000
G0 Z25.000000
  Y-1.000000
F100	; set feedrate
G1 Z1.000000
F1200	; set feedrate
G1 Y-5.000000
  X17.941176
  Y-1.000000
G0 Z25.000000
  Y21.000000
F100	; set feedrate
G1 Z1.000000
F1200	; set feedrate
G1 Y25.000000
  X16.176471
  Y21.000000
G0 Z25.000000
  Y-1.000000
F100	; set feedrate
G1 Z1.000000
F1200	; set feedrate
G1 Y-5.000000
  X14.411765
  Y-1.000000
G0 Z25.000000
  Y21.000000
F100	; set feedrate
G1 Z1.000000
F1200	; set feedrate
G1 Y25.000000
  X12.647059
  Y21.000000
G0 Z25.000000
  Y-1.000000
F100	; set feedrate
G1 Z1.000000
F1200	; set feedrate
G1 Y-5.000000
  X10.882353
  Y-1.000000
G0 Z25.000000
  Y21.000000
F100	; set feedrate
G1 Z1.000000
F1200	; set feedrate
G1 Y25.000000
  X9.117647
  Y21.000000
G0 Z25.000000
  Y-1.000000
F100	; set feedrate
G1 Z1.000000
F1200	; set feedrate
G1 Y-5.000000
  X7.352941
  Y-1.000000
G0 Z25.000000
  Y21.000000
F100	; set feedrate
G1 Z1.000000
F1200	; set feedrate
G1 Y25.000000
  X5.588235
  Y21.000000
G0 Z25.000000
  Y-1.000000
F100	; set feedrate
G1 Z1.000000
F1200	; set feedrate
G1 Y-5.000000
  X3.823529
  Y-1.000000
G0 Z25.000000
  Y21.000000
F100	; set feedrate
G1 Z1.000000
F1200	; set feedrate
G1 Y25.000000
  X2.058824
  Y21.000000
G0 Z25.000000
  Y-1.000000
F100	; set feedrate
G1 Z1.000000
F1200	; set feedrate
G1 Y-5.000000
  X0.294118
  Y-1.000000
G0 Z25.000000
  Y21.000000
F100	; set feedrate
G1 Z1.000000
F1200	; set feedrate
G1 Y25.000000
  X-1.470588
  Y-5.000000
  X-3.235294
  Y25.000000
  X-5.000000
  Y-5.000000
F100	; set feedrate
G1 Z0.000000
F1200	; set feedrate
G1 X25.000000
  Y-3.235294
  X-5.000000
  Y-1.470588
  X25.000000
  Y0.294118
  X21.000000
G0 Z25.000000
  X-1.000000
F100	; set feedrate
G1 Z0.000000
F1200	; set feedrate
G1 X-5.000000
  Y2.058824
  X-1.000000
G0 Z25.000000
  X21.000000
F100	; set feedrate
G1 Z0.000000
F1200	; set feedrate
G1 X25.000000
  Y3.823529
  X21.000000
G0 Z25.000000
  X-1.000000
F100	; set feedrate
G1 Z0.000000
F1200	; set feedrate
G1 X-5.000000
  Y5.588235
  X-1.000000
G0 Z25.000000
  X21.000000
F100	; set feedrate
G1 Z0.000000
F1200	; set feedrate
G1 X25.000000
  Y7.352941
  X21.000000
G0 Z25.000000
  X-1.000000
F100	; set feedrate
G1 Z0.000000
F1200	; set feedrate
G1 X-5.000000
  Y9.117647
  X-1.000000
G0 Z25.000000
  X21.000000
F100	; set feedrate
G1 Z0.000000
F1200	; set feedrate
G1 X25.000000
  Y10.882353
  X21.000000
G0 Z25.000000
  X-1.000000
F100	; set feedrate
G1 Z0.000000
F1200	; set feedrate
G1 X-5.000000
  Y12.647059
  X-1.000000
G0 Z25.000000
  X21.000000
F100	; set feedrate
G1 Z0.000000
F1200	; set feedrate
G1 X25.000000
  Y14.411765
  X21.000000
G0 Z25.000000
  X-1.000000
F100	; set feedrate
G1 Z0.000000
F1200	; set feedrate
G1 X-5.000000
  Y16.176471
  X-1.000000
G0 Z25.000000
  X21.000000
F100	; set feedrate
G1 Z0.000000
F1200	; set feedrate
G1 X25.000000
  Y17.941176
  X21.000000
G0 Z25.000000
  X-1.000000
F100	; set feedrate
G1 Z0.000000
F1200	; set feedrate
G1 X-5.000000
  Y19.705882
  X-1.000000
G0 Z25.000000
  X21.000000
F100	; set feedrate
G1 Z0.000000
F1200	; set feedrate
G1 X25.000000
  Y21.470588
  X-5.000000
  Y23.235294
  X25.000000
  Y25.000000
  X-5.000000
  Y-5.000000
  X-3.235294
  Y25.000000
  X-1.470588
  Y-5.000000
  X0.294118
  Y-1.000000
G0 Z25.000000
  Y21.000000
F100	; set feedrate
G1 Z0.000000
F1200	; set feedrate
G1 Y25.000000
  X2.058824
  Y21.000000
G0 Z25.000000
  Y-1.000000
F100	; set feedrate
G1 Z0.000000
F1200	; set feedrate
G1 Y-5.000000
  X3.823529
  Y-1.000000
G0 Z25.000000
  Y21.000000
F100	; set feedrate
G1 Z0.000000
F1200	; set feedrate
G1 Y25.000000
  X5.588235
  Y21.000000
G0 Z25.000000
  Y-1.000000
F100	; set feedrate
G1 Z0.000000
F1200	; set feedrate
G1 Y-5.000000
  X7.352941
  Y-1.000000
G0 Z25.000000
  Y21.000000
F100	; set feedrate
G1 Z0.000000
F1200	; set feedrate
G1 Y25.000000
  X9.117647
  Y21.000000
G0 Z25.000000
  Y-1.000000
F100	; set feedrate
G1 Z0.000000
F1200	; set feedrate
G1 Y-5.000000
  X10.882353
  Y-1.000000
G0 Z25.000000
  Y21.000000
F100	; set feedrate
G1 Z0.000000
F1200	; set feedrate
G1 Y25.000000
  X12.647059
  Y21.000000
G0 Z25.000000
  Y-1.000000
F100	; set feedrate
G1 Z0.000000
F1200	; set feedrate
G1 Y-5.000000
  X14.411765
  Y-1.000000
G0 Z25.000000
  Y21.000000
F100	; set feedrate
G1 Z0.000000
F1200	; set feedrate
G1 Y25.000000
  X16.176471
  Y21.000000
G0 Z25.000000
  Y-1.000000
F100	; set feedrate
G1 Z0.000000
F1200	; set feedrate
G1 Y-5.000000
  X17.941176
  Y-1.000000
G0 Z25.000000
  Y21.000000
F100	; set feedrate
G1 Z0.000000
F1200	; set feedrate
G1 Y25.000000
  X19.705882
  Y21.000000
G0 Z25.000000
  Y-1.000000
F100	; set feedrate
G1 Z0.000000
F1200	; set feedrate
G1 Y-5.000000
  X21.470588
  Y25.000000
  X23.235294
  Y-5.000000
  X25.000000
  Y25.000000
M5	; stop spindle
G0 Z25.000000
M2	; end program
